/* XPM */
static char *result[] = {
/* columns rows colors chars-per-pixel */
"64 64 190 2 ",
"   c #52281C",
".  c #53281C",
"X  c #5B2D20",
"o  c #5F2E20",
"O  c #5F2F20",
"+  c #623022",
"@  c #633022",
"#  c #633122",
"$  c #633023",
"%  c #643022",
"&  c #643023",
"*  c #653023",
"=  c #673224",
"-  c #693424",
";  c #683425",
":  c #693425",
">  c #6B3524",
",  c #6B3525",
"<  c #6C3426",
"1  c #6D3426",
"2  c #6C3526",
"3  c #6D3526",
"4  c #6C3427",
"5  c #6D3427",
"6  c #703726",
"7  c #713726",
"8  c #703727",
"9  c #713727",
"0  c #753828",
"q  c #753928",
"w  c #753929",
"e  c #783A2A",
"r  c #793A2A",
"t  c #783B2A",
"y  c #783A2B",
"u  c #7A3C2A",
"i  c #7B3C2A",
"p  c #7A3D2A",
"a  c #7B3D2A",
"s  c #7A3C2B",
"d  c #7B3C2B",
"f  c #7A3D2B",
"g  c #7B3D2B",
"h  c #7C3C2B",
"j  c #7C3D2B",
"k  c #7D3D2B",
"l  c #7E3E2C",
"z  c #7E3F2C",
"x  c #803F2C",
"c  c #803E2D",
"v  c #803F2D",
"b  c #82402D",
"n  c #82412D",
"m  c #84412E",
"M  c #85412E",
"N  c #87422E",
"B  c #86432E",
"V  c #86422F",
"C  c #87422F",
"Z  c #86432F",
"A  c #87432F",
"S  c #88422E",
"D  c #88422F",
"F  c #89422F",
"G  c #89432F",
"H  c #8A4430",
"J  c #8B4430",
"K  c #8A4431",
"L  c #8B4431",
"P  c #8C4530",
"I  c #8D4530",
"U  c #8E4632",
"Y  c #8E4633",
"T  c #8F4633",
"R  c #914732",
"E  c #904733",
"W  c #914733",
"Q  c #934832",
"!  c #934833",
"~  c #934933",
"^  c #944934",
"/  c #954934",
"(  c #994A34",
")  c #994B34",
"_  c #994A35",
"`  c #994B35",
"'  c #9A4C36",
"]  c #9B4C36",
"[  c #9C4C36",
"{  c #9D4C36",
"}  c #9C4D36",
"|  c #9D4D36",
" . c #9C4C37",
".. c #9D4C37",
"X. c #9C4D37",
"o. c #9D4D37",
"O. c #9E4E38",
"+. c #9F4E38",
"@. c #9E4E39",
"#. c #9F4E39",
"$. c #9E4F39",
"%. c #A04F38",
"&. c #A14F38",
"*. c #A04E39",
"=. c #A14E39",
"-. c #A04F39",
";. c #A5513A",
":. c #A6523A",
">. c #A6523B",
",. c #A9523A",
"<. c #A8533A",
"1. c #A8523B",
"2. c #A9523B",
"3. c #A8533B",
"4. c #A9533B",
"5. c #AA543B",
"6. c #AF563C",
"7. c #AF563D",
"8. c #B65A40",
"9. c #B75A40",
"0. c #B65B40",
"q. c #B65A41",
"w. c #AAABAB",
"e. c #ACACAC",
"r. c gray69",
"t. c #B1B1B0",
"y. c #B1B0B1",
"u. c #B1B1B1",
"i. c #B2B2B2",
"p. c #B2B3B2",
"a. c #B3B3B2",
"s. c #B2B2B3",
"d. c #B2B3B3",
"f. c gray70",
"g. c #B4B4B4",
"h. c #B5B4B4",
"j. c #B4B5B4",
"k. c #B5B5B4",
"l. c #B4B4B5",
"z. c #B5B4B5",
"x. c #B4B5B5",
"c. c gray71",
"v. c #B7B6B7",
"b. c #B6B7B7",
"n. c #B7B7B7",
"m. c gray72",
"M. c #B9B8B8",
"N. c #B9B9B8",
"B. c #B9B9B9",
"V. c gray73",
"C. c #BBBABA",
"Z. c #BBBBBA",
"A. c #BABABB",
"S. c #BFBFBE",
"D. c gray75",
"F. c gray80",
"G. c #CCCDCC",
"H. c #CDCDCC",
"J. c #CDCCCD",
"K. c #CECECE",
"L. c #CFCECE",
"P. c #CECFCE",
"I. c #CFCFCE",
"U. c #D0D1D0",
"Y. c #D1D1D0",
"T. c #D0D1D1",
"R. c #D2D2D2",
"E. c #D3D2D2",
"W. c #D3D3D2",
"Q. c #D2D2D3",
"!. c #D3D2D3",
"~. c #D2D3D3",
"^. c LightGray",
"/. c #D5D4D4",
"(. c #D5D4D5",
"). c gray84",
"_. c #D6D7D6",
"`. c #D6D6D7",
"'. c #D7D6D7",
"]. c #D6D7D7",
"[. c #D7D7D7",
"{. c #D9D8D8",
"}. c gainsboro",
"|. c #DDDCDC",
" X c #DCDDDC",
".X c gray87",
"XX c #DFDEDE",
"oX c #E1E0E0",
"OX c #E0E1E1",
"+X c #E1E1E1",
/* pixels */
"o.o.o.o.! ! ! ! ....o...L.L.L.L.........+.#.+.+.E E E E :.:.:.>...o.| o.6.6.6.6.T Y T Y W.W.W.W.........4.4.4.4.X.X.X.X.......{ ",
"o...o.o.! ~ ! ! ......o.L.L.L.L.........+.O.+.+.E E E E :.:.:.:.| o.o.o.6.6.6.7.Y Y Y Y W.W.W.W.........4.4.4.4.X.X.X.X.{ ....{ ",
"o.| o.o.! ! ! !  ... ...L.L.L.L.........+.+.+.#.E E E E :.:.:.:.o.o.o.o.6.6.6.6.Y Y Y Y W.W.W.W.........4.4.3.4.X.X.X.X....... .",
"o.| o.o.! ! ! ! .... ...L.L.I.L.........+.+.+.+.E E E E :.>.:.:.o.o.o...6.6.6.6.Y Y Y Y W.W.W.W.........4.4.4.4.X.} X.X.........",
"g g f g i i a i V V V V oXoXoXoX8.0.8.8.s s f s 1 1 1 3 & & & & s s s s w w w w m m m m ~.^.!.^.o.o.o.o.z z z z s s s s h h h h ",
"g g g g i i i i V V V V oXoXoXoX8.8.8.8.s s s s 1 1 1 1 & & * & s s s s w w w w m m m M W.^.^.^.o.o.o.o.z z z z s s s s h h h h ",
"g g g d i i i i V V V V oXoXoXoX8.8.8.8.u s s s 1 1 1 1 & * & % s s s s w w w w m m m m ^.^.^.^.X.o.X.o.z z z z s s s s h h h h ",
"g f g g i i i u V V V V oXoXoXoX8.8.8.8.s s s s 1 1 1 1 & & & & s s s s w w w w m m m m ^.^.^.^.o.o.o.o.z z z z s s s s j h h h ",
"d d d d P I P P : : : : !.^.^.^. ... . .z z z z d d d d 8 8 8 8 s s s u s s s s p p p p W.W.W.W.b b b b W W R W s s s s U U U U ",
"d d d d P P P P : : : : ^.^.^.^. . . . .l z z z d g d d 8 6 8 8 s s s s s s s s p p p p W.W.W.W.b b b b W W W W s s s s U U U U ",
"d d d d P P P P : : : : ^.^.!.^.[  . . .z z z z d d d d 8 8 8 8 d f s s s s s s p p p f W.W.W.W.b b b b W W E W s s s s U U U U ",
"d d d d P P P P : : ; : ^.^.^.~. . . . .z z z z d d d d 8 8 8 8 s s s s s s s s p p p p W.W.W.E.b b b b W W W W s s s s Y U U U ",
"Z.C.C.C.m.m.m.m.p.a.a.a._._._._.l.l.l.l.g.g.g.g.j.j.j.j.t.t.t.t.l.l.l.l.B.B.B.B.l.g.l.z.}.}.}.}.g.g.g.g.h.h.h.h.u.u.u.y.S.S.S.S.",
"C.C.C.C.m.m.m.m.a.a.a.a._._._._.l.l.l.l.g.g.g.g.j.j.j.j.t.t.t.t.l.x.l.l.B.B.B.B.l.l.l.l.|.}.}.}.g.g.g.l.h.h.h.h.u.u.u.u.S.S.S.S.",
"C.C.C.C.m.m.m.m.a.a.a.a._._._.).l.l.l.l.g.g.g.g.j.j.j.j.t.t.t.t.l.l.l.l.B.B.B.B.l.l.l.l.}.}.}.}.g.g.g.g.h.h.h.h.u.u.u.u.S.S.D.S.",
"C.V.C.C.m.m.m.m.a.a.a.a._._._._.l.l.l.l.g.g.g.g.j.j.j.j.t.t.t.t.l.l.l.l.N.B.B.B.l.l.l.l.}.}.}.}.g.g.g.g.h.h.h.h.t.t.u.u.S.S.S.S.",
"H H H H ................o.o.o.o.{ { { { ! ! ! ! | o.o.o.Q.Q.Q.Q.,.2.2.,.3.1.3.3.%.%.%.%.o.X.o.o.o.o.o.o.{ { { ..........T.T.T.T.",
"H H H H ....o.....{ ....o.o.o.o.{ { { { ! ! ! ! o.o.} o.Q.Q.Q.Q.,.,.,.,.3.3.3.<.%.%.%.%.o.o.o.o.| o.o.o.{ { { [ ........T.T.T.T.",
"H H H H { ..{ ..........o.o.o.o...{ { { ! ! ! ! o.o.o.o.Q.Q.Q.Q.,.,.,.,.3.3.3.3.%.%.-.%.o.o.o.o.o.o...o.{ { { { ........T.T.T.T.",
"H H J H ................o.o.o.o.{ { { { ! ! ! ! o.o.o.o.Q.Q.Q.Q.,.,.,.,.3.3.3.3.%.%.%.%.o.o.o.o.o.o.o.o.{ { { { ........T.T.T.T.",
"........s s s s ] ' ] ] u u u u = = = = u u u u t e t t W.W.^.^.} X.} } s s s s 9 9 9 9 f f f f > , , , u u u u f f f f [.[.[.[.",
"........s s s s ] ] ] ] u u u u = = = = u u u u t t t t ^.W.^.!.} } } } s s s s 9 9 9 9 f g f f , , , , u u u u f f f f [.'.[.[.",
"........s s s s ] ] ] ] u u u u = = = = u u u u t t t t ^.^.^.^.} } } } s s s s 7 9 9 9 f f f f , , , , i u u u f f f f [.[.[.].",
"........s s s s ] ] ] ] u u u u = = = = u u u u t t t t W.^.^.~.} } } } s s s s 9 9 9 9 f f f f , , , , u u p u f f f f [.[.[.[.",
"o.o.o.o.O O O O S S S S 2 3 3 5 i a i i @ @ @ # s s s s  X}.}.}.5.5.5.5.< < < < m m m m q 0 0 0 s s s s u u u u s s s s R.R.R.R.",
"o.o.o.o.O O O O S S S S 3 3 3 3 i i i i @ @ + @ s s s s }.}.}.}.5.5.5.5.< 4 < < m m m m 0 0 0 0 s s s s u u u u f s s s R.R.R.R.",
"o.o.o.o.o O O O S S S S 3 3 3 3 i i i i @ $ @ @ s s s s }.}.}.}.5.5.5.5.< < < < m m m m 0 0 0 0 s s s s u u u u s s s s R.R.R.R.",
"o.o.o.| O O O O S D S S 3 3 3 3 i i i i @ @ @ @ s s s s }.}.}.}.5.5.5.5.< < < < m m m m 0 0 0 0 s s s s u u u u s s s s R.R.R.R.",
"g.g.g.g.h.g.g.g.g.g.g.g.i.i.i.i.d.d.d.d.B.B.B.B.j.j.j.j.`.`.`.'.l.l.l.l.g.g.g.g.r.r.r.r.g.g.g.g.x.l.l.l.g.g.g.g.g.g.g.g.[.[.[.[.",
"g.g.g.g.g.g.g.g.g.g.g.g.i.i.i.i.d.d.d.d.B.B.B.B.j.j.j.j.`.`.`.].l.l.l.l.g.g.g.g.r.r.r.r.g.g.g.g.l.l.l.x.g.g.g.g.g.g.g.l.].[.[.].",
"g.g.g.g.g.g.g.g.g.g.g.g.i.i.i.i.d.d.d.d.B.B.B.B.j.j.j.j.`.`.`.`.l.l.l.l.g.j.g.g.r.r.r.r.g.g.g.g.l.l.l.l.g.g.g.g.g.g.g.g.[.[.[.[.",
"g.g.g.j.g.g.l.g.g.l.h.g.i.i.i.i.d.d.d.d.B.B.B.B.j.j.j.j.`.`.`.`.l.l.l.z.g.g.g.g.r.r.r.r.g.g.g.g.l.l.l.l.g.g.g.g.g.g.g.g.[.[.[.[.",
"&.&.&.&.} [ } }  . . . .!.!.!.E.( _ _ _ o.X.X.X.;.;.;.;.9.9.9.9.*.=.=.=.} X.} } ........~.~.~.~...o.o.| o.o.o.o.q.q.q.q.h j k j ",
"&.&.&.&.} } } }  . . .[ !.!.!.!._ _ _ _ X.X.X.X.;.;.;.;.9.9.9.9.=.=.=.=.} } } } ........~.~.Q.~.o.o.o.o.o.o.o.o.q.q.q.q.j j j j ",
"&.&.&.&.} } } }  . . . .!.E.!.!._ _ _ _ X.X.X.X.;.;.;.;.9.9.9.9.=.=.=.=.} } } } ........~.~.~.^.o.o.o.X.o. .o.o.q.q.q.q.j j j j ",
"&.&.&.&.} } } }  . . . .Q.!.!.E._ _ ( _ X.X.X.X.;.;.;.;.8.9.9.9.=.=.=.=.} } } } ........~.~.~.Q.o.o.o.o.o.o.o.o.q.q.q.q.j j j j ",
"s s d s s s s s u p p p I.L.I.I.^ ^ ^ ^ s s s s s s s s f f f f C N C C L L L L r r r r H.H.H.H.o.o.o.o.G G G G s s s s u u u u ",
"s s s s s s s s p p p p I.I.I.I./ ^ ^ / s f s s s s s s f f f f C C C C L L L L r r r r H.H.H.H.o.o.o.o.G G G G s s s s u u u u ",
"s s s s s s s s p p p p I.I.I.I.^ ^ ^ ^ s d s s s s s s f f f f C C C C L L L L r r r r H.H.H.H.o.o.o.o.G G G G s s s s u u u u ",
"s s s s s s s s p p p p I.I.I.I.^ ^ ^ ^ s s s s s s s s f f f f C C C C L L L L r e r r H.H.H.H.o.| o.o.G G G G s s s s u u u u ",
"K K K H s s s s F F F F .X.X.X.Xo.| | | u u u u X X X X u u u u - - - - b b b b s s s s U.U.U.U.o.o.o.o.g g g g V Z Z Z p p p p ",
"K K L K s s s s F F F F .X.X.X.X| | | | u u u i X X X X u u u u - - - - b b b b s s s s U.U.U.U.o.o.o.o.g g g g Z Z Z Z p p p p ",
"L K K K f s s s F F F F XX.X.X.X| | | | u u u u X X X X u u u u - - - - b b b b s s s s U.U.U.U.o.o.o.o.g g g g Z Z Z Z p p f p ",
"K K K K s s s s F F F F .X.X.X.X| | | | u u u u X X X X u u u p - - - - b b b b s s s s U.U.Y.U.o.o.o.o.g g f g Z Z Z B p p p p ",
"l.l.l.l.h.h.h.g.e.e.e.e.).).).).h.h.h.h.z.z.c.z.g.g.g.g.g.g.g.g.l.l.l.l.l.l.l.l.i.i.s.i.{.{.{.{.f.f.f.f.A.A.A.A.u.u.u.u.h.z.z.z.",
"l.l.l.l.z.h.h.h.e.e.e.e.).).).).h.z.h.h.z.z.z.z.g.g.g.g.g.g.g.g.l.l.l.l.l.l.l.l.i.i.i.i.{.{.{.{.f.d.f.f.A.A.A.A.u.u.u.u.z.z.l.z.",
"l.l.l.l.h.h.h.h.e.e.e.e.).).).).h.h.h.h.z.z.z.z.g.g.g.g.g.g.g.g.l.l.l.l.l.l.l.l.i.i.i.i.{.{.{.{.f.f.f.f.A.A.A.A.u.u.u.u.z.z.z.c.",
"l.l.l.l.h.h.h.h.e.e.e.e.).).).).h.h.h.h.z.z.z.z.x.g.g.g.g.g.g.g.l.g.l.l.l.l.l.l.i.i.i.i.{.{.{.{.f.f.f.f.A.A.A.A.u.u.u.u.z.z.z.z.",
"@.@.@.@.&.&.&.&.6.6.6.6.........X.o...o.o.o.o.o.! ~ ! ! F.F.G.F./ / / / 9.9.9.9.| | | | o.o.o.X.` ` ` ` o.o.X.o.+.+.+.+.+X+X+X+X",
"@.@.@.@.&.&.&.&.6.6.6.6.........o.o.o.o.o.o.o.o.! ! ! ! F.F.F.F./ / / / 9.9.9.8.| } | | o.o.| o.` ` ` ` o.o.o.o.+.+.+.+.+X+X+XOX",
"@.@.@.@.&.&.&.&.6.6.6.6.........| o.o.o.o.o.o.o.Q ! ! ! F.F.F.F./ / / / 9.9.9.9.| | | | o.X.o.o.` ` ` ` ..o.o.o.+.+.+.+.+X+X+X+X",
"$.@.@.@.&.&.&.&.6.6.6.6.........o.o.o.o.o.o.o.o.! ! ! ~ F.F.F.F./ / / / 9.9.9.9.| | | | o.o.o.o.) ` ` ` o.o.o.o.#.+.+.+.+X+X+X+X",
"X.X.X.X.u u u u y e e e u u u u s s s s s s s s = = = = J.J.J.J.| | | | t t t t d d s g s s s s f f f f j j j j x x x x ~.~.~.~.",
"X.X.X.X.u u u i e e e e u u u u s s s s s s s s = = = = J.J.J.J.| | | | t t t t d d d d s s s s f f f f j j j j x x x x ~.~.^.~.",
"X.X.X.X.u u u s e e e y u u u u s s s s s s s s = = = = J.J.J.J.| | | | t t t t d d d d s s s s f f f f j j j j x x x x ~.~.~.~.",
"X.X.X.X.u u u u e e e e u u u u s s s s s s s s = = = = J.J.J.J.| | | | t t t t d d d d s s s s p f s f j j j j x x x x ~.~.~.^.",
"{ { { {         C C C C f f f f s s s s s s s s p p p p /./././.o.o.o.o.u u u u s s s s p p p p b b b n f s s f c c c c ^.^.^.^.",
"{ { { {         A C C C s f f f s s s s d s s s p p p p /./././.| o.o.o.u s u u s s s s p f p p b b b b s s s s c c v c ^.^.^.^.",
"{ { { {         C C C C f f f f s s s s s u s s p p p p /./././.o.o.o.o.u u u u s s s s p p p p b b b b s s s s c c c c ^.^.^.~.",
"{ { { {     .   C C C C f f f f s s s s s s s s p p p p (./././.o.o.o.o.u u u u s s s s p p p p b b b b s s f s c c c c ^.^.^.!.",
"l.l.l.l.a.p.p.p.w.w.w.w.n.b.n.n.l.l.l.l.n.n.n.n.g.g.g.g.`.`.`.`.M.M.M.M.g.g.j.g.t.t.t.t.x.x.x.x.N.N.M.N.l.l.l.l.c.c.c.c.K.P.K.K.",
"l.l.l.l.p.p.p.p.w.w.w.w.n.n.n.n.l.g.l.l.n.n.n.n.g.g.g.g.`.`.`.`.M.M.M.M.g.g.g.g.t.t.t.t.x.x.c.x.N.N.N.N.l.l.l.l.c.c.c.c.K.K.K.K.",
"l.g.l.l.p.p.a.p.w.w.w.w.n.v.n.n.l.l.l.l.n.b.n.n.g.g.g.g.`.`.).`.M.M.M.M.g.g.g.g.t.t.t.t.x.x.x.x.N.N.N.N.l.l.l.l.c.c.c.c.K.K.K.K.",
"l.l.l.z.p.p.a.p.w.w.w.w.b.n.n.n.l.l.l.l.v.n.n.n.g.g.g.g.`.`.`.`.M.m.M.M.g.g.l.h.t.t.t.t.x.x.x.x.N.N.N.M.l.l.l.l.c.k.c.c.K.K.K.K."
};
