/* XPM */
static char *result[] = {
/* columns rows colors chars-per-pixel */
"64 64 15 1 ",
"  c #4F4F4F",
". c #747474",
"X c #7B7C7B",
"o c #828281",
"O c #8D8D8D",
"+ c #949494",
"@ c #9B9B9B",
"# c #A4A4A4",
"$ c #ABABAB",
"% c #B4B4B4",
"& c #BCBCBB",
"* c #C3C3C3",
"= c #CBCBCB",
"- c #D1D1D1",
"; c None",
/* pixels */
";;;;;;;;;;;;;;;;######$$%&&***&*&&&&*****=**=*&&;;;;;;;;;;;;;;;;",
";;;;;;;;;;;;;;;;$####$$$%%*&&*&&&&*&*********=&&;;;;;;;;;;;;;;;;",
";;;;;;;;;;;;;;;;*&&***&&****&**&**&&*&**&*&***##;;;;;;;;;;;;;;;;",
";;;;;;;;;;;;;;;;&&**&&&&******&**&************##;;;;;;;;;;;;;;;;",
";;;;;;;;;;;;;;;;****&&&&%&&&&&***&&&&&&&%%*&&*##;;;;;;;;;;;;;;;;",
";;;;;;;;;;;;;;;;*&**&&&&&&&&&&**&&&*&&&&%%**&&##;;;;;;;;;;;;;;;;",
";;;;;;;;;;;;;;;;%&&&%%;;;;;;;;*=%&;;;;;;;;**&*#@;;;;;;;;;;;;;;;;",
";;;;;;;;;;;;;;;;&&&&%&;;;;;;;;=*%%;;;;;;;;**&&#@;;;;;;;;;;;;;;;;",
";;;;;;;;;;;;;;;;  &&&&;;;;;;;;=**&;;;;;;;;==*&$$;;;;;;;;;;;;;;;;",
";;;;;;;;;;;;;;;;  &&&&;;;;;;;;==&*;;;;;;;;==**#$;;;;;;;;;;;;;;;;",
";;;;;;;;;;;;;;;;oo**%%;;;;;;;;==&&;;;;;;;;==*&#$;;;;;;;;;;;;;;;;",
";;;;;;;;;;;;;;;;oo**&%;;;;;;;;==*&;;;;;;;;=*&*$#;;;;;;;;;;;;;;;;",
";;;;;;;;;;;;;;;;&*******=======*****=**=====**$#;;;;;;;;;;;;;;;;",
";;;;;;;;;;;;;;;;********========****==**====*&##;;;;;;;;;;;;;;;;",
";;;;;;;;;;;;;;;;&%&*&&%%%%%%%%&&%%%%%%%&%%*&%&#@;;;;;;;;;;;;;;;;",
";;;;;;;;;;;;;;;;&&&&%%%%%%$%%$&&%%%%%%%%%%&%&%##;;;;;;;;;;;;;;;;",
";;;;;;;;;;;;;;;;***=**;;;;;;;;=*&&;;;;;;;;=*&&##;;;;;;;;;;;;;;;;",
";;;;;;;;;;;;;;;;*&***&;;;;;;;;==&&;;;;;;;;**&&##;;;;;;;;;;;;;;;;",
";;;;;;;;;;;;;;;;****&&;;;;;;;;=-&&;;;;;;;;==*&#$;;;;;;;;;;;;;;;;",
";;;;;;;;;;;;;;;;&*&*&&;;;;;;;;-=*&;;;;;;;;=***##;;;;;;;;;;;;;;;;",
";;;;;;;;;;;;;;;;**=***;;;;;;;;==&&;;;;;;;;==*&##;;;;;;;;;;;;;;;;",
";;;;;;;;;;;;;;;;****&&;;;;;;;;==&&;;;;;;;;==&&##;;;;;;;;;;;;;;;;",
";;;;;;;;;;;;;;;;&&*&&*==*==*===**&=*=****&&&%%@@;;;;;;;;;;;;;;;;",
";;;;;;;;;;;;;;;;&&&&**=**=**=**=&**=**=*&*&&%%@+;;;;;;;;;;;;;;;;",
";;;;;;;;;;;;;;;;*****===-===--=-**====**&*&%%&##;;;;;;;;;;;;;;;;",
";;;;;;;;;;;;;;;;***==*----===-==***=*==***%&%%@#;;;;;;;;;;;;;;;;",
";;;;;;;;;;;;;;;;****&%&&*&*&****&&&&%&%%%$%&&&##;;;;;;;;;;;;;;;;",
";;;;;;;;;;;;;;;;***=&&&&****&&**&&&&%%%$%%%%%%#@;;;;;;;;;;;;;;;;",
";;;;;;;;;;;;;;;;****&&**&******=&&**&&%%&%####@@;;;;;;;;;;;;;;;;",
";;;;;;;;;;;;;;;;****&&*&&*****==&&*&&%&%&&#$####;;;;;;;;;;;;;;;;",
";;;;;;;;;;;;;;;;  &%%%%&%%%%$%%%##%%%$%%&%%%##@@;;;;;;;;;;;;;;;;",
";;;;;;;;;;;;;;;;  &&%%&%%%$%%$%%##$%$$%$&%%$####;;;;;;;;;;;;;;;;",
";;;;;;;;;;;;;;;;Xo&*&&***&****==&&******&***&&$$;;;;;;;;;;;;;;;;",
";;;;;;;;;;;;;;;;oo**&&&*******==&&*****&*&=*&*$$;;;;;;;;;;;;;;;;",
";;;;;;;;;;;;;;;;--=*****==--====**===*==**&*&&##;;;;;;;;;;;;;;;;",
";;;;;;;;;;;;;;;;--*=**=*=-=--===**=====****&%%##;;;;;;;;;;;;;;;;",
";;;;;;;;;;;;;;;;--*==*******=*****&&&&&%$%&&%%##;;;;;;;;;;;;;;;;",
";;;;;;;;;;;;;;;;--*****=*==********&&&&&%$%%%%##;;;;;;;;;;;;;;;;",
";;;;;;;;;;;;;;;;=**&&%%&&%&%&%&&%%%$#$##$$%$$%#@;;;;;;;;;;;;;;;;",
";;;;;;;;;;;;;;;;*=&*%&&&&&%&%%%&$%$$$#$$$$$$%$@@;;;;;;;;;;;;;;;;",
";;;;;;;;;;;;;;;;=-**&&*=********%%&%%%%%%%*&%%##;;;;;;;;;;;;;;;;",
";;;;;;;;;;;;;;;;=-**&&**********%%%&%%%$%%&*%%##;;;;;;;;;;;;;;;;",
";;;;;;;;;;;;;;;;==**%&**********%$%%%%%%$%&&%$##;;;;;;;;;;;;;;;;",
";;;;;;;;;;;;;;;;==&*%%****&****&%%%%%%%%%%&%%%##;;;;;;;;;;;;;;;;",
";;;;;;;;;;;;;;;;*=&&%%%%%%%%&%&&$$%%$$%%%$&&%%@#;;;;;;;;;;;;;;;;",
";;;;;;;;;;;;;;;;**%&%%%%%%%%%&&&$$%%$$%%$%&&%%#@;;;;;;;;;;;;;;;;",
";;;;;;;;;;;;;;;;%%#$#@$########$#@$#$#####$#@@OO;;;;;;;;;;;;;;;;",
";;;;;;;;;;;;;;;;%%$$##$$#######$#@#$####$##$@#OO;;;;;;;;;;;;;;;;",
";;;;;;;;;;;;;;;;$$########@+@+@@@@+@@@+@@++++@XX;;;;;;;;;;;;;;;;",
";;;;;;;;;;;;;;;;$$########@@@@@@@@@@@@@+@@@@@+XX;;;;;;;;;;;;;;;;",
";;;;;;;;;;;;;;;;@#@#++@@+++++@@@O+O+OOOO+O++++oo;;;;;;;;;;;;;;;;",
";;;;;;;;;;;;;;;;##@@++++++@+@++@+OOOOOOO+++++@oo;;;;;;;;;;;;;;;;",
";;;;;;;;;;;;;;;;  @@++@@@@@@+@@#OO++++@+++#@@+oo;;;;;;;;;;;;;;;;",
";;;;;;;;;;;;;;;;  +@++@@@@+@@+@#O++++++@++#@++oX;;;;;;;;;;;;;;;;",
";;;;;;;;;;;;;;;;oo+OOO+++OOOOO++OO+O+OOOOO++OOX.;;;;;;;;;;;;;;;;",
";;;;;;;;;;;;;;;;ooOOOO++++OOOO+@OOO+OOOOOO++OO.X;;;;;;;;;;;;;;;;",
";;;;;;;;;;;;;;;;++++OO++++O+++@@OO++++OO++++++Xo;;;;;;;;;;;;;;;;",
";;;;;;;;;;;;;;;;++++OO+++++O++@@OO++++++++@+++XX;;;;;;;;;;;;;;;;",
";;;;;;;;;;;;;;;;++++OO@@@@@@@@@@++@@@@@@@@@@+OX.;;;;;;;;;;;;;;;;",
";;;;;;;;;;;;;;;;@+O++O@@#@+@@@@@++@+@@@@@@++O+.X;;;;;;;;;;;;;;;;",
";;;;;;;;;;;;;;;;++@+++++++++++++++++O++OO+++O+..;;;;;;;;;;;;;;;;",
";;;;;;;;;;;;;;;;@++@+++++++++++O+++OO+++Oo+++O..;;;;;;;;;;;;;;;;",
";;;;;;;;;;;;;;;;OoX.X...........................;;;;;;;;;;;;;;;;",
";;;;;;;;;;;;;;;;oo.XX.......X...................;;;;;;;;;;;;;;;;"
};
