/* XPM */
static char *result[] = {
/* columns rows colors chars-per-pixel */
"64 64 28 1 ",
"  c #4A4A4B",
". c #4B4A4B",
"X c #4B4B4B",
"o c gray59",
"O c #979696",
"+ c #969796",
"@ c #979796",
"# c #969697",
"$ c #979697",
"% c #969797",
"& c #979797",
"* c gray76",
"= c #C3C2C2",
"- c #C2C3C2",
"; c #C3C3C2",
": c #C2C2C3",
"> c #C3C2C3",
", c #C2C3C3",
"< c #C3C3C3",
"1 c #CECECE",
"2 c #CFCECE",
"3 c #CECFCE",
"4 c #CFCFCE",
"5 c #CECECF",
"6 c #CFCECF",
"7 c #CECFCF",
"8 c gray81",
"9 c None",
/* pixels */
"++++++@++++O@@OOOO$$&ooo+@O+$#$$OOOOOOOO$OOoo+@@&@%%%+@++++@%+++",
"o++%+++++++@@@OOOO$$$oooo@@&$$O$O$OOOOOOOOOooo@@@@%%%+++++++++++",
"%++++++++++@@@OoOO$$$oooo@@@$$$$@OoOOO$OOOOooo@@@@++%+o++++++o++",
"+++o+++++++@@@O$OO$$$o#oo@@+$$$$OOOoOOOOOOO#oO@@&@%%%+%+++++++++",
"%%+++++11112225151575222211111111111333211111133311112622++++o++",
"+@o+%++11112225565555222211111111111733111111133331112224++%+++%",
"+++++++11112225555555222211111153111331111111133331112224+++++++",
"O@@@+++15111115555111111133355752222373111312133331112222+++%%%&",
"O@@O+++11113115555111111133355552222333211711133331122226+++%%%&",
"@@@@+++11111115555111131113355552222333211112531311112222+++%&%%",
"@@&@+%+11111115555111111133355651222333111111133331112222+++%%%%",
"+++++++11312117555999999999999991111999999999999995551231+++++++",
"@++++++11151115556999999999999991112999999999999995551111+++@++%",
"++++%++11111315555999999999999991111999999999999995551111+++++++",
"&@@@+oo11112225555999999999999992222999999999999995551111+%++%++",
"@@@O+++21122425555999999999999992222999999999999996551111++++++o",
"@@@@++%11112225575999999999999992222999999999999995555111+++++++",
"&@@@+++11512225755999999999999992222999999999999995551111+o+++@+",
"X......55552115555999999999999991111999999999999995111115+++++++",
"......X55551115555999999999999991115999999999999991111111+++++++",
"....XXX55553115555999999999999991121999999999999991111111%+++@++",
"oo+++++21111115555111111111511111111211111111511111111111+++++++",
"+++++++11111115556311111111111111111311111111311311111111+%++++%",
"+++++++11111135655111111111111111116111111111211111111511++++++%",
"@++++%+11111115555111111111111111112111111111111111111111+++++++",
"+++++++55551111555999999999999991111999999999999991112222O++++++",
"++o@++%55151115555999999999999991151999999999999991126462+++++++",
"++++@++55551115155999999999999991521999999999999991112222+++++++",
"o++++++12111215555999999999999991121999999999999991112422+++++++",
"+++++++11111115555999999999999991111999999999999991112222+++%+++",
"+++++++11151515555999999999999991113999999999999991212222++%++o+",
"+++++++11111116555999999999999991111999999999999991212222++++%+@",
"o+++@++55571135555999999999999991111999999999999995551111+++++++",
"++++o++55551115555999999999999991111999999999999995553111++o+++@",
"+++++++55551125555999999999999991111999999999999996551111+++%+++",
"+++++++57551115555999999999999991111999999999999997551111+++%+++",
"+@+++%+11115555555111555573731133111555111168633335752221+++%%&%",
"+++++++11115555555111555577711111111555511166633335551222+++%%%%",
"+@+++o+11115555555111555577711511111555111166633335512222+++%%&%",
"+++%++o55555555555**************1111-******===**=*1111115%++%%%%",
"%++++++55551555656****:***-*****3111---***-=>=****1111111+++&#%%",
"+++++++15551515555**************5111-,-*:**===****1111111+++%%%%",
"%+o%+++55555555755*****:********1111---***-;=;****1111113+++%%%%",
"@@@++++12111115555-******==;=*=>1151;;<=======*-**5552222+++++++",
"@@O@+++11111115755*:*****=======1131;<;==>====-***5552226++++++@",
"@@@@+++11111135551******-==>====1111;;;====;=;*:**5558222+++++++",
"    ...11312225555111555577755552222555565557533331111121+++++@+",
"    . .11112225555211555573757512222555755756533331111111@++++++",
".   ...12112225655111555577755552222555551555533431112111+%++o++",
"    ...11112225565111555577755552622155555555543331111121+++++++",
"+++++++11122215615****:****:=***2222***>:::==;****5552222+@+&%%%",
"@+%++++11112225555********=*****2112***::::>==****1552222++%%%%%",
"++++o++11112245555=-**********:*2222***::::===****5572222+++%%%%",
"@@@@+++55752225555***;==========1611===;====;=****5652222+@+%%%%",
"@O@@+++55552225555=**==========;1111==>===;===****5556262+o+#%%%",
"@@@@+@+55552225555***==:===;====1121==========****5852222+++#%%%",
"@@@@+++55552225557***==>*;*=====1111====*=====****6552212++o%%%%",
"+++++++31112245515111111111155551211333111111533431111111+++@+++",
"+++++++11112225555111111111155551111433111111133335211121@++++++",
"@++++++11612225555111111111556551111333111151533331111511@++++++",
"o++++++%%%%+++@+++++@OOOO$OO$O$$oooo++%++++o++++++++++++@+++++++",
"++++%++&%%%++++++++++oOoOOOO$$$$ooooo%+o+++@+o++++++++o++++++@++",
"+++++%+%%%%++++++@+o+OOOOOOO$$$&oooo++++++@+++++++o+++%+++++++++",
"+++++++%%+%++++@+++++OOOOOO@$$$#oooo+++++++++%+o+++++++++++#+o%o"
};
