/* XPM */
static char *result[] = {
/* columns rows colors chars-per-pixel */
"64 64 12 1 ",
"  c black",
". c #010000",
"X c #000100",
"o c #000001",
"O c #FEFEFE",
"+ c #FFFEFE",
"@ c #FEFFFE",
"# c #FFFFFE",
"$ c #FEFEFF",
"% c #FFFEFF",
"& c #FEFFFF",
"* c white",
/* pixels */
"&+@&&+*%$*&*&***#%**#***&**********#*****#********%*************",
"******%***********&****************#&#**************************",
"****#*******%*************%**********&*******&******************",
"****************************************************************",
"&********#***************&****************************#*********",
"*******************************&********************************",
"*********&********%#****&*********************************&*****",
"***********    .    X    X                    o   **************",
"*********** *******%******************************#*******#*****",
"*********** *****#*************************#**#*************#***",
"%**********.**************************************************&*",
"*********** **%*******************%**************&*************&",
"*********** *******&******&***********%****&****&***************",
"*********** ******************#*********************##**********",
"*********** *********#********&*********#***********************",
"***********.****************&***%***********%******************%",
"O&********* ********************&*******************************",
"*********** ****************&*******&*#*************************",
"*********** ********%***********%********************%******#***",
"*********** **********%$***#****************************%*******",
"*********** ***********%*********************&******************",
"**%******** ****&***********************#********************&**",
"*********** *********************&*************#****************",
"*********** **********************##*********&*********%********",
"*********** %*************************&**************&**********",
"**********& ***%******&****************************************&",
"****&****** ******************%***********************#*****&***",
"*****#***** ******************************&*****#**&************",
"*********** *****#********************&*********************#***",
"*********** ****%*&******************#**************************",
"*****&***%* *%%********%****************************&***&*******",
"*********** **********************************#****************&",
"#*#******** ****************************************************",
"&********** *%********&***********%*****************************",
"*********** ******#***#*****************************************",
"*********%*            X     o         X  X****************#****",
"*********** ****************************+************&********&*",
"*********** ********&***********************************%*******",
"*********** *******%*************************#*$*******#**%*****",
"*********&* *************************&********&*****************",
"+********** **********************************#*****************",
"*********** **************#***&%***************************%****",
"*********** ****************************************%***********",
"*********** ***********#*************************+****&*********",
"*********** ****#***#************************************&*****%",
"*********** **********#***********%*****************************",
"********#** %**********************&***************************&",
"**&****#*** ****************************************************",
"+********** *************&******************#*******************",
"*******&*** *#******************#**********&*******&*********%**",
"*********** ********#*****&****&****************************#***",
"*%********* *************************%************&************%",
"*********** *************************************************#**",
"*********** **************%*****************&***********@*******",
"********%*& ************************************************%***",
"*********** *****&*************%%*******************************",
"*********** **********&************%**&*********%********&****#*",
"*********** *********&********&**************************#******",
"*********** #***************************************************",
"****#******        o                           .     ********&**",
"*******#***&&*****%********#%******************&****************",
"*****************************************%**************%*******",
"%*****#*********************************************************",
"*%**************************&******&*************&******&***&**&"
};
