/* XPM */
static char *result[] = {
/* columns rows colors chars-per-pixel */
"64 64 212 2 ",
"   c #060D1C",
".  c #080E1E",
"X  c #07111E",
"o  c #0A141E",
"O  c #070F21",
"+  c #061322",
"@  c #0B1620",
"#  c #061C27",
"$  c #0D1C25",
"%  c #091A2A",
"&  c #121E27",
"*  c #141F29",
"=  c #191E2E",
"-  c #1D1E32",
";  c #1C1E36",
":  c #201D34",
">  c #231D3C",
",  c #042027",
"<  c #06222B",
"1  c #0D222D",
"2  c #132027",
"3  c #14212B",
"4  c #18222C",
"5  c #062232",
"6  c #0E2633",
"7  c #042C35",
"8  c #0D2A36",
"9  c #032E39",
"0  c #0C2D3A",
"q  c #122532",
"w  c #1C2134",
"e  c #112935",
"r  c #1E233A",
"t  c #112D3A",
"y  c #04323D",
"u  c #0B323E",
"i  c #11313D",
"p  c #212035",
"a  c #24213D",
"s  c #261D41",
"d  c #2B1C44",
"f  c #32154A",
"g  c #3B1555",
"h  c #3C1E5A",
"j  c #043543",
"k  c #0C3442",
"l  c #033A44",
"z  c #0C3945",
"x  c #0A3648",
"c  c #043D4C",
"v  c #0B3C4B",
"b  c #133A47",
"n  c #173849",
"m  c #123C4A",
"M  c #0A3C50",
"N  c #1C3452",
"B  c #1B3D54",
"V  c #242443",
"C  c #262147",
"Z  c #2B234B",
"A  c #213658",
"S  c #223E5B",
"D  c #3F1061",
"F  c #2C3668",
"G  c #353369",
"H  c #35346B",
"J  c #410D5D",
"K  c #441266",
"L  c #4D1365",
"P  c #5C1C76",
"I  c #63137C",
"U  c #00424D",
"Y  c #0D414E",
"T  c #15414F",
"R  c #0D4352",
"E  c #084856",
"W  c #014C5A",
"Q  c #0A4C5B",
"!  c #144352",
"~  c #174756",
"^  c #00515C",
"/  c #0B525E",
"(  c #16515E",
")  c #204957",
"_  c #20525D",
"`  c #074D63",
"'  c #075563",
"]  c #0B5663",
"[  c #045966",
"{  c #0B5965",
"}  c #0A5769",
"|  c #045C6A",
" . c #0B5A6B",
".. c #185565",
"X. c #135E6D",
"o. c #1B5E6B",
"O. c #1A4C71",
"+. c #095F71",
"@. c #125E70",
"#. c #225A66",
"$. c #235C68",
"%. c #04606B",
"&. c #0B626C",
"*. c #12616F",
"=. c #1F616F",
"-. c #0E6473",
";. c #056A74",
":. c #0A6C75",
">. c #076878",
",. c #0A6D7B",
"<. c #126372",
"1. c #1C6471",
"2. c #186976",
"3. c #136B7A",
"4. c #08717B",
"5. c #0B727B",
"6. c #15757C",
"7. c #20616D",
"8. c #216473",
"9. c #59656D",
"0. c #596770",
"q. c #5B1781",
"w. c #70148C",
"e. c #6F278A",
"r. c #0B6E80",
"t. c #0B7482",
"y. c #097886",
"u. c #157580",
"i. c #237F87",
"p. c #7647B4",
"a. c #7E5AF7",
"s. c #961EB2",
"d. c #8F2AB4",
"f. c #8C39C4",
"g. c #AE2BCF",
"h. c #B42BD4",
"j. c #A935D4",
"k. c #B82BE4",
"l. c #CD1EE7",
"z. c #D21DEA",
"x. c #D50EF5",
"c. c #CF19F4",
"v. c #D815F7",
"b. c #D41BF3",
"n. c #D613FB",
"m. c #C827EA",
"M. c #CC26EE",
"N. c #08838E",
"B. c #1B838A",
"V. c #068692",
"C. c #0A8594",
"Z. c #078894",
"A. c #0A8B95",
"S. c #0C849A",
"D. c #0B8C99",
"F. c #128D97",
"G. c #0C919B",
"H. c #19949C",
"J. c #23878F",
"K. c #26959D",
"L. c #0899A3",
"P. c #1B97A2",
"I. c #239AA3",
"U. c #0AA3AC",
"Y. c #1BA4AB",
"T. c #0CA7B2",
"R. c #0DAAB4",
"E. c #1AA8B5",
"W. c #1CB6BC",
"Q. c #28AAB1",
"!. c #4585B8",
"~. c #1CBBC3",
"^. c #15BBD1",
"/. c #78B8FF",
"(. c #14CBD2",
"). c #07D5DA",
"_. c #03DADE",
"`. c #39C6CD",
"'. c #28CBD4",
"]. c #30C6D0",
"[. c #2DD5DE",
"{. c #2BD9DD",
"}. c #34D5DD",
"|. c #03DCE1",
" X c #0CDFE3",
".X c #03DEF1",
"XX c #21DDE3",
"oX c #2DDAE2",
"OX c #32DBE3",
"+X c #02E1E4",
"@X c #07E5EB",
"#X c #16E2EA",
"$X c #05E6F3",
"%X c #04EEF4",
"&X c #16EDF3",
"*X c #19EDF2",
"=X c #04F3F6",
"-X c #09F3F5",
";X c #0DF9F6",
":X c #03F4F9",
">X c #0BF7F9",
",X c #03FDFC",
"<X c #0CF9FA",
"1X c #16F2F4",
"2X c #25E7EB",
"3X c #26E8EC",
"4X c #36E6EB",
"5X c #28EAF2",
"6X c #31E9F1",
"7X c #42D5DD",
"8X c #54FBFC",
"9X c #81B8FF",
/* pixels */
": w w w w w w r w w w w w w w r w w w w w w w w w w w w r w w r w w w w w r w w r w w w w w w w w r w w r w w w w w r w w w w p ",
"w 3 3 3 3 4 3 4 3 3 4 e 4 4 3 3 3 4 3 4 4 3 4 4 4 4 3 4 3 3 3 4 3 3 4 4 3 4 3 3 3 3 3 3 q 4 3 3 4 3 4 3 4 q 3 4 3 4 4 3 3 3 3 w ",
"r 4 3 4 4 3 4 4 4 4 4 4 4 3 4 4 4 4 4 4 4 4 4 4 2 4 3 4 3 4 4 4 4 4 3 3 3 4 3 4 4 4 4 4 4 4 4 4 4 4 4 4 3 3 4 4 4 4 4 4 4 4 4 w ",
"w 4 3 3 3 3 3 * 3 3 4 4 e 4 4 1 3 2 * 4 3 3 3 2 4 4 4 2 3 3 3 4 3 3 4 4 3 4 3 4 * 3 2 4 4 3 2 4 3 3 3 4 3 3 3 3 3 4 3 3 4 2 4 w ",
"w X X ~ . X . + Y.% O { W.@ o X . X . . T . X   o o . i . . X 5 5 . O X n X o   . . . m . . X X o X % W.Q @ % Y.+ . . X ! X . w ",
"w o 2 3.3 : d w <Xb 4 D.,X6.2 2 3 3 3 * u ..* 3 2 2 3.* 4 * 3 / ] 4 * * 3 2.& 3 3 2 o.u 3 * 3 2 2 3 6.,XD.* m <Xw d w 3 -.3 o = ",
"p @ 3 3.4 d v.V <Xn 2 V.,X0 $.3 3 * 2 * u 4 $.3 3 1.3 * * * * ] / 4 * * 3 * 7.4 3 $.3 u * * 3 3 2 #.0 ,XZ.3 m <Xa n.a 2 1.3 o : ",
"- o 4 3 u w > q >Xn 2 V.,X8 2 o.* 3 2 2 u 3 3 *.| 3 3 * * 3 * { { 2 * 3 3 3 3  .X.2 3 u * 3 2 3 *.3 8 ,XA.* n <Xq > w u 3 3 o - ",
"w o 3 -X:.6.3 e >Xb 2 Z.,X0 * 3 3 2 3 3 z & 3 N.2 * 3 3 4 2 3 ] Q 4 2 2 2 * 2 2 A.3 & k 3 * * 2 * * u ,XA.2 m <Xq * 3.5.:X1 o w ",
"w $ 3 *X6.2 U 3 <Xm 2 A.,X0 3 * 3 4 4 3 k & 1.4 2 * * * 3 3 2 ] ] 4 4 3 * 3 * 3 3 8.3 k 3 3 * 3 4 3 u ,XA.3 m <Xq l 2 5.1X3 o w ",
"= o 3 3 3 q O.e <Xm 3 V.,Xu 3 2 2 3 4 2 u 3.3 3 4 2 3 4 * 4 3 ] / 3 2 3 2 2 3 4 2 & 3.u 2 3 3 2 * 3 u ,XZ.2 n <Xe O.e 2 3 3 o w ",
"w @ y &.3 3 3 q <Xb 3 A.,XL.A.D.A.A.D.D.T.D.A.A.G.D.A.A.A.A.G.U.U.D.F.A.G.D.D.G.A.G.G.U.G.D.A.D.A.Z.L.,XD.3 n <Xq 3 2 3 &.7 o - ",
"= @ 3 e ;.* 2 q >XB r V.,XE Y Y Y Y Y 3.] v R Q v Y R ! ! R R ,.,.R ! Y R Y v Y R Y v ] <.R R R R Y Q ,XV.a m <X3 2 3 ;.e * o = ",
"- o 3 3 y ].4 3 >XB D D.,Xo.3 2 * 3 < 4 k 3 * 2 3 q q 3 3 3 3 ] { * 3 q 2 q t 2 * 2 * k 3 5 3 3 * 4 o.,XG.J ) >X3 2 `.y 2 * o : ",
"= & 3 3 * e 9 q <XF m.S.,X0 *.* & 2 3 * k 3 2 4 3 *X:Xq 4 3 3 ] ] 3 ^ ,X8 :X5X6 2 3 * u * 3 3 2 * <.0 ,XD.c.A >Xe y q 3 3 3 o - ",
"- o 2 ;X:.* t  X>Xn q V.,X8 * =.$ 3 * 4 u 4 3 4 2 U j 3 3 e 3 ] ] 2 0 W.3 0 j * 3 * * u * * 2 % *.3 0 ,XD.3 v <X#Xt * 5.-X2 o - ",
"- o 3 ;X:.* * t <Xm 4 V.,X8 2 1.1.2 2 4 i 3 * 3 $ j 0 * t -X9 ] ] 3 4 W.* 0 9 4 2 4 2 u * * * 2.*.2 8 ,XZ.3 m ,X8 3 4 ;.-X2 o - ",
"p o 2 3 2 4 3 3 <XG a.A.,X8 =.3 & *.3 3 i 2 3 3 * j 8 3 q oX8 ] / 4 3 @X%X8 2 2 * * 3 u * * X.& 3 o.i ,XD.a.F <X3 4 2 3 & * o - ",
"- o y y 4 2 3 3 <XS K y.,X8.3 3 2 2 _ * i * 4 3 3 3 [.j * }.0 ] / 3 W Q.q w J - * * 4 u * _ 2 2 * * 7.,XS.K ) <Xq 2 3 3 l y o : ",
"w o 3 2 &.4 3 q <X! V D.,X7 3 2 2 4 * <.u * & 3 * 3 2 %.6 OX6 ] ] t [.2 r f K s * * 2 k <.* 3 * * 3 u ,XG.C B <Xq 3 * / 2 4 o : ",
"- o 3 * u H.4 3 >XN q.D.,X0 * * 2 2 * ( I.6 3 e * * 4 3 U.oX8 ] ] t {.4 L w.K s z k u P...* * 3 * * 0 ,XG.q.B >X3 * P.z 2 * o : ",
"- @ 3 - w 4 < q <Xm * V.,X0 * 4 * 4 8 & k @Xq 3 * * * 3 ,.oX8 ] ] t [.M.c.h n.a 2 q %Xj & 8 * 3 * * 0 ,XZ.1 m <Xq < * - 4 * o - ",
"- o 3 = : 3 < 2X<Xm w Z.,X8 4 * 2 o.3 3 u q 2Xk i * * q 5.}.8 ] ] 0 [.m.j.- w i k oXq k & # o.2 * * u ,XZ.w b <XXX1 * : = 2 o - ",
"w o 2 3 2 2 2 6 <Xm l.Z.,X8 2 3 6 2 $ 3 k * z <X,Xi * 2 6.oX8 ] { t '.V d 4 t ,X,Xz & z * * 2 3 * 4 k <XD.z.m <X6 2 3 2 3 * o w ",
"- $ 2 8 e 2 * @X<XT 3 V.,X6 $ <.6 8 = 2 k * k ,X:Xz 4 4 6 &X0 ] / t oX> - * b :X:Xk * k = & * % -.* 0 ,XA.3 T <X@X* * 6 8 * o - ",
"- o 3 ,X5.4 }.q >Xm 2 V.,X0 1 $ c *Xc j v j t t z 4Xt * * 7X7 ] / 9 7X* = < 6Xv 0 = f N = f = * & 3 0 ,XA.2 v <Xq }.* ,.,X1 o w ",
"- o 3 z k ).3 q ;Xb 3 V.,X2.* 4 j :Xx %XE t ~.5 q e %Xe 3 * 8 [ { 0 * * 0 %X8 3 6 q Z B - s - * * * 3.,XA.2 m >X3 3 _.i k 2 @ w ",
"- @ * 3 6.3 4 3 ;Xb 3 V.,X9 * 4 q q 3 0 F.,.t.R.t * 0 Y.6 * u / ] u * 8 (.N.5.y.E.E.!.p.- s.- % * * y ,XG.2 m <Xq 3 * 6.4 4 o : ",
"- o 3 |.3 - > r >Xv 3 V.,X0 * * 2 e %Xx E v M c %Xt t q :X0 u | ' t 8 :Xu t 0 0 .X.Xb.f.- v.= 3 * * k ,XD.* z >Xq a * 4 |.* o : ",
"w @ 6 * * d /.V >Xb $ V.,X0 * * 2 e $X| [ W E U W W U K.6 7XQ 2X2XE `.0 3 * * w j.h.h.j.P h.= * * * 0 ,XD.* m <XZ /.s * 3 1 o - ",
"w @ 2 3 2 > g r >Xm 3 V.,X0 3 3 3 3 t q z % 4 3 q 3 3 ;.0 Q <Xv v >XQ 3 3 3 2 3 a > > n r a - 1 q 2 0 ,XD.$ m >Xw g a 3 3 2 o p ",
"= l  .} }  . . .>X .-.L.,X| }  . . . .} -. . .] `  .} ] } 3Xc 3 2 c 2X+. . . .} ] } } | ] }  . .]  .+.,XL.+. .>X .X. . . .[ k p ",
"w l ] ] ] { ] ' >X| | L.,X .] ] ] ] ` Q  .} ' ' ' | ] ] ' 2Xv * * v 3X{ ' ] ' / ] } } >.Q ' ] } ] [ -.,XU. . .;X| { [ [ ] [ j - ",
"; @ 2 * 2 w g w >XY 3 V.,X0 3 3 * - : - N ; ; V 4 * * * 2 E <Xv v >XQ 0 5.q 2 3 * % * k 3 0 q % 2 3 k ,XG.1 Y ;Xw g r 3 * 4 + - ",
"- @ 1 * * C 9XZ >Xm 3 V.,Xu * * * ; h.P j.g.h.g.= * * * 8 `.Q 5X3X` `.8 K.U ^ ^ E W ` | | #Xe * * & 0 ,XD.2 m <XZ /.s * * 1 @ : ",
"- o * |.4 = d q >Xm 3 V.,X0 * * * ; x.- p.c.$X$X0 0 0 k :X0 0 | | 0 8 :Xq 6 k =Xj M M E j :Xq * * = k ,XD.4 m <Xq V = * +X* o : ",
"- o 3 4 B.4 4 q >Xm 3 V.,Xu 2 * * - s.* p.!.E.E.y.5.C.(.6 & k { } t * e E.e * 8 T.4.;.F.t 6 6 3 * * z ,XD.* m <Xq * 4 6.* * o : ",
"- o * b k ).* 3 ;Xv 3 V.,X2.* 2 * w s w S Z e 6 4 6 =Xi 3 * 0 | [ 0 * * 0 =Xe 3 6 ~.e E %Xz :Xu * * 3.,XZ.* m <Xq * |.u k 3 o : ",
"w o 2 ,X,.* OXq ;Xm 3 V.,X9 1 & 3 = f - N f 4 0 v 4X8 2 * 7X9 ] ] j OXq * e 6Xv 8 q 9 c j c &Xv & $ u ,XA.2 v <X3 }.3 4.,X3 o : ",
": o 1 0 t & & @X;XY 3 Z.,X8 & <.% 3 * * k * k ,X<Xz 3 p > OXk ] ] k oXN.* * z ,X,Xk * k 2 $ 8 6 -.& 8 ,XA.2 m <X@X* * e 8 3 o p ",
": o * * & * 3 1 <XM M.D.,X9 * *  .* & & z $ k ,X,Xt = > d {.k ] ] 0 oX,X6 * t ,X,Xi * u & & 2 { * 3 k ,XZ.l.! <X< 4 & * & * @ ; ",
"w o 3 - > * # {.<Xm - V.,X0 & * * o.2 * u * o.i k * - k.m.oX0 { ] 0 oX:X3 * 4 k 0 7.* u * 1 o.2 * 3 0 ,XZ.w T <X'.< & > * * o : ",
"- @ * = = & # 1 <Xm * A.,X0 2 * * 3 7 * u *.4 & w > - x.b.oX0 ] ] 0 oX=X6 4 3 $ $ 2 *.u * 6 * * * * 0 ,XZ.3 m <X6 # & - = * o : ",
"= o 4 * ! Y.* 6 <Xm * Z.,X0 * * * * * ~ 5.u u z > s.s.e.w {.8 ] ] q I.k H.3 * * z u u u.( * * * * * 0 ,XD.= m >X1 * P.Y * * o : ",
"- o 2 * &.& 3 4 ;XG b.C.,X0 * * & * 3 -.k * * * s g v.d.6 c 4 { ] * 3 :Xk @X2 4 * * * u -.* 2 3 & * u ,XD.b.F >Xq * 2 { & 3 o - ",
"- o y l 3 & 3 q <X~ w C.,Xj 2 * & * #.& u * * * - K : =.U * * ] ] 4 * q H.0 y 1 2 3 3 u * #.* 2 * & j ,XZ.q ~ <X3 2 * * y 7 o : ",
"- o & 2 * * 3 3 >XH b.S.,X0 & & * o.* 3 u * * 3 3 2 6 I.q * * ] ] * * * = :X6 3 2 * 3 u * * X.3 & & 0 ,XD.b.G ;Xe 2 * 3 2 * o : ",
"- o 3 -X5.* & (.>XB V A.,Xy * 3 *.* 3 3 u * * * 2 9 0 6 3 * * { ] * * * q %X* 3 2 * * u * * & <.2 4 0 ,XD.C B -X(.* 3 t.>X3 o - ",
"- o 3 ;X5.& {.q <X~ s C.,X0 * @.* * * * k * 2 2 3 y z 8 8 * * { ] * * * 8 :Xq 1 3 * * u & * * * X.* 0 ,XD.d T <Xq '.* 5.-X2 o ; ",
"- o * 3 *  X& 6 1XH ^.S.,X8 3.& 3 * * * u * 2 2 2 *X:X:.@X2 * ] { * * 3 Y.` j * * * * y * * * * * 3.0 ,XD.^.G >X6 * ).* 2 3 o : ",
"p o 3 & J.* 3 e >X! r D.,X2.& * $ * 2 2 k 4 3 2 1 q q q q 2 3 { } 3 2 2 1 t 1 * 2 3 2 k & * * 2 2 $ 2.<XG.r ~ <X6 * * J.* * o : ",
": o 4 ).3 : 3 3 <X! e C.,Xy.t.r.y.t.,.6.+X_._.+X_._._.|._._.|.).+X|.|.|._._._.+X+X_._.+Xt.,.,.y.,.t.t.,XG.w T <Xq * : * ).3 o p ",
"= o i.4 = I w e <XR ;.D.,Xj & * * * * ( R ! 2 * 2 3 * * 2 3 * ] } * 2 3 * 2 3 3 * 2 ! Q ~ & * * * * z ,XD.>.R <Xq q I * 3 i.o : ",
": o 8 k * 4 ;X1 >XH x.S.,X7 * * * 3 o.& k 2 5 2 2 3 * * * * * ] { * * * * * * * $ 6 * 9 * 7.* * * * u ,XD.n.F >Xq ;X* * k e o - ",
"- o ^ ,Xq E.1 e >XG m.S.,X7 * 3 & ..* 3 k 2 $ k 2 = & * * * & ] ] 3 * * 3 3 3 2 Y $ * u * * #.2 $ 1 0 ,XA.M.F >X6 1 Q.6 ,X^ o : ",
": o 3 i B.3 2 q <X~ Z D.,X0 * % <.* * 4 k 2 * 1 3.<.-.<.-.-.-.C.S.-.<.<.-.-.<.-.3 * 3 k 2 2 3 3.$ * u ,XD.Z ~ >X9.3 3 B.u 3 o - ",
": o 4 R.& * * q <XH n.C.,X8 * @.$ 2 * * j * & <.2 *.& * * * *  .[ 2 * & & 3 1.@ *.* * u 2 * 2 $ o.* u ,XA.n.H 8X0.9.* & T.* o : ",
": o * R.3 * * q ;XS > Z.,X0 o.* 2 @ 3 * u * 8.& 2 $ 2 * * * * ] ] 3 * * * 1 $ 2 & 8.* t * 1 o * * o.0 ,XA.a B <X9.* * * T.* o : ",
": X * T.* * * q <Xm 4 Z.,X3.* * & * < * k  .3 & $ 2 * ~ * * & / / * * * ~ * 3 & * * X.z * , * & & 2 2.,XA.3 T <Xq & * & U.* o : ",
"= .   ..      + I.% O E Y.+       .         .     .       .   8 8         X                         + E.R . % H.+       o.  . = ",
": <.X.<.*.*.*.<.<.X.<.*.@.@.X.@.X.*.*.*.*.<.*.X.*.*.@.@.X.X.*.<.*.*. .*.*.*.&.@.X.&.<.@.*.@.X.<.X.<.@.X.*.X.<.@.@.@. .X.@.X.@.- ",
"- & & & & $ & $ $ & & $ $ * & $ & & & $ & & & & & $ $ & $ & & $ $ & & & $ & & & & & & $ & $ & & & $ $ * $ & & & & $ & & & & & - ",
"- X o X o o X o X X o X o X X o o o o o X X X o X X o o o o o X o o o o o X X X X o o X X o o X o X + X X o o X X o . o o o X : ",
": : - : : : : - : : : : : - : - - - - : - : : : p - : ; - p : - : - : : : w : : : : p : ; - : : : : : : - : : : : : - : - : - : "
};
