/* XPM */
static char *result[] = {
/* columns rows colors chars-per-pixel */
"64 64 10 1 ",
"  c gray11",
". c #1D1C1C",
"X c #1C1D1C",
"o c #1D1D1C",
"O c #1C1C1D",
"+ c #1D1C1D",
"@ c #E49E4C",
"# c #E49F4C",
"$ c #E59F4C",
"% c #E49F4D",
/* pixels */
"########################$#######$###############$###############",
"#@###############################@#######################%######",
"##@#######@###############@###$###$###############@#############",
"#################$#################################@############",
"    X                              X                         .  ",
"     .     O                               O                    ",
"                     O        .    .           X            X   ",
"                        O     .        .   .                    ",
"   X     .                               .         .       .    ",
"       .                           .    X                XO     ",
"           o           O                                      O ",
"     O    .      O             X    X       .    X              ",
"                                                                ",
" .                       X          O                           ",
"O                     .                X        X               ",
"         .       X.         .                                   ",
"                   .         X.                                 ",
"                            .    O   X     X         O X  .O    ",
"O                                                          X    ",
"       X        O               O          X        .        .  ",
"                         .                              O       ",
"                                                O .         .   ",
"           X       . .                      OO                  ",
"  .      +              .                         X      X      ",
"                           O                .                   ",
"      .O    O          .                                        ",
"           .  O                     .             o     X       ",
"        X                                                       ",
"        X                            X .                        ",
"                               .O   .                      .    ",
"                 X .        OX      X.         O             .  ",
"                                     O   X                      ",
"####$###############@#######################################%###",
"                         X              X      O                ",
"                                     X               X          ",
"               .                           XX                   ",
"                        X.   .O            X     .    .     .   ",
"                 X          O  X        O                       ",
"              O                             .     .             ",
"           .           .      .         .     O                 ",
"               .                       X     .                  ",
"             O     O         O                  X    O          ",
"            X      O                                            ",
"        O.                       OO                  O   X      ",
"  O        X                       O      O                     ",
"     .            O       .                                     ",
"    O    X                                      .        O      ",
"        .         X   OO            X        X    X             ",
"                                  O   O     .                   ",
"                         X                            X   .     ",
"            X .         X  .      X     .     .     X       .   ",
"                                     .                 X        ",
"       X                     X                                  ",
"                                          X.    O.        X   O ",
"     O                                                          ",
"             O.                                       O         ",
"                 .                                              ",
"          X    X          X.            X         . X  X        ",
"                X   .        X                                  ",
"X                                     X.            .  X        ",
"###################################@##$######@###########%@#####",
"####@#####%##############@%###@#################################",
"#####################$##########################################",
"################################################################"
};
