/* XPM */
static char *result[] = {
/* columns rows colors chars-per-pixel */
"64 64 14 1 ",
"  c gray11",
". c #1D1C1C",
"X c #1C1D1C",
"o c #1D1D1C",
"O c #1C1C1D",
"+ c #1D1C1D",
"@ c #1C1D1D",
"# c #CE4CE4",
"$ c #CF4CE4",
"% c #CE4DE4",
"& c #CF4DE4",
"* c #CE4CE5",
"= c #CF4CE5",
"- c #CE4DE5",
/* pixels */
"########################$###############%#####*#%#########$#####",
"################$############%##########################*#######",
"########$############%##########&*##############################",
"#########*#####################$#########*#######%##############",
"                O  XX                      O                    ",
".                                                     X         ",
"  X                                                           X ",
"                             .  O                               ",
"             X   O.        X     @       .                 X    ",
" O                     O                                        ",
" O                X                                         X   ",
"o                                                               ",
" O   O                O             O            O    O         ",
"            .                         X .                   X  +",
"                          O         O                           ",
"                                                                ",
"           .         O     O      +                         .   ",
"  XO   O          O                          .      O           ",
"   XO   .       X                              O                ",
"               O                .                               ",
"               X                    X                     .     ",
"                               X            X        X          ",
"                                          .X             O      ",
"                             .        .                         ",
"   @      .                       O         .          O        ",
"                                  X      O. .              X    ",
"                         X                    .                 ",
"  O         OO                                          O     XX",
"               X                       .             X          ",
" .      X           O                 O       O       .         ",
"   O    O                O                            X         ",
"                          O                         X  .   X    ",
"                       X                X  X           O    o   ",
"    +                                          X             .  ",
"    @ X   X              X          .     .     .               ",
"                          O             X                       ",
"        X       .X              O O                O    X       ",
"                                         O                      ",
"             X             X  X           O   X    O            ",
"   X                                         X              X   ",
"     .    X                   O                           .     ",
"  .     O                              O            O           ",
"                             O     .                 X          ",
"                     O                        .                 ",
"                                             O      O           ",
"       O             .           .                              ",
"                                                           .    ",
"                                                   O       X @  ",
"      @     O X     O       X O             X                   ",
"     X               O                                          ",
"                         X                          O  .        ",
"         O   X     X   O                              O       X ",
"  .  X                       O    O                             ",
"                   O  .      .                         .        ",
"        X               .          O      .                     ",
"         O                                               X   O  ",
"       O      XO               .  .       X                     ",
"              .            X               O                   O",
"                O                       X                       ",
"    O       .           O    X     .        O                   ",
"###*###=#############%#######################*#####%###########*",
"############################################%####$#############*",
"######################%########################################%",
"$##############################*###############-$######*########"
};
