/* XPM */
static char *result[] = {
/* columns rows colors chars-per-pixel */
"64 64 11 1 ",
"  c black",
". c #010000",
"X c #000100",
"o c #000001",
"O c #000101",
"+ c #FFFEFE",
"@ c #FEFFFE",
"# c #FFFFFE",
"$ c #FFFEFF",
"% c #FEFFFF",
"& c white",
/* pixels */
"&&&&&&&&&&&&&&&&&&&&&&&&&&&&&&&&&&&&&&&&&&&&&&&&&&&&&&&&&&&&&#&&",
"&&&#&&&&&&&&&&&&%&&&&&&&&&&&&&&&&&&&&&&&&&&&&&&&&&&&&&&&&&&$&&&&",
"&&%&&&$&&&&&&&&&&&&&&&&&&&&&&&&&&&&&&&&&&&&&&&&&&&&&&&&&&&&&&&&&",
"&&&&&&&&&&&&&&&&&&&&&&&&&&&&&&&&&&&&&&%&&&&&&&&&&&&&&&&&&&%&&&&&",
"&&&&&&&&&&&&$&&&&&%#&&&&&&$&&&&&&&&&&&&&&&&&&&&%&&&&&&&&&&&&&&&$",
"&$&&&&&&&&&&&&&&&&&&&&&&&&&&&&&&&&&&&&&&&&&&&&&&&&&&&&&&&&&$&&&&",
"&&%&&&&&&&&&&&&&&&&&%#&#&&&%&&&&&&&$&&&&&&&&&$&&&&&&&&&&&&&&&&&&",
"&&&&&&&&&&%&&&&&&&&&&&&&&&&&&&&&&&%&&&&&&&&&%&&&&&&&&%&&&&&&&&&&",
"&&&&&&&&&&#&&&&&&&&&&&&&&%$&&&&&&&&&&&$&&&&&&&&&&&&&&&&&&&&&&&&&",
"&&&&&&&&&&&&&&&&& &&&&$&&&&&&&%&&&&&&&&&&&&&&&&&&&&&&&&&&&&&&&&%",
"&&&&&&&&#&&&&&&&& &&&&&$&&&&&&&&&&&&&&&& &&&&%&&&&&%&&&&&&&&&&&&",
"&&&&&&&&&&&&&&&&&  &&&&&&&&&&&&&&&&&&&&& &&&&#&&&&&%&&&%&&&&&&&&",
"&&&&&&&&&&&&&&&#&  &&&&&&&&&&&&&&&&&&&$&.&%&&&&&&&&&&#&$&&&&&&&&",
"&&&&&&#&&&&&&&&&& & &&&&%&$&&&&&&&&&&&&& &&&&&&&&$&&&&&&&&&&&&&&",
"&&&&&&&&&&&&&&&&& & #&&&&&&&&&&&&&&&&&&& &&&&&&&&&&&&&&%&&&&&&&&",
"&&&##&&&&&&&&&&&& && &&&&&&&&&&&&&&&&&&& &&%&&&&&&&&&&&&&&%&&&&&",
"&&&&&&&&&&&&&&&#&o&& &&&&&&&&&&&&&&&&&&& &&&&&&&&&&&&#&&&&&&&&&&",
"&&&&%%&&&&&&&&&&& &&&o&&&&&&&&&&&&&&&&&&o&&&&&&&&&&&&&&&&&&&&&&&",
"&&&&&&#&&&&&&&&&& &&& &&&&&&&&&&&&&&&&&& &&&$&&%&&&&&&&&&&&&&%&&",
"&&&&&&&&&&&&&&&&& &&&& &&&&&&&&%&&&%&&&& &&&&&&&&&&#&&&&&&&&&&&$",
"&&&#&&&&&&&&&&&&& &&&& &&&&&&&&&&&&&&&&& &&&&&&&&&&&&&%&&&&&&&&&",
"%&&&&&&&&&&&&&&&% &&&&& &$&&&&&&&&&&&&&$ &&&&&&&&&&&&&&&&&&&&&&&",
"&&&&&&&&&&&&&&&&& &&&&& &&&&&&&&&&%&&&&& &&$&&&&&&&&&&&&&&&&&&#&",
"&&&&&&&&&&$&&&&&& &&&&&& &&&&&&&&&&&&&#& &&&&&#&&&&&&&&&&&&&&&&&",
"&&&&&&&&&&&%&&&&& &&&&&& &&&&&&&&&&&&&&& &&&&&&&&&&&&&&&&&&&&&&&",
"&&&&&&&&&&$&$&&&& &&&%&& &&&&&&&&&&&&&&& &&&&&#&&&&&&&&&&&&&&&&#",
"$&&&&&&&&&&&&&&&& &&&&&&& &&&&&&&&&&&&&& &&&&&%&&&&&$&&&&&&&&&&&",
"&&&&&&&&&&&&&&&&& &&&&&&& &&&&&&&&&#&&&& %&&&&&&&&&&&&&&&&#&&&&&",
"&&&&&&&&&&&&&&&&&X&&&&&&&& &&&&&&&&&#&&&o#&&&&&&&&&&&&&&&&&&&&&&",
"&&&&&&&&&&&&&&&&& &&&&&&&& &&&&&&&&&&&&& &&&&&&$&#&&&&&&&&&&&&&&",
"&&&&&&$&&&&&&&&&& &&&&&&&&& &&&#&&&&&&&& &&&&&&&%&&&&&&&&+&&&&&&",
"%&&&&$&&&&&&&&&&& &&&&&&&#& &&&&&%&&&&&& &&&&&&&&&&&&%&&&&&&&&&&",
"&&&&&&&&&&&&&&&&& &&&&&&&&&& &$&&&%$&&&&.&&&&&&&&&&&&&&&&&&&&&&&",
"&&&&&&&&&&&&&&&&& &&&&&&&&&& &&&&&&&&$&& &&$&&&&&&$%&&&&#&&&&&&&",
"&&&&&&&&&&#&&&&&& &&&$&$&&&&& &&&&&&&&&& &&$&&&&&&&&&&&&&&&&&&&&",
"&&&#&&&&&&&&&&&&&o&&&&&&&&&&& &&&&&&&&&& &&&&&&&&&&&&&&&&&&%&&&&",
"&&&&&&&&&&&&&$&&& &&&&&&&&&&&& &&&&&&&&& &&%&&&&&&&&&&&&&&&&%&&&",
"&&&&$&&&&&&&&&&&& &&&&&&&%&&&& &&&&&&&&& &&&#&&&&##&&&&#&&&&&&&&",
"&&&&&&&&&&&&&&&&& &#&&&&&&&&&&& &&&&&&&& &&&&&&&#&&&&&&&%&$&&&&&",
"&&&&&&&&&&&&&&&&& &&&&&&&&&$&&& &$&&&&&& &&&&&&&&&&&&&&&#&&&&&#&",
"&&#&&&&&#&&&&&&&& &&&&&&&&&&$&&& &&&&&&&.&&&&&&&%&&&&&&&&&&&&&&&",
"&&&&&&&&&&%&&&&&& &&&&&&&&&&&&&& &&&&&&& &&&&&&&&%&&&&&&&&&&&&&&",
"&$&&&&&&&&&&&&&&& &&&&&&&&&%&&&& &&&&&&& &&&&&&&&&$&&&&&&&&&&&&&",
"&&&#&&&&&&&&&&#&&O&&&&&&&&&&&&&&& &&&&&& &&&&&&&&&&&&&&&&&&&&&%&",
"&&&&&&&&##&&&&&#& &&&&&#&&&&&&&&& &&&&&% &&&&&&&&&&&&&&&&&&#&&&&",
"&&&&&%$&&&&&&&%&& &&&&&%&&&&&&&&&&o&&&&& &&&&&&&&&&&&&&&&&&&#&&&",
"&&&&&&&&&&&&$&&&& %&&&&&&&&&&&#&&& &%&&& &&&&&&&&&&&#&&&&&&&&&&&",
"&&&&&&&&&&&&#&&&& &&&&&&&&&&%&&&%&& &&&& &&&&&&&&&&&&&&&&&&&&&&&",
"&&&&&&&&&&&&$&&&&o&&&&&$&&&&&&&&#&& &&&& &&&&&&&&&&&&&&&&$&&&&$&",
"&&&&&&&&&&&&&&&&& &&&%&&&&&&&&&&&&&& &&& &&&&&&&&&&&&&&&&&&&&%&&",
"&&&&&&&&&&&&&&&&& &&&&&&&%&&&&&&&&%& &&& &&%&&&&&&&&&&%&#%&&$&&&",
"&&&&&&&&&$&&&$&&& &&&&#&&&&&&&&&&&&&& && &&&&#&&&&&&&&&&&&&&$&&&",
"&&&&&&&&&&&&&&&&& &&%&&&&&%&&&&&&&&&& && &&&&&&&&&&&&&&&&&&&&&&&",
"&&&&&&&&&&&&&&&&& &&&&&&&&&&&&&&&$&&&& &o&&&&&&%&&&&&&&&&&&&&&&&",
"&&&&+&&&&&&&&&&&& &&&&&&&&&&&&&&&&&&&& & &&&&&&&&&&&&&&&&&&&&&&&",
"&&&&&&$&&&&&$&&&& &&&&&&&&&&&&&&&&&&&&&  &&&&&&&&&&&&$&&&#&&&&&&",
"&&&&&&$&#&&&&&&&& &&&&&&&%&&%&&&&&&&&&&  &%&&&&&&&@&&&&&&&&&&&%&",
"&&&&&&&&$&&&&&&&&o&&&&&&&&&&&&&&&&&&%&&#&&&&&&#&&&&&&&&&&&&&&&$&",
"&&&&&&&&&&&&&&&&&&$&&&&&&&&&&&&&&&&&&&&&&&&&&&&&&&&&%&&$&&&&&&&&",
"&&$&&&&&&&&&&&&&&&&&&&&&&&&&&&&%&&&&&&$&&&&&&&&&&&&&&&&&&&&&#&&&",
"&&&&$&&&&&&&&&&&&&%&&#&&&&&&&&&&&&&&&&&&&&&&&%&&&&&+&&&&&&&&&&&&",
"&&&&&&&&&&&&&&&&&&&&&&&&&&&%&&&&&$&&#&&&&&&&&&&&&&&#&&&&&&&&&&&&",
"&$$&&&&$&&&&&&&&&&&&&&%&&&&&&&&&&&&&&&&&&%&&&%&&&&&&&&&&&&&&&&&%",
"&$&%&&&&&&&%&&&&&&&&&&&&&&&&&&&$&&&&&&&&&&&&&&&%&&&&&&&&&&&&&&&&"
};
