/* XPM */
static char *_068a784e2fb40b2e22be378415bf0e7rhMtZnhddCr7Q9v4[] = {
/* columns rows colors chars-per-pixel */
"64 64 2 1 ",
"  c #000100",
". c white",
/* pixels */
"................................................................",
"................................................................",
"................................................................",
"................................................................",
"................................................................",
"................................................................",
"................................................................",
"................................................................",
"................................................................",
"................................................................",
"................................................................",
"...........................              .......................",
"..........................  ............. ......................",
"......................... ................  ....................",
".......................  .................. ....................",
".....................   ................... ....................",
"..................... ...................... ...................",
"....................  ...................... ...................",
".................... ....................... ...................",
"............................................ ...................",
"............................................ ...................",
"............................................ ...................",
"............................................ ...................",
"............................................ ...................",
"........................................... ....................",
".......................................... .....................",
"......................................... ......................",
"........................................ .......................",
"....................................... ........................",
".....................................  .........................",
"...........................           ..........................",
".........................  .....................................",
".......................  .......................................",
".....................  .........................................",
"....................  ..........................................",
"...................  ...........................................",
"................... ............................................",
"................... ............................................",
"................... ............................................",
".................. .............................................",
".................. .............................................",
".................. .............................................",
".................. .............................................",
".................. .............................................",
".................. .............................................",
"................... ............................................",
"................... ............................................",
"...................  ..................... .....................",
".................... ....................  .....................",
"..................... ................... ......................",
"..................... ..................  ......................",
"...................... ...............  ........................",
"....................... .............. .........................",
"........................  .........   ..........................",
"..........................         .............................",
"................................................................",
"................................................................",
"................................................................",
"................................................................",
"................................................................",
"................................................................",
"................................................................",
"................................................................",
"................................................................"
};
