/* XPM */
static char *result[] = {
/* columns rows colors chars-per-pixel */
"64 64 6 1 ",
"  c black",
". c #3D6E70",
"X c #8C3F5D",
"o c #BA6156",
"O c #3CA370",
"+ c #8FDE5D",
/* pixels */
"++++++++++++++++++++++++++++++++  ++++++++++++++++++++++++++++++",
"++++++++++++++++O+++++++++++++++  ++++++++++++++++++++++++++++++",
"++++++++++++++++O+++++++++++++  OO  ++++++++++++++++++++++++O+++",
"+++++++++++++O++O+++++++++++++  OO  +++++++++++++++++++++++++O++",
"++++++++++++++++++++++++++++++  OO  +++++++++++++++++O++++++++O+",
"++++++++++++++++++++++++++++++  OO  +++++++++++++++++O++++++++++",
"++++++++++++++++++++++++++++  OOOOOO  ++++++++++++++++++++++++++",
"++++++++++++++++++++++++++++  OOOOOO  ++++++++++++++++++++++++++",
"++++++++++++++++++++++++++++  OOOOOO  ++++++++++++++++++++++++++",
"++++++++++++++++++++++++++++  OOOOOO  ++++++++++++++++++++++++++",
"++++++++++++++++++++++++++  OOOOOOOOOO  ++++++++++++++++++++++++",
"++++++++++++++++++++++++++  OOOOOOOOOO  ++++++++++++++++++++++++",
"++++++++++++++++++++++++++  OOOOOOOOOO  ++++++++++++++++++++++++",
"++++++++++++++++++++++++++  OOOOOOOOOO  +++++++++++++++OO+++++++",
"++++++++++++++++++++++++  OOOOOOOOOOOOOO  +++++++++++O+OO+++++++",
"++++++++++++++++++++++++  OOOOOOOOOOOOOO  +++++++++++O+OO+++++++",
"++++++++++++++++++++++  OOOOOOOOOOOOOOOOOO  +++++++OOO+OO+++++++",
"++++++++++++++++++++O+  OOOOOOOOOOOOOOOOOO  ++++++++++++++++++++",
"++++++O+++++++++++++  OOOOOOOOOOOOOOOOOOOOOO  ++++++++++++++++++",
"++++++O+++++++++++++  OOOOOOOOOOOOOOOOOOOOOO  ++++++++++++++++++",
"++++++OOO+++++++++++    ..OOOO..OOOO..OO..    ++++++++++++++++++",
"++++++++++++++++++++    ..OOOO..OOOO..OO..    ++++++++++++++++++",
"++++++++++++++++++++++  OO....OO....OO..OO  +++++O++++++++++++++",
"++++++++++++++++++++++  OO....OO....OO..OO  +++++O++++++++++++++",
"++++++++++++++++++++  OOOOOOOOOOOOOOOOOOOOOO  +++O++++++++++++++",
"++++++++++++++++++++  OOOOOOOOOOOOOOOOOOOOOO  +++OO+++++++++++++",
"++++++++++++++++++  OOOOOOOOOOOOOOOOOOOOOOOOOO  ++++++++++++++++",
"++++++++++++++++++  OOOOOOOOOOOOOOOOOOOOOOOOOO  ++++++++++++++++",
"++++++++++++++++  OOOOOOOOOOOOOOOOOOOOOOOOOOOOOO  ++++++++++++++",
"++++++++++++++++  OOOOOOOOOOOOOOOOOOOOOOOOOOOOOO  ++++++++++++++",
"+++++++++++OO+  OOOOOOOOOOOOOOOOOOOOOOOOOOOOOOOOOO  ++++++++++++",
"+++++++++++OO+  OOOOOOOOOOOOOOOOOOOOOOOOOOOOOOOOOO  ++++++++++++",
"+++++++++++OO+      OOOOOOOOOOOOOOOOOOOOOOOOOO      ++++++++++++",
"++++++++++OOO+      OOOOOOOOOOOOOOOOOOOOOOOOOO      ++++++++++++",
"++++++++++++++++++  ..OOOOOOOOOOOOOOOOOOOOOOOO  ++++++++++++++++",
"++++++++++++++++++  ..OOOOOOOOOOOOOOOOOOOOOOOO  ++++++++++++++++",
"++++++++++++++++  OOOO..OO....OOOO....OOOO......  ++++++++++++++",
"++++++++++++++++  OOOO..OO....OOOO....OOOO......  ++++++++++++++",
"++++++++++++++++  OOOO....OOOO....OOOO....OOOOOO  ++++++++++++++",
"++++++++++++++++  OOOO....OOOO....OOOO....OOOOOO  ++++++++++++++",
"++++++++++++++  OOOOOOOOOOOOOOOOOOOOOOOOOOOOOOOOOO  O+++++++++++",
"++++++++++++++  OOOOOOOOOOOOOOOOOOOOOOOOOOOOOOOOOO  ++++++++++++",
"++++++++++++  OOOOOOOOOOOOOOOOOOOOOOOOOOOOOOOOOOOOOO  ++++++++++",
"++++++++++++  OOOOOOOOOOOOOOOOOOOOOOOOOOOOOOOOOOOOOO  ++++++++++",
"++++++++++++    OOOOOOOOOOOOOOOOOOOOOOOOOOOOOOOOOO    ++++++++++",
"++++++++++++    OOOOOOOOOOOOOOOOOOOOOOOOOOOOOOOOOO    ++++++++++",
"++++++++++++++++    OOOOOOOOOOOOOOOOOOOOOOOOOO    ++++++++++++++",
"++++++++++++++++    OOOOOOOOOOOOOOOOOOOOOOOOOO    ++++++++++++++",
"++++++++++++++++++++      OOOOOOOOOOOOOO      O+++++++++++++++++",
"++++++++++++++++++++      OOOOOOOOOOOOOO      O+++++++++++++++++",
"++++++++++++++++++++++++++  XXXXXXXXXX  +++O++O+++++++++++++++++",
"++++++++++O+++++++++++++++  XXXXXXXXXX  ++++++++++++++++++++++++",
"++++++++++O+++++++++++++++  XXXXXXXXXX  ++++++++++++++++++++++++",
"++++++++++OOO+++++++++++++  XXXXXXXXXX  ++++++++++++++++++++++++",
"++++++++++++++++++++++++++  oooooooooo  ++++++++++++++++++++++++",
"++++++++++++++++++++++++++  oooooooooo  ++++++++++++++++++++++++",
"++++++++++++++++++++++++++  oooooooooo  ++++++++++++++++++++++++",
"++++++++++++++++++++++++++  oooooooooo  ++++++++++++++++++++++++",
"++++++++++++++++++++++++++  oooooooooo  ++++++++++++++++++++++++",
"++++++++++++++++++++++++++  oooooooooo  ++++++++++++++++++++++++",
"+OO+++++++++++++++++++++++  oooooooooo  ++++++++++++++++++++++++",
"+OO++++OOOOOO++++OOOOO++++  oooooooooo  +OOOO+++++OOOO+++++++O++",
"+OO++++OOOOOO++++OOOOO++++++++oooooo+++++OOOO+++++OOOO+++++++O++",
"+++OOOO+++++++OO++++++OOOO+++O++++++OOOO++++++OO++++++OOOOOO++++"
};