/* XPM */
static char *result[] = {
/* columns rows colors chars-per-pixel */
"225 225 17 1 ",
"64 64 6 1 ",
"  c #FCFEFC",
". c white",
"X c #A9AAA9",
"o c #292A29",
"O c gray17",
"+ c #191919",
"@ c #1A1B1A",
"# c #B0B2B0",
"$ c #ACADAC",
"% c black",
"& c gray11",
"* c #969796",
"= c #8B8D8B",
"- c #202020",
"; c #808180",
": c #787978",
"> c #717271",
/* pixels */
"%+Ooooooooooooooooooooooooooooooooooo&*$XXXXXXXXXXXXXXXXXXXXXXXXXXXXXXXXXXXXXXXXXXXXXXXXXXXXXXX$=-oooooooooooooooooooooooooooooooooooooooooooooooooooooooooooooooooooooooooooooooooooooooooooooooooooooooooooooooooooooooooooooO@",
"+ ..............................................................................................................................................................................................................................#",
"O.                                                                                                                                                                                                                             .X",
"o.                                                                                                                                                                                                                             .X",
"o.                                                                                                                                                                                                                             .X",
"o.                                                                                                                                                                                                                             .X",
"o.                                                                                                                                                                                                                             .X",
"o.                                                                                                                                                                                                                             .X",
"o.                                                                                                                                                                                                                             .X",
"o.                                                                                                                                                                                                                             .X",
"o.                                                                                                                                                                                                                             .X",
"o.                                                                                                                                                                                                                             .X",
"o.                                                                                                                                                                                                                             .X",
"o.                                                                                                                                                                                                                             .X",
"o.                                                                                                                                                                                                                             .X",
"o.                                                                                                                                                                                                                             .X",
"o.                                                                                                                                                                                                                             .X",
"o.                                                                                                                                                                                                                             .X",
"o.                                                                                                                                                                                                                             .X",
"o.                                                                                                                                                                                                                             .X",
"o.                                                                                                                                                                                                                             .X",
"o.                                                                                                                                                                                                                             .X",
"o.                                                                                                                                                                                                                             .X",
"o.                                                                                                                                                                                                                             .X",
"o.                                                                                                                                                                                                                             .X",
"o.                                                                                                                                                                                                                             .X",
"o.                                                                                                                                                                                                                             .X",
"o.                                                                                                                                                                                                                             .X",
"o.                                                                                                                                                                                                                             .X",
"o.                                                                                                                                                                                                                             .X",
"o.                                                                                                                                                                                                                             .X",
"o.                                                                                                                                                                                                                             .X",
"o.                                                                                                                                                                                                                             .X",
"o.                                                                                                                                                                                                                             .X",
"o.                                                                                                                                                                                                                             .X",
"o.                                                                                                                                                                                                                             .X",
"o.                                                                                                                                                                                                                             .X",
"o.                                                                                                                                                                                                                             .X",
"o.                                                                                                                                                                                                                             .X",
"o.                                                                                                                                                                                                                             .X",
"o.                                                                                                                                                                                                                             .X",
"o.                                                                                                                                                                                                                             .X",
"o.                                                                                                                                                                                                                             .X",
"o.                                                                                                                                                                                                                             .X",
"o.                                                                                                                                                                                                                             .X",
"o.                                                                                                                                                                                                                             .X",
"o.                                                                                                                                                                                                                             .X",
"o.                                                                                                                                                                                                                             .X",
"o.                                                                                                                                                                                                                             .X",
"o.                                                                                                                                                                                                                             .X",
"-.                                                                                                                                                                                                                             .X",
";.                                                                                                                                                                                                                             .X",
"$.                                                                                                                                                                                                                             .X",
"X.                                                                                                                                                                                                                             .X",
"X.                                                                                                                                                                                                                             .X",
"X.                                                                                                                                                                                                                             .X",
"X.                                                                                                                                                                                                                             .X",
"X.                                                                                                                                                                                                                             .X",
"X.                                                                                                                                                                                                                             .X",
"X.                                                                                                                                                                                                                             .X",
"X.                                                                                                                                                                                                                             .X",
"X.                                                                                                                                                                                                                             .X",
"X.                                                                                                                                                                                                                             .X",
"X.                                                                                                                                                                                                                             .X",
"X.                                                                                                                                                                                                                             .X",
"X.                                                                                                                                                                                                                             .X",
"X.                                                                                                                                                                                                                             .X",
"X.                                                                                                                                                                                                                             .X",
"X.                                                                                                                                                                                                                             .X",
"X.                                                                                                                                                                                                                             .X",
"X.                                                                                                                                                                                                                             .X",
"X.                                                                                                                                                                                                                             .X",
"X.                                                                                                                                                                                                                             .X",
"X.                                                                                                                                                                                                                             .X",
"X.                                                                                                                                                                                                                             .X",
"X.                                                                                                                                                                                                                             .X",
"X.                                                                                                                                                                                                                             .X",
"X.                                                                                                                                                                                                                             .X",
"X.                                                                                                                                                                                                                             .X",
"X.                                                                                                                                                                                                                             .X",
"X.                                                                                                                                                                                                                             .X",
"X.                                                                                                                                                                                                                             .X",
"X.                                                                                                                                                                                                                             .X",
"X.                                                                                                                                                                                                                             .X",
"X.                                                                                                                                                                                                                             .X",
"X.                                                                                                                                                                                                                             .X",
"X.                                                                                                                                                                                                                             .X",
"X.                                                                                                                                                                                                                             .X",
"X.                                                                                                                                                                                                                             .X",
"$.                                                                                                                                                                                                                             .X",
":.                                                                                                                                                                                                                             .X",
"-.                                                                                                                                                                                                                             .X",
"o.                                                                                                                                                                                                                             .X",
"o.                                                                                                                                                                                                                             .X",
"o.                                                                                                                                                                                                                             .X",
"o.                                                                                                                                                                                                                             .X",
"o.                                                                                                                                                                                                                             .X",
"o.                                                                                                                                                                                                                             .X",
"o.                                                                                                                                                                                                                             .X",
"o.                                                                                                                                                                                                                             .X",
"o.                                                                                                                                                                                                                             .X",
"o.                                                                                                                                                                                                                             .X",
"o.                                                                                                                                                                                                                             .X",
"o.                                                                                                                                                                                                                             .X",
"o.                                                                                                                                                                                                                             .X",
"o.                                                                                                                                                                                                                             .X",
"o.                                                                                                                                                                                                                             .X",
"o.                                                                                                                                                                                                                             .X",
"o.                                                                                                                                                                                                                             .X",
"o.                                                                                                                                                                                                                             .X",
"o.                                                                                                                                                                                                                             .X",
"o.                                                                                                                                                                                                                             .X",
"o.                                                                                                                                                                                                                             .X",
"o.                                                                                                                                                                                                                             .X",
"o.                                                                                                                                                                                                                             .X",
"o.                                                                                                                                                                                                                             .X",
"o.                                                                                                                                                                                                                             .X",
"o.                                                                                                                                                                                                                             .X",
"o.                                                                                                                                                                                                                             .X",
"o.                                                                                                                                                                                                                             .X",
"o.                                                                                                                                                                                                                             .X",
"o.                                                                                                                                                                                                                             .X",
"o.                                                                                                                                                                                                                             .X",
"o.                                                                                                                                                                                                                             .X",
"o.                                                                                                                                                                                                                             .X",
"o.                                                                                                                                                                                                                             .X",
"o.                                                                                                                                                                                                                             .X",
"o.                                                                                                                                                                                                                             .X",
"o.                                                                                                                                                                                                                             .X",
"o.                                                                                                                                                                                                                             .X",
"o.                                                                                                                                                                                                                             .X",
"o.                                                                                                                                                                                                                             .X",
"o.                                                                                                                                                                                                                             .X",
"o.                                                                                                                                                                                                                             .X",
"o.                                                                                                                                                                                                                             .X",
"o.                                                                                                                                                                                                                             .X",
"o.                                                                                                                                                                                                                             .X",
"o.                                                                                                                                                                                                                             .X",
"o.                                                                                                                                                                                                                             .X",
"o.                                                                                                                                                                                                                             .X",
"o.                                                                                                                                                                                                                             .X",
"o.                                                                                                                                                                                                                             .X",
"o.                                                                                                                                                                                                                             .X",
"o.                                                                                                                                                                                                                             .X",
"o.                                                                                                                                                                                                                             .X",
"o.                                                                                                                                                                                                                             .X",
"o.                                                                                                                                                                                                                             .X",
"o.                                                                                                                                                                                                                             .X",
"o.                                                                                                                                                                                                                             .X",
"o.                                                                                                                                                                                                                             .X",
"o.                                                                                                                                                                                                                             .X",
"o.                                                                                                                                                                                                                             .X",
"o.                                                                                                                                                                                                                             .X",
"o.                                                                                                                                                                                                                             .X",
"o.                                                                                                                                                                                                                             .X",
"o.                                                                                                                                                                                                                             .X",
"o.                                                                                                                                                                                                                             .X",
"o.                                                                                                                                                                                                                             .X",
"o.                                                                                                                                                                                                                             .X",
"o.                                                                                                                                                                                                                             .X",
"o.                                                                                                                                                                                                                             .X",
"o.                                                                                                                                                                                                                             .X",
"o.                                                                                                                                                                                                                             .X",
"o.                                                                                                                                                                                                                             .X",
"o.                                                                                                                                                                                                                             .X",
"o.                                                                                                                                                                                                                             .X",
"o.                                                                                                                                                                                                                             .X",
"o.                                                                                                                                                                                                                             .X",
"o.                                                                                                                                                                                                                             .X",
"o.                                                                                                                                                                                                                             .X",
"o.                                                                                                                                                                                                                             .X",
"o.                                                                                                                                                                                                                             .X",
"o.                                                                                                                                                                                                                             .X",
"o.                                                                                                                                                                                                                             .X",
"o.                                                                                                                                                                                                                             .X",
"o.                                                                                                                                                                                                                             .X",
"o.                                                                                                                                                                                                                             .X",
"o.                                                                                                                                                                                                                             .X",
"o.                                                                                                                                                                                                                             .X",
"o.                                                                                                                                                                                                                             .X",
"o.                                                                                                                                                                                                                             .X",
"o.                                                                                                                                                                                                                             .X",
"o.                                                                                                                                                                                                                             .X",
"o.                                                                                                                                                                                                                             .X",
"o.                                                                                                                                                                                                                             .X",
"o.                                                                                                                                                                                                                             .X",
"o.                                                                                                                                                                                                                             .X",
"o.                                                                                                                                                                                                                             .X",
"o.                                                                                                                                                                                                                             .X",
"o.                                                                                                                                                                                                                             .X",
"o.                                                                                                                                                                                                                             .X",
"o.                                                                                                                                                                                                                             .X",
"o.                                                                                                                                                                                                                             .X",
"o.                                                                                                                                                                                                                             .X",
"o.                                                                                                                                                                                                                             .X",
"o.                                                                                                                                                                                                                             .X",
"o.                                                                                                                                                                                                                             .X",
"o.                                                                                                                                                                                                                             .X",
"o.                                                                                                                                                                                                                             .X",
"o.                                                                                                                                                                                                                             .X",
"o.                                                                                                                                                                                                                             .X",
"o.                                                                                                                                                                                                                             .X",
"o.                                                                                                                                                                                                                             .X",
"o.                                                                                                                                                                                                                             .X",
"o.                                                                                                                                                                                                                             .X",
"o.                                                                                                                                                                                                                             .X",
"o.                                                                                                                                                                                                                             .X",
"o.                                                                                                                                                                                                                             .X",
"o.                                                                                                                                                                                                                             .X",
"o.                                                                                                                                                                                                                             .X",
"o.                                                                                                                                                                                                                             .X",
"o.                                                                                                                                                                                                                             .X",
"o.                                                                                                                                                                                                                             .X",
"o.                                                                                                                                                                                                                             .X",
"o.                                                                                                                                                                                                                             .X",
"o.                                                                                                                                                                                                                             .X",
"o.                                                                                                                                                                                                                             .X",
"o.                                                                                                                                                                                                                             .X",
"o.                                                                                                                                                                                                                             .X",
"o.                                                                                                                                                                                                                             .X",
"o.                                                                                                                                                                                                                             .X",
"o.                                                                                                                                                                                                                             .X",
"o.                                                                                                                                                                                                                             .X",
"O...............................................................................................................................................................................................................................$",
"@#XXXXXXXXXXXXXXXXXXXXXXXXXXXXXXXXXXXXXXXXXXXXXXXXXXXXXXXXXXXXXXXXXXXXXXXXXXXXXXXXXXXXXXXXXXXXXXXXXXXXXXXXXXXXXXXXXXXXXXXXXXXXXXXXXXXXXXXXXXXXXXXXXXXXXXXXXXXXXXXXXXXXXXXXXXXXXXXXXXXXXXXXXXXXXXXXXXXXXXXXXXXXXXXXXXXXXXXXXXXXX$>"
};
