/* XPM */
static char *result[] = {
/* columns rows colors chars-per-pixel */
"64 64 241 2 ",
"   c #52281C",
".  c #53281C",
"X  c #53291C",
"o  c #52281D",
"O  c #5F2E20",
"+  c #5E2F20",
"@  c #5F2F20",
"#  c #5F2F21",
"$  c #683424",
"%  c #693424",
"&  c #683425",
"*  c #693425",
"=  c #683525",
"-  c #693525",
";  c #6A3524",
":  c #6B3524",
">  c #6A3425",
",  c #6B3425",
"<  c #6A3525",
"1  c #6B3525",
"2  c #6C3426",
"3  c #6D3426",
"4  c #6C3526",
"5  c #6D3526",
"6  c #6D3427",
"7  c #6D3527",
"8  c #783A2A",
"9  c #793A2A",
"0  c #783B2A",
"q  c #783A2B",
"w  c #793A2B",
"e  c #7A3C2A",
"r  c #7B3C2A",
"t  c #7A3D2A",
"y  c #7B3D2A",
"u  c #7A3C2B",
"i  c #7B3C2B",
"p  c #7A3D2B",
"a  c #7B3D2B",
"s  c #7C3C2A",
"d  c #7C3D2A",
"f  c #7D3D2A",
"g  c #7C3C2B",
"h  c #7D3C2B",
"j  c #7C3D2B",
"k  c #7D3D2B",
"l  c #7E3E2C",
"z  c #7E3F2C",
"x  c #7E3F2D",
"c  c #7F3F2D",
"v  c #803E2C",
"b  c #803F2C",
"n  c #813F2C",
"m  c #803E2D",
"M  c #813E2D",
"N  c #803F2D",
"B  c #813F2D",
"V  c #82402C",
"C  c #83402C",
"Z  c #83412C",
"A  c #82402D",
"S  c #83402D",
"D  c #82412D",
"F  c #86422E",
"G  c #87422E",
"H  c #86432E",
"J  c #87432E",
"K  c #86422F",
"L  c #87422F",
"P  c #86432F",
"I  c #87432F",
"U  c #88422E",
"Y  c #89422E",
"T  c #88432E",
"R  c #89432E",
"E  c #88422F",
"W  c #89422F",
"Q  c #88432F",
"!  c #89432F",
"~  c #8A4430",
"^  c #8B4430",
"/  c #8A4530",
"(  c #8B4530",
")  c #8A4431",
"_  c #8B4431",
"`  c #8A4531",
"'  c #8D4430",
"]  c #8C4530",
"[  c #8D4530",
"{  c #8D4531",
"}  c #8E4632",
"|  c #8F4632",
" . c #8E4732",
".. c #8E4633",
"X. c #8E4733",
"o. c #914632",
"O. c #914732",
"+. c #904633",
"@. c #904733",
"#. c #914733",
"$. c #934832",
"%. c #934932",
"&. c #924833",
"*. c #934833",
"=. c #934933",
"-. c #984B34",
";. c #994B34",
":. c #994A35",
">. c #984B35",
",. c #994B35",
"<. c #9A4C36",
"1. c #9B4C36",
"2. c #9B4D36",
"3. c #9C4C36",
"4. c #9D4C36",
"5. c #9C4D36",
"6. c #9D4D36",
"7. c #9C4C37",
"8. c #9D4C37",
"9. c #9C4D37",
"0. c #9D4D37",
"q. c #9E4E38",
"w. c #9F4E38",
"e. c #9E4E39",
"r. c #9F4E39",
"t. c #9E4F39",
"y. c #A14E38",
"u. c #A04F38",
"i. c #A14F38",
"p. c #A14E39",
"a. c #A04F39",
"s. c #A14F39",
"d. c #A9533A",
"f. c #A9523B",
"g. c #A8533B",
"h. c #A9533B",
"j. c #AE563C",
"k. c #AF563C",
"l. c #AE573C",
"z. c #AF573C",
"x. c #AE563D",
"c. c #AF573D",
"v. c #B65A41",
"b. c #B75A41",
"n. c #B65B41",
"m. c #AAABAA",
"M. c #AAAAAB",
"N. c #AAABAB",
"B. c #ACACAC",
"V. c #ACADAC",
"C. c #ACACAD",
"Z. c #ACADAD",
"A. c #B0B1B0",
"S. c #B1B1B0",
"D. c #B0B0B1",
"F. c #B1B0B1",
"G. c #B0B1B1",
"H. c #B1B1B1",
"J. c #B2B2B2",
"K. c #B3B2B2",
"L. c #B2B3B2",
"P. c #B3B3B2",
"I. c #B2B2B3",
"U. c #B3B2B3",
"Y. c #B2B3B3",
"T. c gray70",
"R. c #B4B4B4",
"E. c #B5B4B4",
"W. c #B4B5B4",
"Q. c #B5B5B4",
"!. c #B4B4B5",
"~. c #B5B4B5",
"^. c #B4B5B5",
"/. c gray71",
"(. c #B6B7B6",
"). c #B6B6B7",
"_. c #B7B6B7",
"`. c #B6B7B7",
"'. c #B7B7B7",
"]. c gray72",
"[. c #B9B8B8",
"{. c #B8B9B8",
"}. c #B9B9B8",
"|. c #B9B9B9",
" X c #BBBABA",
".X c #BABBBA",
"XX c #BBBBBA",
"oX c #BABABB",
"OX c #BBBABB",
"+X c #BABBBB",
"@X c #BBBBBB",
"#X c #BFBEBE",
"$X c #BEBFBE",
"%X c #BFBFBE",
"&X c #BEBFBF",
"*X c gray75",
"=X c #CECECE",
"-X c #CFCECE",
";X c #CECFCE",
":X c #CFCFCE",
">X c #CECECF",
",X c #CECFCF",
"<X c #D0D1D0",
"1X c #D0D0D1",
"2X c #D1D0D1",
"3X c #D0D1D1",
"4X c #D2D2D2",
"5X c #D3D2D2",
"6X c #D2D3D2",
"7X c #D3D3D2",
"8X c #D2D2D3",
"9X c #D3D2D3",
"0X c #D2D3D3",
"qX c LightGray",
"wX c gray84",
"eX c #D7D6D6",
"rX c #D6D7D6",
"tX c #D7D7D6",
"yX c #D6D6D7",
"uX c #D7D6D7",
"iX c #D6D7D7",
"pX c #D7D7D7",
"aX c gainsboro",
"sX c #DDDCDC",
"dX c #DCDDDC",
"fX c #DDDDDC",
"gX c #DCDCDD",
"hX c gray87",
"jX c #DFDEDE",
"kX c #DEDFDE",
"lX c #DFDFDE",
"zX c #DEDEDF",
"xX c #DFDEDF",
"cX c #DEDFDF",
"vX c gray88",
"bX c #E1E0E0",
"nX c #E1E1E0",
"mX c #E1E0E1",
"MX c #E0E1E1",
"NX c #E1E1E1",
"BX c None",
/* pixels */
"0.0.0.0.*.*.*.*.8.8.0.8.-X-X-X-XaXaXaXBXBXBXBXBXBXBXBXBXBXBXBXBXBXBXBXBXBXBXBXBXBXBXBXBXBXaXaXaX8.4.8.8.h.h.h.h.9.9.5.9.8.8.8.4.",
"0.8.0.0.*.=.$.*.3.7.3.0.-X-X-X-XaXaXaXBXBXBXBXBXBXBXBXBXBXBXBXBXBXBXBXBXBXBXBXBXBXBXBXBXBXsXaXdX8.8.8.8.h.f.h.h.5.5.9.5.4.5.4.4.",
"0.6.6.0.&.%.=.*.7.0.7.0.:X=X-X-XaXaXaXBXBXBXBXBXBXBXBXBXBXBXBXBXBXBXBXBXBXBXBXBXBXBXBXBXBXsXaXaX8.7.8.8.g.d.g.h.0.7.7.0.8.8.8.9.",
"0.6.0.6.*.&.*.*.8.8.7.8.-X-X:X=XaXaXaXBXBXBXBXBXBXBXBXBXBXBXBXBXBXBXBXBXBXBXBXBXBXBXBXBXBXaXaXaX8.7.8.8.h.h.f.d.9.5.9.9.8.8.8.0.",
"a p u i r y i y P K K I bXbXbXbXaXaXsXBXBXBXBXBXBXBXBXBXBXBXBXBXBXBXBXBXBXBXBXBXBXBXBXBXBXgXaXaX0.0.0.0.z z z z u u i u s g g j ",
"a a p a r y r i K K L F bXbXbXmXaXdXaXBXBXBXBXBXBXBXBXBXBXBXBXBXBXBXBXBXBXBXBXBXBXBXBXBXBXaXaXsX0.0.0.8.z z z l i u p u g g g j ",
"a a a i y e r y P K F L bXvXnXmXaXgXaXBXBXBXBXBXBXBXBXBXBXBXBXBXBXBXBXBXBXBXBXBXBXBXBXBXBXaXaXsX0.0.9.8.z z z z i u u u g g d g ",
"a p a p r i i e F K K K mXbXbXvXaXaXsXBXBXBXBXBXBXBXBXBXBXBXBXBXBXBXBXBXBXBXBXBXBXBXBXBXBXgXaXaX3.8.0.0.z z x c u u i u j g g g ",
"a i i i ] { ] [ * * - % 9X5XqX6XsXaXaXBXBXBXBXBXBXBXBXBXBXBXBXBXBXBXBXBXBXBXBXBXBXBXBXBXBXaXaXaXV S Z D #.#.O.O.u u i u } ..X.} ",
"i a i i [ ] ] ] * * - * qXqXqXqXaXaXaXBXBXBXBXBXBXBXBXBXBXBXBXBXBXBXBXBXBXBXBXBXBXBXBXBXBXaXaXaXA A A A #.#.o.#.p u u u } } | } ",
"i i i r ] ' ] ] = * - * 9XqX7X7XgXaXsXBXBXBXBXBXBXBXBXBXBXBXBXBXBXBXBXBXBXBXBXBXBXBXBXBXBXaXaXaXA A C A #.+.@.#.u t u u }  .....",
"i u t i ] ] ] ] & * $ * qX9X7X0XaXaXaXBXBXBXBXBXBXBXBXBXBXBXBXBXBXBXBXBXBXBXBXBXBXBXBXBXBXaXaXaXS A A A O.#.#.#.a u u u ..} | ..",
"XX XOX X{.].].[.L.P.T.P.wXrXrXrXdXaXaXBXBXBXBXBXBXBXBXBXBXBXBXBXBXBXBXBXBXBXBXBXBXBXBXBXBXgXaXaXR.R.R.R.E.E.E.R.H.H.F.F.*X*X%X%X",
" X X X X].{.].[.P.P.P.K.rXpXtXrXgXaXaXBXBXBXBXBXBXBXBXBXBXBXBXBXBXBXBXBXBXBXBXBXBXBXBXBXBXaXaXaXE.R.R.^.R.E.E.E.H.H.H.H.&X%X*X%X",
" X.X XOX].].].{.P.P.L.P.iXwXrXyXsXaXaXBXBXBXBXBXBXBXBXBXBXBXBXBXBXBXBXBXBXBXBXBXBXBXBXBXBXaXaXaXR.!.R.!.R.E.R.E.H.D.H.H.%X%X*X%X",
" XoXOXXX].].[.{.K.P.P.P.rXrXrXiXaXaXsXBXBXBXBXBXBXBXBXBXBXBXBXBXBXBXBXBXBXBXBXBXBXBXBXBXBXaXaXaXR.R.W.R.E.W.E.E.S.S.H.H.%X#X%X$X",
"^ ~ / ~ 8.8.7.8.8.8.8.8.0.0.0.0.aXsXaXBXBXBXBXBXBXBXBXBXBXBXBXBXBXBXBXBXBXBXBXBXBXBXBXBXBXaXaXaX0.0.0.0.8.4.4.8.4.7.4.8.<X3X3X1X",
") ~ ^ / 4.8.0.8.0.4.8.8.8.0.0.0.aXaXaXBXBXBXBXBXBXBXBXBXBXBXBXBXBXBXBXBXBXBXBXBXBXBXBXBXBXaXaXgX4.0.0.9.7.4.3.4.8.8.8.6.2X3X3X3X",
"~ ^ ^ ( 4.7.4.4.8.0.8.8.0.0.0.6.dXaXaXBXBXBXBXBXBXBXBXBXBXBXBXBXBXBXBXBXBXBXBXBXBXBXBXBXBXdXdXaX0.6.8.8.4.4.4.6.8.4.8.7.3X3X2X3X",
"~ ` ^ ) 8.8.0.7.8.7.8.4.0.9.0.9.aXaXaXBXBXBXBXBXBXBXBXBXBXBXBXBXBXBXBXBXBXBXBXBXBXBXBXBXBXaXaXaX0.8.0.0.4.8.4.8.7.8.8.8.1X3X3X3X",
"7.8.8.8.u u u u 2.<.<.1.e e e e aXaXaXBXBXBXBXBXBXBXBXBXBXBXBXBXBXBXBXBXBXBXBXBXBXBXBXBXBXaXaXsX: , , < e e e e p p u p pXtXpXpX",
"8.8.9.8.u a e p <.1.1.1.t e e u aXaXaXBXBXBXBXBXBXBXBXBXBXBXBXBXBXBXBXBXBXBXBXBXBXBXBXBXBXaXaXaX1 1 < 1 e r r e p p p p yXiXuXuX",
"8.8.8.6.u i u u 1.1.1.1.i r e u aXaXaXBXBXBXBXBXBXBXBXBXBXBXBXBXBXBXBXBXBXBXBXBXBXBXBXBXBXsXaXaX; 1 , : r e e e u p p p pXpXpXiX",
"8.4.0.8.u i u u 2.<.<.1.e y e e aXaXaXBXBXBXBXBXBXBXBXBXBXBXBXBXBXBXBXBXBXBXBXBXBXBXBXBXBXsXaXaX> , , 1 e r p e p p a p tXiXpXtX",
"0.0.0.0.@ O @ @ T E U U 2 5 4 6 aXaXsXBXBXBXBXBXBXBXBXBXBXBXBXBXBXBXBXBXBXBXBXBXBXBXBXBXBXaXaXaXp p p i y e e e u u u u 4X4X5X4X",
"0.0.6.0.@ + # @ U E U U 4 5 5 5 aXaXaXBXBXBXBXBXBXBXBXBXBXBXBXBXBXBXBXBXBXBXBXBXBXBXBXBXBXaXaXaXi u u u i t e t p p r u 4X4X4X4X",
"6.9.9.0.O # @ @ T E E U 5 3 4 5 dXaXaXBXBXBXBXBXBXBXBXBXBXBXBXBXBXBXBXBXBXBXBXBXBXBXBXBXBXsXdXaXu u e p e e e e u u u u 4X4X8X8X",
"0.0.8.6.@ @ @ @ U E U U 5 3 5 7 aXaXaXBXBXBXBXBXBXBXBXBXBXBXBXBXBXBXBXBXBXBXBXBXBXBXBXBXBXaXaXaXu u i u e e e u u t u u 4X7X8X4X",
"R.R.^.R.E.W.R.E.E.R.W.R.J.I.I.J.aXaXaXBXBXBXBXBXBXBXBXBXBXBXBXBXBXBXBXBXBXBXBXBXBXBXBXBXBXaXaXaX^.!./.!.R.E.R.R.R.W.R.R.tXiXpXpX",
"R.R.R.R.R.R.R.!.R.R.R.R.J.J.J.L.aXdXaXBXBXBXBXBXBXBXBXBXBXBXBXBXBXBXBXBXBXBXBXBXBXBXBXBXBXaXaXaX~.!.~.^.R.R.W.W.R.R.R.!.iXpXiXiX",
"R.R.R.W.E.R.!.R.E.R.E.R.I.J.J.K.gXaXaXBXBXBXBXBXBXBXBXBXBXBXBXBXBXBXBXBXBXBXBXBXBXBXBXBXBXaXaXaX!.!.!.!.R.W.!.E.R.W.!.R.pXpXpXpX",
"E.E.!.^.R.!.!.W.R.!.E.Q.Y.J.J.J.aXaXdXBXBXBXBXBXBXBXBXBXBXBXBXBXBXBXBXBXBXBXBXBXBXBXBXBXBXdXaXaX~.^.!.!.R.W.R.R.R.R.W.R.pXiXyXpX",
"i.i.i.u.5.3.5.5.7.7.7.7.qX9X8X5XaXaXdXBXBXBXBXBXBXBXBXBXBXBXBXBXBXBXBXBXBXBXBXBXBXBXBXBXBXaXaXaX8.0.8.6.8.0.9.8.v.v.v.v.j g h k ",
"i.p.i.i.6.7.0.5.9.7.3.3.9X8XqX9XaXaXaXBXBXBXBXBXBXBXBXBXBXBXBXBXBXBXBXBXBXBXBXBXBXBXBXBXBXaXaXaX0.6.0.0.9.0.0.0.b.v.v.v.j j j k ",
"i.a.i.i.9.6.5.3.7.7.7.7.9X5X9X9XaXaXgXBXBXBXBXBXBXBXBXBXBXBXBXBXBXBXBXBXBXBXBXBXBXBXBXBXBXaXgXaX0.0.0.9.0.3.0.0.v.v.v.v.k h j s ",
"i.i.u.i.3.5.5.9.4.7.8.5.8X9X4X9XaXaXdXBXBXBXBXBXBXBXBXBXBXBXBXBXBXBXBXBXBXBXBXBXBXBXBXBXBXsXaXdX0.0.0.9.0.0.0.0.n.b.v.n.j f j j ",
"e u i u u u i e u t t t :X-X-X:XaXgXaXBXBXBXBXBXBXBXBXBXBXBXBXBXBXBXBXBXBXBXBXBXBXBXBXBXBXaXaXgX0.0.6.0.! Q ! W u p u e e e e e ",
"i u u e u u p t e t t t ;X-X:X:XaXaXsXBXBXBXBXBXBXBXBXBXBXBXBXBXBXBXBXBXBXBXBXBXBXBXBXBXBXaXsXaX8.0.0.0.! W ! W u u u u r u e u ",
"u i p u a u u u e p y t -X:X:X:XaXaXaXBXBXBXBXBXBXBXBXBXBXBXBXBXBXBXBXBXBXBXBXBXBXBXBXBXBXaXaXaX9.0.6.0.R ! ! R u u u u e e e e ",
"u u e u i u u e y y t t :X:X:X:XaXgXaXBXBXBXBXBXBXBXBXBXBXBXBXBXBXBXBXBXBXBXBXBXBXBXBXBXBXaXdXaX9.6.0.6.Q ! ! ! u e u u e e u e ",
") ` ) / u u u u W W W Y hXhXhXhXaXfXaXBXBXBXBXBXBXBXBXBXBXBXBXBXBXBXBXBXBXBXBXBXBXBXBXBXBXaXaXaX9.6.0.6.a a a a F K P F e e e t ",
") ` ) / u u u e Y W W W jXhXhXlXaXaXaXBXBXBXBXBXBXBXBXBXBXBXBXBXBXBXBXBXBXBXBXBXBXBXBXBXBXaXaXdX0.0.0.0.i a a a P P I P y t t t ",
"_ _ ) ` t r u u W W R W jXhXcXhXaXaXaXBXBXBXBXBXBXBXBXBXBXBXBXBXBXBXBXBXBXBXBXBXBXBXBXBXBXdXaXaX6.0.0.6.p y a a P I I P t e t t ",
") ~ ) ) u u r u W W ! W xXzXkXhXaXaXaXBXBXBXBXBXBXBXBXBXBXBXBXBXBXBXBXBXBXBXBXBXBXBXBXBXBXaXaXdX8.8.6.0.a y p a J K P H e t t t ",
"!.!.!.!.E.E.Q.R.V.C.B.Z.wXwXwXwXaXaXdXBXBXBXBXBXBXBXBXBXBXBXBXBXBXBXBXBXBXBXBXBXBXBXBXBXBXaXaXaXT.U.U.P.+XoXoXoXH.H.S.H.E.E.~.~.",
"R.!.!.!.~.E.E.~.B.B.B.B.wXwXwXwXaXaXaXBXBXBXBXBXBXBXBXBXBXBXBXBXBXBXBXBXBXBXBXBXBXBXBXBXBXaXaXaXT.T.T.T.OXoXoXOXH.S.H.H.E.~.^.~.",
"!.~.!.!.W.^.E.~.B.B.B.B.wXwXrXwXaXaXaXBXBXBXBXBXBXBXBXBXBXBXBXBXBXBXBXBXBXBXBXBXBXBXBXBXBXaXaXaXU.T.T.U.oXoXoXoXG.H.H.A.!./.!./.",
"^.~.!.R.E.E.E.E.B.V.V.B.eXwXwXwXaXaXaXBXBXBXBXBXBXBXBXBXBXBXBXBXBXBXBXBXBXBXBXBXBXBXBXBXBXaXaXaXT.T.P.T.+XoX@XoXG.H.S.H.~.~.~.~.",
"e.e.q.e.i.i.i.i.x.z.j.k.8.8.8.8.aXaXaXBXBXBXBXBXBXBXBXBXBXBXBXBXBXBXBXBXBXBXBXBXBXBXBXBXBXaXaXaX>.,.;.,.0.7.9.0.r.r.w.w.NXNXNXNX",
"w.e.e.e.s.i.i.s.z.k.j.k.8.4.0.0.aXaXgXBXBXBXBXBXBXBXBXBXBXBXBXBXBXBXBXBXBXBXBXBXBXBXBXBXBXaXaXaX:.,.>.-.6.0.0.0.w.q.w.w.bXnXNXMX",
"e.e.e.e.i.y.y.s.c.k.k.l.3.8.8.4.aXaXaXBXBXBXBXBXBXBXBXBXBXBXBXBXBXBXBXBXBXBXBXBXBXBXBXBXBXaXaXaX,.,.,.,.6.9.6.9.w.w.r.w.NXnXnXNX",
"t.e.e.e.i.i.i.i.k.k.j.k.8.4.8.8.aXaXaXBXBXBXBXBXBXBXBXBXBXBXBXBXBXBXBXBXBXBXBXBXBXBXBXBXBXaXaXaX,.,.,.:.6.9.0.0.r.t.w.w.NXNXNXNX",
"9.9.9.9.u e e e w 0 q 0 e e e e aXaXaXBXBXBXBXBXBXBXBXBXBXBXBXBXBXBXBXBXBXBXBXBXBXBXBXBXBXaXsXdXp u p p j j d k b b b b 0X8X0X6X",
"9.9.0.9.t u e y 8 q 0 8 e e u u aXaXaXBXBXBXBXBXBXBXBXBXBXBXBXBXBXBXBXBXBXBXBXBXBXBXBXBXBXaXaXaXu p p p k g j j N b b b 0X0X9X0X",
"9.9.9.5.t e t u 8 8 8 q r e e e aXaXaXBXBXBXBXBXBXBXBXBXBXBXBXBXBXBXBXBXBXBXBXBXBXBXBXBXBXaXaXaXa p p u j j j g b b n b 0X0XqX0X",
"9.9.7.5.u e e u 9 9 q 0 e u e u aXdXaXBXBXBXBXBXBXBXBXBXBXBXBXBXBXBXBXBXBXBXBXBXBXBXBXBXBXgXaXaXt p a u k j j g b b v b qX0X0XqX",
"4.4.3.4.X       L G L K p p p p aXgXaXBXBXBXBXBXBXBXBXBXBXBXBXBXBXBXBXBXBXBXBXBXBXBXBXBXBXaXaXaXA A A D a u u a m B M m 5XqXqXqX",
"4.4.4.8.o       I L I F p a t a aXaXaXBXBXBXBXBXBXBXBXBXBXBXBXBXBXBXBXBXBXBXBXBXBXBXBXBXBXaXaXaXA A A A u e u u m m B m 4XqXqXqX",
"4.4.3.4.      . L L L L a p p t aXaXaXBXBXBXBXBXBXBXBXBXBXBXBXBXBXBXBXBXBXBXBXBXBXBXBXBXBXaXaXaXA D A V u u u u v m v v 7XqX9X0X",
"4.4.3.4.o   .   L L L L a u u p sXaXaXBXBXBXBXBXBXBXBXBXBXBXBXBXBXBXBXBXBXBXBXBXBXBXBXBXBXaXaXaXV A A D u i p u m v v M qXqXqX9X",
"R.!.^.!.P.P.L.L.m.N.M.N.).'.'.'.aXaXaXBXBXBXBXBXBXBXBXBXBXBXBXBXBXBXBXBXBXBXBXBXBXBXBXBXBXaXaXaX{.}.[.[.^.^.!.!./.^././.=X;X,X=X",
"!.!.!.!.L.L.L.Y.N.m.m.N.'.'.'.'.sXaXaXBXBXBXBXBXBXBXBXBXBXBXBXBXBXBXBXBXBXBXBXBXBXBXBXBXBXaXaXaX[.}.[.}.E.~.!.!./././.Q.=X=X=X=X",
"!.R.R.~.T.J.L.Y.N.N.N.M.)._.'.(.fXaXaXBXBXBXBXBXBXBXBXBXBXBXBXBXBXBXBXBXBXBXBXBXBXBXBXBXBXaXaXaX|.|.{.|.!.!.!.!././.^./.=X=X-X>X",
"!.!.^.E.L.L.K.L.N.N.m.N.`.'.'.'.dXaXaXBXBXBXBXBXBXBXBXBXBXBXBXBXBXBXBXBXBXBXBXBXBXBXBXBXBXaXaXgX}.}.}.[.^.!.!.R./.Q.Q./.=X-X=X=X"
};
