/* XPM */
static char *result[] = {
/* columns rows colors chars-per-pixel */
"64 64 26 1 ",
"  c #52281C",
". c #5D2E20",
"X c #653123",
"o c #6B3426",
"O c #713727",
"+ c #753929",
"@ c #7A3C2B",
"# c #803F2D",
"$ c #84412E",
"% c #89422F",
"& c #8C4531",
"* c #904733",
"= c #934833",
"- c #9C4C37",
"; c #9F4E38",
": c #A14F38",
"> c #A5513A",
", c #AC543B",
"< c #B65A40",
"1 c #ABABAC",
"2 c #B4B4B4",
"3 c #BABABA",
"4 c #CECECD",
"5 c #D4D4D4",
"6 c #DCDCDC",
"7 c #E1E1E0",
/* pixels */
"----====----4444----::::&&==>,66666,<<,<***&5554----,>,>;;------",
"----====----4444----:-::&==&>>66667,,,,,*&&*5555---->,>,--------",
"----*===----4445------::=&&=>>66666,,,,<&*&&5554----,>>,--;-----",
"--:-====----5444----::-:&==&>,66666,<,,,*&*&5555----,>,>--------",
"#@@@@@@@%$%$7777<<<<@@@@OoOoX.66666+++++$$#$5555----###$@@@@@@@@",
"@@@@@@@@$%$$7777<<<<@@@@ooooXX66666O@+++$$$$4555----@##@@@@@@@#@",
"@@@@@@#@%%$%7777<<<<@@@@oOoOX.66666+@+++$$$$5545---:#@##@@@@@@@@",
"@@#@@@@@$%%$7777<<<<@@@@ooooXX66666+O+++$$$$5555----###@@@@@#@@#",
"@@@@&&&&XoXo5555----@@$@@@@@OO66666@@@@@@@@@5455$###=&&=@@@@&**&",
"@@@@&&&&oooX5555----$@@$@@@@OO66666@@@@@@@@@5555$#$#====@@@@&&&*",
"@@@@&&&&XXoo5455--::@@$@@@@@OO66666@@@@@@@@@5555#$#$&*=&@@@@&&**",
"@@@@&&&&ooXo5555---:$@@$@@@@OO66666@@@@+@@@@5555$#$$*===@@@@***&",
"3333332222215565222222222223226666623333223266662222223222213333",
"3333233312225565222222222222126666623333222266662222222211223434",
"3333333322225555222222322222216666622332222266662222222222124333",
"3333232222226656223222222222126666633333222266662222222221223334",
"=&&&-------------:--====---:--66666,>,,>;:::----:--:--------4545",
"&&%&----------------====-:----66666>,>>,::;:-;-;------------4455",
"&%&&----------------====----:-66666>>,,>::::--;;------------5445",
"&%&%-------=--:-----====------66666,,>>>;:::-;;:--:---------4454",
"----@@@@----@@@@XXOX@@@@@@@+@@66666@@@@@OOOO@@@@oooo@@@@@@@@5655",
"--:-@@@@----@@@@oXXX@@@@+@+@++66666@@@@@OOOO@@@@oooo@@@@@@@@6556",
"----@@@@-==-@@@@XXXX@@@@@++@@+66666@@@@@OOOO@@@@oooo@+@@@@@@6556",
"----@@@@----@@@@oXX.@@@@@+@@+@66666@@@@@OOOO@@@@oooo@@@@@@@@5565",
"----....%%%%oOoO#@@@XX.X@@@@+@66666ooooo$$$$O@++@@@@@@@@@@@@5555",
"----...X%%%%oooo#@@@.XXX@@@@@+66666oooOo$$$$@O++@@@@@@@@@@@@5555",
"-::-.X..%%%%OoooO##O.X.X@@@@@@66666oOooo$$$$OOO+@@@@@@@@@@@@5545",
"----..XX$%%%oooo##O#XXXX@@@@@@66666ooooo$$$$O@O+@@@@@@@@@@@@4545",
"2222222222222222122223331223566666622222212122222222222222225565",
"2222222222222221122233322222556666622222121223222222232222225665",
"2222222222222122222232332222557666622222211222222222222222225555",
"2222322222222222221233332222657666722322212222222223222222226656",
"::::--------5555=---;;=;>>>><<66766;--------5555------;-<<<<@##@",
"::::--------4555-===-;;;>>>><<66666;--------4545--------<<<<@@#@",
"::::--------5554=-----=;>>>:<<66666;--------5555--------<<<<@#@@",
":::---------5555=-=-;=;;>>>:<<66666;--------5555----;---<<<<#@@@",
"@@@@@@@@@@@@4444===-@@@@@@@@@@66666%&&$&+@+@4444--;-%%&%@@@@@@@@",
"@@@@@@@@@@@@5445====@@@@@@@@@@66666$&&&&@@@@4444----%%%%@@@@@@@@",
"@@@@@@@@@@@@4444====@@@@@@@@@@66666$&&&&@@@O4444----%%%%@@@@@@@@",
"@@@@@@@@@@@@4444==-=@@@@@@@@@@66667$$&&$+O@o4444--;-%%&%@@@@@@@@",
"%%&%@@@@%%%%7776;;--@@@@. ..@@66666@$@$#@@@@5454;-;=@@@@$$$$@@@@",
"%&&%@@@@%%%%7667-;--@@@@....@@66676$##$$@@@@4545--;;#@@@$$$%@@@@",
"&%&&@@@@%%%%6766;---@@@+ ...@@66666$#$$$@@@@5445--;-@@#@$%%%@@@@",
"%&%&@@@@&%%*7676--;-@@@@.. .@@66666$$#$$@@@@4454--;;@@@#%$%%@@@@",
"2222222211116555222222232223226666622222222255562222333322212222",
"2322222311115565232222222222226666722222222265662222333311223223",
"2232222212115656222222222222226666622222222256552221333321222222",
"2222222211115556222222322222226666622222222165662222333312222222",
":;;;;:::,,,<------------===*4456666<<<<<--:=----===----;;;;;7777",
":;;;;>::,<,,------;--;;-====4466666<<<<<--------=--=;---;;;;7777",
";;;;::;;<,<<----------;-====4466666<<<<<--;------==-;-;;;;;;7777",
";;;;::;;,,,,----;-------====4466666<<<<<----------=---;;;;;;7777",
"--;=@@@@+@@@@@@@@@@@@@@@XXoX4466666@++@@@@@@@@@@@@@@@@#@$@$@5555",
"----@@@@@+@+@@@@@@@@@@@@XXXX4466666@@@+@@@@@@@@@@@@@@@@@@$@$5555",
"---;@@@@+@@@@@@@@@@@@@@@XoXX4466666@@O@@@@@@@@@@@@@@@@##$$##5555",
"----@@@@+@+@@@@@@@@@@@@@XXXo4466666@@@@@@@@@@@@@@@@@#@@@@@@@5455",
"---:    $%%%@@@@@@@@@@@@@@@@5566666@@@@@@@@@@@@@$@$@@@@@$$$@5555",
"----    $%%%@@@@@@@@@@@@@@@@5566666@@@@@@@@@@@@@$$$$@@@@$@@$5555",
"--;-    %%$$@@@@@@@@@@@@@@@@5566666O+@@@@@@@@@@@$$$$@@@###@@5555",
"--==    $%%%@@@@@@@@@@@@@@@@5566666@@@@@@@@@@@@@$@$@@@@@##$$5455",
"2222222211112323222223232222566666632222221222223333222222224444",
"2222122211113232222332322223566666632222122122323323222223224444",
"3222222111112323222232232222556666632222122222222333232222234444",
"2222212111113332222223332222656666632222221222223332222232224444"
};
