/* XPM */
static char *result[] = {
/* columns rows colors chars-per-pixel */
"64 64 194 2 ",
"   c #52281C",
".  c #53281C",
"X  c #53291C",
"o  c #52281D",
"O  c #5F2E20",
"+  c #5E2F20",
"@  c #5F2F20",
"#  c #5F2F21",
"$  c #693424",
"%  c #683425",
"&  c #693425",
"*  c #683525",
"=  c #693525",
"-  c #783A2A",
";  c #793A2A",
":  c #783B2A",
">  c #783A2B",
",  c #793A2B",
"<  c #783B2B",
"1  c #7A3C2A",
"2  c #7B3C2A",
"3  c #7A3D2A",
"4  c #7B3D2A",
"5  c #7A3C2B",
"6  c #7B3C2B",
"7  c #7A3D2B",
"8  c #7B3D2B",
"9  c #7C3C2A",
"0  c #7C3D2A",
"q  c #7D3D2A",
"w  c #7C3C2B",
"e  c #7D3C2B",
"r  c #7C3D2B",
"t  c #7D3D2B",
"y  c #7E3E2C",
"u  c #7E3F2C",
"i  c #7F3F2C",
"p  c #7E3F2D",
"a  c #803E2C",
"s  c #803F2C",
"d  c #813F2C",
"f  c #803E2D",
"g  c #813E2D",
"h  c #803F2D",
"j  c #813F2D",
"k  c #86422E",
"l  c #87422E",
"z  c #86432E",
"x  c #87432E",
"c  c #86422F",
"v  c #87422F",
"b  c #86432F",
"n  c #87432F",
"m  c #88422E",
"M  c #89422E",
"N  c #88432E",
"B  c #89432E",
"V  c #88422F",
"C  c #89422F",
"Z  c #89432F",
"A  c #8A4430",
"S  c #8B4430",
"D  c #8A4530",
"F  c #8B4530",
"G  c #8A4431",
"H  c #8B4431",
"J  c #8A4531",
"K  c #8D4430",
"L  c #8C4530",
"P  c #8D4530",
"I  c #8E4632",
"U  c #8F4632",
"Y  c #8E4732",
"T  c #8E4633",
"R  c #8E4733",
"E  c #914632",
"W  c #914732",
"Q  c #914633",
"!  c #904733",
"~  c #914733",
"^  c #934832",
"/  c #924833",
"(  c #934833",
")  c #934933",
"_  c #9A4C36",
"`  c #9B4C36",
"'  c #9B4D36",
"]  c #9C4C36",
"[  c #9D4C36",
"{  c #9C4D36",
"}  c #9D4D36",
"|  c #9C4C37",
" . c #9D4C37",
".. c #9C4D37",
"X. c #9D4D37",
"o. c #9E4E38",
"O. c #9F4E38",
"+. c #9F4F38",
"@. c #9E4E39",
"#. c #9F4E39",
"$. c #9E4F39",
"%. c #A14E38",
"&. c #A04F38",
"*. c #A14F38",
"=. c #A14E39",
"-. c #A14F39",
";. c #A9533A",
":. c #A9523B",
">. c #A8533B",
",. c #A9533B",
"<. c #AE563C",
"1. c #AF563C",
"2. c #AE573C",
"3. c #AF573C",
"4. c #AE563D",
"5. c #AF563D",
"6. c #B65A41",
"7. c #B75A41",
"8. c #B65B41",
"9. c #AAABAA",
"0. c #AAAAAB",
"q. c #AAABAB",
"w. c #ACACAC",
"e. c #ACADAC",
"r. c gray69",
"t. c #B1B0B0",
"y. c #B0B1B0",
"u. c #B1B1B0",
"i. c #B1B0B1",
"p. c #B0B1B1",
"a. c #B1B1B1",
"s. c #B2B2B2",
"d. c #B3B2B2",
"f. c #B2B3B2",
"g. c #B3B3B2",
"h. c #B2B3B3",
"j. c gray70",
"k. c #B4B4B4",
"l. c #B5B4B4",
"z. c #B4B5B4",
"x. c #B5B5B4",
"c. c #B4B4B5",
"v. c #B5B4B5",
"b. c #B4B5B5",
"n. c gray71",
"m. c gray72",
"M. c #B9B8B8",
"N. c #B8B9B8",
"B. c #B9B9B8",
"V. c gray73",
"C. c #BBBABA",
"Z. c #BABBBA",
"A. c #BBBBBA",
"S. c #BABABB",
"D. c #BBBABB",
"F. c #BBBBBB",
"G. c #BFBEBE",
"H. c #BEBFBE",
"J. c #BFBFBE",
"K. c #BEBFBF",
"L. c gray75",
"P. c #CECECE",
"I. c #CFCECE",
"U. c #CECFCE",
"Y. c #CECECF",
"T. c #D0D1D0",
"R. c #D0D0D1",
"E. c #D1D0D1",
"W. c #D0D1D1",
"Q. c gray82",
"!. c #D2D2D2",
"~. c #D3D2D2",
"^. c #D2D3D2",
"/. c #D3D3D2",
"(. c #D2D2D3",
"). c #D3D2D3",
"_. c #D2D3D3",
"`. c LightGray",
"'. c #D7D7D6",
"]. c #D6D6D7",
"[. c #D7D6D7",
"{. c #D6D7D7",
"}. c #D7D7D7",
"|. c gainsboro",
" X c #DDDCDC",
".X c #DCDDDC",
"XX c #DCDCDD",
"oX c #DDDDDD",
"OX c #E1E0E0",
"+X c #E1E1E0",
"@X c #E1E0E1",
"#X c #E0E1E1",
"$X c #E1E1E1",
"%X c None",
/* pixels */
"X...X...( ( ( (  . .X.[ |.|.|.%X%X%X%X%X%X%X%X%X%X%X%X%X%X%X%X%X%X%X%X%X%X%X%X%X%X%X%X%X%X%X%X%X%X%X|.|.XX,.,.,......... . . .[ ",
"X. .X.X.( ) ^ ( ] | ] X.|.|.|.%X%X%X%X%X%X%X%X%X%X%X%X%X%X%X%X%X%X%X%X%X%X%X%X%X%X%X%X%X%X%X%X%X%X%X|.|.|.:.,.,.{ { ....[ ] [ [ ",
"X.} } X./ ^ ( ( |  .| X.|.|.|.%X%X%X%X%X%X%X%X%X%X%X%X%X%X%X%X%X%X%X%X%X%X%X%X%X%X%X%X%X%X%X%X%X%X%X|.|.|.;.>.,.X.| | X. . . ...",
"X.} X.} ( / ( /  . .|  .|.|.|.%X%X%X%X%X%X%X%X%X%X%X%X%X%X%X%X%X%X%X%X%X%X%X%X%X%X%X%X%X%X%X%X%X%X%X|.|.XX,.,.;...{ .... . . . .",
"8 7 7 8 2 4 6 4 b c c n |.|.|.%X%X%X%X%X%X%X%X%X%X%X%X%X%X%X%X%X%X%X%X%X%X%X%X%X%X%X%X%X%X%X%X%X%X%X|.|.|.u i u 5 5 6 5 w w 9 r ",
"8 8 7 8 2 4 2 6 b c k k |.|. X%X%X%X%X%X%X%X%X%X%X%X%X%X%X%X%X%X%X%X%X%X%X%X%X%X%X%X%X%X%X%X%X%X%X%X X|.|.u y y 8 5 7 5 w w w r ",
"6 8 8 6 4 1 2 4 c c c v |.|.|.%X%X%X%X%X%X%X%X%X%X%X%X%X%X%X%X%X%X%X%X%X%X%X%X%X%X%X%X%X%X%X%X%X%X%X|.|.|.u u i 6 5 5 5 w w 9 w ",
"8 7 8 7 2 6 6 1 k c c c  X|.|.%X%X%X%X%X%X%X%X%X%X%X%X%X%X%X%X%X%X%X%X%X%X%X%X%X%X%X%X%X%X%X%X%X%X%X|.|.|.i p u 6 5 6 5 r w w w ",
"6 6 6 6 L P L L & = = $ |.|.|.%X%X%X%X%X%X%X%X%X%X%X%X%X%X%X%X%X%X%X%X%X%X%X%X%X%X%X%X%X%X%X%X%X%X%X|.|.|.~ W ~ 5 1 5 5 I T R I ",
"6 8 6 8 P L L L & & & & |.|.|.%X%X%X%X%X%X%X%X%X%X%X%X%X%X%X%X%X%X%X%X%X%X%X%X%X%X%X%X%X%X%X%X%X%X%X|.|.|.~ E ~ 5 5 5 5 U I I I ",
"6 6 8 6 L K L L * & = & .X|.|.%X%X%X%X%X%X%X%X%X%X%X%X%X%X%X%X%X%X%X%X%X%X%X%X%X%X%X%X%X%X%X%X%X%X%X|.|.|.Q ! ~ 6 1 5 5 Y I T T ",
"6 5 4 6 L L L L % & % & |.|.|.%X%X%X%X%X%X%X%X%X%X%X%X%X%X%X%X%X%X%X%X%X%X%X%X%X%X%X%X%X%X%X%X%X%X%X|.|.|.~ ~ ~ 5 5 5 5 T I U T ",
"A.C.D.C.m.m.m.m.f.g.j.g.|.|.|.%X%X%X%X%X%X%X%X%X%X%X%X%X%X%X%X%X%X%X%X%X%X%X%X%X%X%X%X%X%X%X%X%X%X%X|.|.|.l.l.v.a.a.t.i.L.J.J.J.",
"C.C.C.C.M.N.m.B.g.f.g.g.|.|.|.%X%X%X%X%X%X%X%X%X%X%X%X%X%X%X%X%X%X%X%X%X%X%X%X%X%X%X%X%X%X%X%X%X%X%X|.|.|.v.l.l.a.a.a.a.H.J.L.J.",
"C.Z.C.D.m.m.m.N.g.g.f.g.|.|.|.%X%X%X%X%X%X%X%X%X%X%X%X%X%X%X%X%X%X%X%X%X%X%X%X%X%X%X%X%X%X%X%X%X%X%XXX|.|.l.k.l.a.r.a.a.J.J.K.H.",
"C.V.S.F.m.m.M.m.d.g.g.g.|.|.|.%X%X%X%X%X%X%X%X%X%X%X%X%X%X%X%X%X%X%X%X%X%X%X%X%X%X%X%X%X%X%X%X%X%X%X|.|.|.z.l.l.u.u.a.a.J.G.J.J.",
"A S A A  . .|  . . . . .|.|.|.%X%X%X%X%X%X%X%X%X%X%X%X%X%X%X%X%X%X%X%X%X%X%X%X%X%X%X%X%X%X%X%X%X%X%X|.|.|.[ [  .[  . . .W.T.T.W.",
"G A S A }  .X. .X.[  .X.|.|.|.%X%X%X%X%X%X%X%X%X%X%X%X%X%X%X%X%X%X%X%X%X%X%X%X%X%X%X%X%X%X%X%X%X%X%X|.|.|.[ { [  . . .} E.T.W.W.",
"A S H F [ |  .[ |  . . .|.|.|.%X%X%X%X%X%X%X%X%X%X%X%X%X%X%X%X%X%X%X%X%X%X%X%X%X%X%X%X%X%X%X%X%X%X%X|.|.|.[ [ }  .[  .| W.W.W.Q.",
"S A S A  . .X.|  ...[ [ |.|.|.%X%X%X%X%X%X%X%X%X%X%X%X%X%X%X%X%X%X%X%X%X%X%X%X%X%X%X%X%X%X%X%X%X%X%X|.|.|. .[ [  . . . .R.W.W.W.",
" . . . .5 5 5 5 ' _ ` ` |.|.|.%X%X%X%X%X%X%X%X%X%X%X%X%X%X%X%X%X%X%X%X%X%X%X%X%X%X%X%X%X%X%X%X%X%X%X|.|.|.1 1 1 7 7 5 7 '.}.}.}.",
" . ... .5 8 1 5 _ ` ` ` |.|.|.%X%X%X%X%X%X%X%X%X%X%X%X%X%X%X%X%X%X%X%X%X%X%X%X%X%X%X%X%X%X%X%X%X%X%X|.|..X1 2 1 3 7 7 7 ].{.[.[.",
" . . .} 5 5 5 5 ` ` ` ` |.|.|.%X%X%X%X%X%X%X%X%X%X%X%X%X%X%X%X%X%X%X%X%X%X%X%X%X%X%X%X%X%X%X%X%X%X%X|.|.|.1 3 1 5 7 7 7 }.}.{.}.",
" . .X. .5 6 5 5 ' ` _ ` |.|.|.%X%X%X%X%X%X%X%X%X%X%X%X%X%X%X%X%X%X%X%X%X%X%X%X%X%X%X%X%X%X%X%X%X%X%X|.|.|.1 3 1 7 4 8 7 '.{.}.'.",
"X.X.X.X.@ O O + N V m m |.|.|.%X%X%X%X%X%X%X%X%X%X%X%X%X%X%X%X%X%X%X%X%X%X%X%X%X%X%X%X%X%X%X%X%X%X%X|.|.|.1 1 1 5 5 5 5 !.!./.!.",
"X.X.} { @ + @ @ m V M m |.|.|.%X%X%X%X%X%X%X%X%X%X%X%X%X%X%X%X%X%X%X%X%X%X%X%X%X%X%X%X%X%X%X%X%X%X%X|.|.|.1 1 3 7 7 1 5 !.!.~.!.",
"} ....X.O # @ @ N V V M |.|.|.%X%X%X%X%X%X%X%X%X%X%X%X%X%X%X%X%X%X%X%X%X%X%X%X%X%X%X%X%X%X%X%X%X%X%X|.|.|.5 1 1 5 5 5 5 !.~.(.!.",
"X.X. .} @ @ @ @ m V m m  X|.XX%X%X%X%X%X%X%X%X%X%X%X%X%X%X%X%X%X%X%X%X%X%X%X%X%X%X%X%X%X%X%X%X%X%X%X|.|.|.1 1 1 5 7 5 6 !./.!.!.",
"k.k.b.k.l.k.k.l.k.k.z.k.|.|.|.%X%X%X%X%X%X%X%X%X%X%X%X%X%X%X%X%X%X%X%X%X%X%X%X%X%X%X%X%X%X%X%X%X%X%X|.|.|.c.k.k.k.k.k.k.'.].}.}.",
"k.k.k.k.k.k.k.c.k.k.k.z.|.|.XX%X%X%X%X%X%X%X%X%X%X%X%X%X%X%X%X%X%X%X%X%X%X%X%X%X%X%X%X%X%X%X%X%X%X%X|.|.|.k.z.z.z.k.k.c.{.}.{.{.",
"k.k.k.z.l.k.c.c.k.k.l.k.|.|.XX%X%X%X%X%X%X%X%X%X%X%X%X%X%X%X%X%X%X%X%X%X%X%X%X%X%X%X%X%X%X%X%X%X%X%X|.|.|.k.c.k.k.b.c.k.}.'.}.'.",
"l.l.c.z.c.k.c.k.k.c.l.n.|. X|.%X%X%X%X%X%X%X%X%X%X%X%X%X%X%X%X%X%X%X%X%X%X%X%X%X%X%X%X%X%X%X%X%X%X%X|.|.|.z.z.k.k.k.z.k.}.{.[.}.",
"*.*.*.*.{ ] { { | | | |  X|.|.%X%X%X%X%X%X%X%X%X%X%X%X%X%X%X%X%X%X%X%X%X%X%X%X%X%X%X%X%X%X%X%X%X%X%X|.|.|.X... .6.6.6.6.r w e t ",
"*.=.*.*.} | ..{ | | | ] |.|.|.%X%X%X%X%X%X%X%X%X%X%X%X%X%X%X%X%X%X%X%X%X%X%X%X%X%X%X%X%X%X%X%X%X%X%XXX|.|.X.X.X.6.6.7.6.r r r r ",
"*.&.*.*...} { { ] | | | |.|.|.%X%X%X%X%X%X%X%X%X%X%X%X%X%X%X%X%X%X%X%X%X%X%X%X%X%X%X%X%X%X%X%X%X%X%X|.|.|.] X.X.6.6.6.6.t t r 9 ",
"*.*.&.*.{ { ..{  .| | {  X|.|.%X%X%X%X%X%X%X%X%X%X%X%X%X%X%X%X%X%X%X%X%X%X%X%X%X%X%X%X%X%X%X%X%X%X%X|.|.|.X.X.X.8.7.6.6.r q r r ",
"5 5 6 5 5 5 6 1 5 3 3 3 |.|.|.%X%X%X%X%X%X%X%X%X%X%X%X%X%X%X%X%X%X%X%X%X%X%X%X%X%X%X%X%X%X%X%X%X%X%X|.|.|.Z Z C 5 7 5 1 1 1 5 2 ",
"5 5 6 1 5 5 3 3 3 3 3 1 |.|.|.%X%X%X%X%X%X%X%X%X%X%X%X%X%X%X%X%X%X%X%X%X%X%X%X%X%X%X%X%X%X%X%X%X%X%X|.|.|.Z Z C 5 5 5 1 2 1 1 5 ",
"5 6 5 5 8 5 5 5 1 5 4 3 XX|.|.%X%X%X%X%X%X%X%X%X%X%X%X%X%X%X%X%X%X%X%X%X%X%X%X%X%X%X%X%X%X%X%X%X%X%X|.|.|.Z Z B 5 2 7 5 1 1 1 1 ",
"5 5 1 5 6 5 1 1 3 4 3 3 |.|.|.%X%X%X%X%X%X%X%X%X%X%X%X%X%X%X%X%X%X%X%X%X%X%X%X%X%X%X%X%X%X%X%X%X%X%X|.|.|.Z Z Z 5 3 5 6 1 1 5 1 ",
"G G G D 5 5 5 5 C C V B |.|.|.%X%X%X%X%X%X%X%X%X%X%X%X%X%X%X%X%X%X%X%X%X%X%X%X%X%X%X%X%X%X%X%X%X%X%X|.|.|.4 8 8 k c b b 1 1 1 3 ",
"G J G A 5 5 5 1 M C C C |.|.|.%X%X%X%X%X%X%X%X%X%X%X%X%X%X%X%X%X%X%X%X%X%X%X%X%X%X%X%X%X%X%X%X%X%X%X|.XX|.8 8 6 c b n b 4 3 3 3 ",
"H G J J 3 2 5 5 C Z B C |.|.|.%X%X%X%X%X%X%X%X%X%X%X%X%X%X%X%X%X%X%X%X%X%X%X%X%X%X%X%X%X%X%X%X%X%X%X|.|.XX8 8 8 b n v b 4 1 3 3 ",
"G A G G 3 5 6 5 C C C C |.|.|.%X%X%X%X%X%X%X%X%X%X%X%X%X%X%X%X%X%X%X%X%X%X%X%X%X%X%X%X%X%X%X%X%X%X%X|.|. X4 7 8 x v b z 3 3 3 3 ",
"c.c.c.b.l.l.x.k.e.w.w.e.|.|.|.%X%X%X%X%X%X%X%X%X%X%X%X%X%X%X%X%X%X%X%X%X%X%X%X%X%X%X%X%X%X%X%X%X%X%X|.|.|.S.S.S.a.a.a.a.l.l.v.c.",
"k.c.v.c.v.l.l.v.w.w.w.w.|.|. X%X%X%X%X%X%X%X%X%X%X%X%X%X%X%X%X%X%X%X%X%X%X%X%X%X%X%X%X%X%X%X%X%X%X%X|.|.|.S.S.D.a.t.a.a.v.v.b.v.",
"c.v.k.c.l.n.l.v.w.w.w.w.|.XX|.%X%X%X%X%X%X%X%X%X%X%X%X%X%X%X%X%X%X%X%X%X%X%X%X%X%X%X%X%X%X%X%X%X%X%X|.|.|.S.S.D.a.a.a.y.c.n.v.n.",
"c.v.c.k.l.l.l.z.w.e.e.e.|.|.|.%X%X%X%X%X%X%X%X%X%X%X%X%X%X%X%X%X%X%X%X%X%X%X%X%X%X%X%X%X%X%X%X%X%X%X|.|.|.S.F.S.p.a.u.a.v.v.n.v.",
"o.@.@.@.*.*.*.*.4.3.<.1.|.XX|.%X%X%X%X%X%X%X%X%X%X%X%X%X%X%X%X%X%X%X%X%X%X%X%X%X%X%X%X%X%X%X%X%X%X%X|.|.|.| ..X.#.o.O.O.@X$X$X$X",
"@.@.#.@.*.*.*.-.1.<.1.1.|.|.|.%X%X%X%X%X%X%X%X%X%X%X%X%X%X%X%X%X%X%X%X%X%X%X%X%X%X%X%X%X%X%X%X%X%X%X|.|.|.X.X.X.o.o.O.O.OX#X$X#X",
"@.@.@.@.*.%.*.=.3.1.1.2.|.|.|.%X%X%X%X%X%X%X%X%X%X%X%X%X%X%X%X%X%X%X%X%X%X%X%X%X%X%X%X%X%X%X%X%X%X%X|.|.|.X.} X.O.O.#.O.$X+X+X$X",
"$.@.@.@.&.*.*.*.5.2.<.1.|.|.|.%X%X%X%X%X%X%X%X%X%X%X%X%X%X%X%X%X%X%X%X%X%X%X%X%X%X%X%X%X%X%X%X%X%X%X|.|.|.X. .} #.+.O.O.$X$X$X$X",
"........5 1 1 1 , < > : |.|.|.%X%X%X%X%X%X%X%X%X%X%X%X%X%X%X%X%X%X%X%X%X%X%X%X%X%X%X%X%X%X%X%X%X%X%XXX|.|.r 0 r s a s s _.(._.^.",
"..| X...1 1 1 4 - > - - |.|.|.%X%X%X%X%X%X%X%X%X%X%X%X%X%X%X%X%X%X%X%X%X%X%X%X%X%X%X%X%X%X%X%X%X%X%X|.|.|.w r r s s h s _.`.)._.",
"{ ....{ 3 3 3 5 - - - > |.|.|.%X%X%X%X%X%X%X%X%X%X%X%X%X%X%X%X%X%X%X%X%X%X%X%X%X%X%X%X%X%X%X%X%X%X%X|.|.|.w r w s s d s _._.`._.",
"..X...{ 5 1 1 5 ; ; > : XX|.|.%X%X%X%X%X%X%X%X%X%X%X%X%X%X%X%X%X%X%X%X%X%X%X%X%X%X%X%X%X%X%X%X%X%X%X X|.|.r r w s s a s `.(._./.",
"[ [ [ [ X       v l v c |.|.|.%X%X%X%X%X%X%X%X%X%X%X%X%X%X%X%X%X%X%X%X%X%X%X%X%X%X%X%X%X%X%X%X%X%X%X|.|.|.5 5 7 f g g f (.`._.`.",
"[ [ [ [ o       n v n c |.|.|.%X%X%X%X%X%X%X%X%X%X%X%X%X%X%X%X%X%X%X%X%X%X%X%X%X%X%X%X%X%X%X%X%X%X%X|.|. X1 5 6 f f j a /.`.`.`.",
"[ [ ] [       . v v v c |.|.|.%X%X%X%X%X%X%X%X%X%X%X%X%X%X%X%X%X%X%X%X%X%X%X%X%X%X%X%X%X%X%X%X%X%X%X|.|.|.5 5 5 a f a a /._.)._.",
" .[ | ] o   .   v v v v |.|.|.%X%X%X%X%X%X%X%X%X%X%X%X%X%X%X%X%X%X%X%X%X%X%X%X%X%X%X%X%X%X%X%X%X%X%X|.|.|.7 7 6 f a a g `.`./.).",
"k.c.b.c.g.f.f.f.9.9.0.q.|.|.|.%X%X%X%X%X%X%X%X%X%X%X%X%X%X%X%X%X%X%X%X%X%X%X%X%X%X%X%X%X%X%X%X%X%X%X|.|.|.b.c.c.n.b.n.n.P.U.U.P.",
"c.c.c.c.g.f.f.f.q.9.q.q.oX|.|.%X%X%X%X%X%X%X%X%X%X%X%X%X%X%X%X%X%X%X%X%X%X%X%X%X%X%X%X%X%X%X%X%X%X%X|.|.|.v.c.c.n.n.n.v.U.P.P.P.",
"c.k.c.v.g.s.s.f.q.9.q.0.|.|.|.%X%X%X%X%X%X%X%X%X%X%X%X%X%X%X%X%X%X%X%X%X%X%X%X%X%X%X%X%X%X%X%X%X%X%X|.|.|.c.c.c.n.n.z.n.P.I.I.Y.",
"c.c.b.l.f.h.d.f.q.q.9.q.|.|. X%X%X%X%X%X%X%X%X%X%X%X%X%X%X%X%X%X%X%X%X%X%X%X%X%X%X%X%X%X%X%X%X%X%X%X|.|.|.c.c.c.n.x.n.v.P.P.P.Y."
};
