/* XPM */
static char *result[] = {
/* columns rows colors chars-per-pixel */
"64 64 232 2 ",
"   c #52281C",
".  c #53281C",
"X  c #53291C",
"o  c #52281D",
"O  c #5F2E20",
"+  c #5E2F20",
"@  c #5F2F20",
"#  c #5F2F21",
"$  c #693424",
"%  c #683425",
"&  c #693425",
"*  c #683525",
"=  c #693525",
"-  c #6B3524",
";  c #6B3425",
":  c #6A3525",
">  c #6B3525",
",  c #6C3526",
"<  c #6D3526",
"1  c #6D3527",
"2  c #783A2A",
"3  c #793A2A",
"4  c #783B2A",
"5  c #793B2A",
"6  c #783A2B",
"7  c #793A2B",
"8  c #783B2B",
"9  c #793B2B",
"0  c #7A3C2A",
"q  c #7B3C2A",
"w  c #7A3D2A",
"e  c #7B3D2A",
"r  c #7A3C2B",
"t  c #7B3C2B",
"y  c #7A3D2B",
"u  c #7B3D2B",
"i  c #7C3C2A",
"p  c #7C3D2A",
"a  c #7C3C2B",
"s  c #7D3C2B",
"d  c #7C3D2B",
"f  c #7D3D2B",
"g  c #7E3E2C",
"h  c #7E3F2C",
"j  c #7E3F2D",
"k  c #803E2C",
"l  c #803F2C",
"z  c #813F2C",
"x  c #803E2D",
"c  c #813E2D",
"v  c #813F2D",
"b  c #82402C",
"n  c #83412C",
"m  c #82402D",
"M  c #83402D",
"N  c #82412D",
"B  c #86422E",
"V  c #87422E",
"C  c #86432E",
"Z  c #87432E",
"A  c #86422F",
"S  c #87422F",
"D  c #86432F",
"F  c #87432F",
"G  c #88422E",
"H  c #89422E",
"J  c #88432E",
"K  c #89432E",
"L  c #88422F",
"P  c #89422F",
"I  c #88432F",
"U  c #89432F",
"Y  c #8A4430",
"T  c #8B4430",
"R  c #8A4530",
"E  c #8B4530",
"W  c #8A4431",
"Q  c #8B4431",
"!  c #8A4531",
"~  c #8C4430",
"^  c #8D4430",
"/  c #8C4530",
"(  c #8D4530",
")  c #8C4531",
"_  c #8E4632",
"`  c #8F4632",
"'  c #8E4633",
"]  c #8F4633",
"[  c #8E4733",
"{  c #914632",
"}  c #904732",
"|  c #914732",
" . c #914633",
".. c #904733",
"X. c #914733",
"o. c #934832",
"O. c #924833",
"+. c #934833",
"@. c #934933",
"#. c #994B34",
"$. c #994A35",
"%. c #984B35",
"&. c #994B35",
"*. c #9A4C36",
"=. c #9B4C36",
"-. c #9B4D36",
";. c #9C4C36",
":. c #9D4C36",
">. c #9C4D36",
",. c #9D4D36",
"<. c #9C4C37",
"1. c #9D4C37",
"2. c #9C4D37",
"3. c #9D4D37",
"4. c #9E4E38",
"5. c #9F4E38",
"6. c #9F4F38",
"7. c #9E4E39",
"8. c #9F4E39",
"9. c #9E4F39",
"0. c #9F4F39",
"q. c #A14E38",
"w. c #A04F38",
"e. c #A14F38",
"r. c #A14E39",
"t. c #A14F39",
"y. c #A9533A",
"u. c #A9523B",
"i. c #A8533B",
"p. c #A9533B",
"a. c #AE563C",
"s. c #AF563C",
"d. c #AE573C",
"f. c #AF573C",
"g. c #AE563D",
"h. c #B65A40",
"j. c #B65A41",
"k. c #B75A41",
"l. c #B65B41",
"z. c #AAABAA",
"x. c #AAAAAB",
"c. c #AAABAB",
"v. c #ACACAC",
"b. c #ACADAC",
"n. c #ACACAD",
"m. c #ACADAD",
"M. c #B0B1B0",
"N. c #B1B1B0",
"B. c #B0B0B1",
"V. c #B1B0B1",
"C. c #B0B1B1",
"Z. c #B1B1B1",
"A. c #B2B2B2",
"S. c #B3B2B2",
"D. c #B2B3B2",
"F. c #B3B3B2",
"G. c #B2B2B3",
"H. c #B3B2B3",
"J. c #B2B3B3",
"K. c gray70",
"L. c #B4B4B4",
"P. c #B5B4B4",
"I. c #B4B5B4",
"U. c #B5B5B4",
"Y. c #B4B4B5",
"T. c #B5B4B5",
"R. c #B4B5B5",
"E. c gray71",
"W. c #B7B6B7",
"Q. c #B6B7B7",
"!. c #B7B7B7",
"~. c gray72",
"^. c #B9B8B8",
"/. c #B8B9B8",
"(. c #B9B9B8",
"). c #B8B8B9",
"_. c #B8B9B9",
"`. c gray73",
"'. c #BBBABA",
"]. c #BABBBA",
"[. c #BBBBBA",
"{. c #BABABB",
"}. c #BBBABB",
"|. c #BABBBB",
" X c #BBBBBB",
".X c #BFBEBE",
"XX c #BEBFBE",
"oX c #BFBFBE",
"OX c #BEBFBF",
"+X c gray75",
"@X c #CECECE",
"#X c #CFCECE",
"$X c #CECFCE",
"%X c #CFCFCE",
"&X c #CECECF",
"*X c #D0D1D0",
"=X c #D0D0D1",
"-X c #D1D0D1",
";X c #D0D1D1",
":X c #D2D2D2",
">X c #D3D2D2",
",X c #D2D3D2",
"<X c #D3D3D2",
"1X c #D2D2D3",
"2X c #D3D2D3",
"3X c #D2D3D3",
"4X c LightGray",
"5X c gray84",
"6X c #D7D6D6",
"7X c #D6D7D6",
"8X c #D7D7D6",
"9X c #D6D6D7",
"0X c #D7D6D7",
"qX c #D6D7D7",
"wX c #D7D7D7",
"eX c gainsboro",
"rX c #DDDCDC",
"tX c #DCDDDC",
"yX c #DDDDDC",
"uX c #DCDCDD",
"iX c #DDDCDD",
"pX c #DCDDDD",
"aX c gray87",
"sX c #DFDEDE",
"dX c #DEDEDF",
"fX c gray88",
"gX c #E1E0E0",
"hX c #E1E1E0",
"jX c #E1E0E1",
"kX c #E0E1E1",
"lX c #E1E1E1",
"zX c None",
/* pixels */
"3.3.3.3.+.+.+.+.:.1.1.1.#X#XeXeXeXzXzXzXzXzXzXzXzXzXzXzXzXzXzXzXzXzXzXzXzXzXzXzXzXzXzXzXzXzXzXeXeXuX1.1.p.p.p.p.2.2.2.2.1.1.1.:.",
"3.1.3.3.+.@.o.+.;.<.;.3.#X#XeXeXyXzXzXzXzXzXzXzXzXzXzXzXzXzXzXzXzXzXzXzXzXzXzXzXzXzXzXzXzXzXzXtXeXeX:.1.p.p.p.p.>.>.2.2.:.;.:.:.",
"3.,.,.2.O.o.O.+.<.3.<.3.%X#XeXeXeXzXzXzXzXzXzXzXzXzXzXzXzXzXzXzXzXzXzXzXzXzXzXzXzXzXzXzXzXzXzXeXeXeX1.1.i.y.i.p.3.<.<.3.1.1.1.2.",
"3.,.3.,.+.O.+.+.1.:.<.1.#X#XeXeXeXzXzXzXzXzXzXzXzXzXzXzXzXzXzXzXzXzXzXzXzXzXzXzXzXzXzXzXzXzXzXeXeXeX1.1.u.p.p.y.2.>.2.2.1.1.1.1.",
"u y y u q e r e D A A F jXgXeXeXeXzXzXzXzXzXzXzXzXzXzXzXzXzXzXzXzXzXzXzXzXzXzXzXzXzXzXzXzXzXzXeXeXeX3.3.h h h h r r t r a a a d ",
"u t y u q e q t A A A A gXgXtXrXeXzXzXzXzXzXzXzXzXzXzXzXzXzXzXzXzXzXzXzXzXzXzXzXzXzXzXzXzXzXzXeXeXtX3.3.h h h g t r y r a a a d ",
"u u u u e w q e A A A V gXfXeXeXeXzXzXzXzXzXzXzXzXzXzXzXzXzXzXzXzXzXzXzXzXzXzXzXzXzXzXzXzXzXzXrXeXeX2.3.h h h h u r r r a a i a ",
"u y u y q t t r S D A A jXgXtXrXuXzXzXzXzXzXzXzXzXzXzXzXzXzXzXzXzXzXzXzXzXzXzXzXzXzXzXzXzXzXzXeXeXeX3.3.j h j h r r t t d a a a ",
"t t t t / ( / ~ & & = $ 2X>XeXeXrXzXzXzXzXzXzXzXzXzXzXzXzXzXzXzXzXzXzXzXzXzXzXzXzXzXzXzXzXzXzXeXeXeXn N X.X.|  .r y t r _ ' [ ` ",
"r u t t / / / / & & & & 4X4XeXeXeXzXzXzXzXzXzXzXzXzXzXzXzXzXzXzXzXzXzXzXzXzXzXzXzXzXzXzXzXzXzXeXeXtXm m X.X.{ X.r r y r _ _ ] _ ",
"t t t t / ^ / / * & = & 2X4XeXrXeXzXzXzXzXzXzXzXzXzXzXzXzXzXzXzXzXzXzXzXzXzXzXzXzXzXzXzXzXzXzXeXeXeXm m X. ...} r 0 r r _ _ ' ' ",
"t r e t ) / / / * $ % & 4X2XeXeXeXzXzXzXzXzXzXzXzXzXzXzXzXzXzXzXzXzXzXzXzXzXzXzXzXzXzXzXzXzXzXeXeXeXm m | X. .X.r r r r ' _ ` ' ",
"[.'.}.'.~.~.).~.D.F.H.F.5X7XeXeXeXzXzXzXzXzXzXzXzXzXzXzXzXzXzXzXzXzXzXzXzXzXzXzXzXzXzXzXzXzXzXeXeXeXL.L.P.P.P.T.Z.Z.B.V.+XoXoXoX",
"'.[.'.'.~./.~.^.F.F.F.F.7XwXeXeXeXzXzXzXzXzXzXzXzXzXzXzXzXzXzXzXzXzXzXzXzXzXzXzXzXzXzXzXzXzXzXeXeXeXL.R.U.P.P.P.Z.Z.Z.Z.XXoX+XoX",
"'.].'.}.~.~.~./.F.F.D.S.qX5XtXeXeXzXzXzXzXzXzXzXzXzXzXzXzXzXzXzXzXzXzXzXzXzXzXzXzXzXzXzXzXzXzXeXeXeXP.Y.L.P.L.P.Z.B.Z.Z.oXoXOXoX",
"'.`.}.[.~.~.^.~.S.F.F.F.7X7XeXeXeXzXzXzXzXzXzXzXzXzXzXzXzXzXzXzXzXzXzXzXzXzXzXzXzXzXzXzXzXzXzXeXeXeXI.L.P.I.U.P.N.N.Z.Z.oX.XoXoX",
"Y T Y Y 1.3.<.1.1.1.1.1.3.3.uXeXeXzXzXzXzXzXzXzXzXzXzXzXzXzXzXzXzXzXzXzXzXzXzXzXzXzXzXzXzXzXzXeXeXeX3.3.:.>.:.1.:.1.<.1.;X;X;X;X",
"W Y T Y 1.1.2.1.1.:.1.1.3.3.eXeXeXzXzXzXzXzXzXzXzXzXzXzXzXzXzXzXzXzXzXzXzXzXzXzXzXzXzXzXzXzXzXeXeXeX1.2.<.,.;.,.1.1.1.,.-X;X;X;X",
"T T T E :.<.:.:.1.1.1.1.3.3.eXeXtXzXzXzXzXzXzXzXzXzXzXzXzXzXzXzXzXzXzXzXzXzXzXzXzXzXzXzXzXzXzXeXeXeX<.1.:.:.:.,.3.:.1.1.;X;X;X*X",
"Y Y E Y 1.1.3.<.1.1.1.:.3.3.eXeXeXzXzXzXzXzXzXzXzXzXzXzXzXzXzXzXzXzXzXzXzXzXzXzXzXzXzXzXzXzXzXeXeXeX3.3.,.1.:.1.<.1.1.1.=X=X;X;X",
"1.1.1.1.r r r r -.*.=.=.0 0 eXeXeXzXzXzXzXzXzXzXzXzXzXzXzXzXzXzXzXzXzXzXzXzXzXzXzXzXzXzXzXzXzXuXeXeX; > 0 0 0 0 y y r y qXqXwXwX",
"1.1.2.1.r u 0 r *.=.=.=.w 0 eXeXeXzXzXzXzXzXzXzXzXzXzXzXzXzXzXzXzXzXzXzXzXzXzXzXzXzXzXzXzXzXzXeXeXeX: > 0 r q 0 y y y y 9XqX0X0X",
"1.1.:.,.r r r r =.=.=.=.r 0 uXeXeXzXzXzXzXzXzXzXzXzXzXzXzXzXzXzXzXzXzXzXzXzXzXzXzXzXzXzXzXzXzXeXrXeX; - e 0 0 0 y y e u wXwXwXqX",
"1.1.3.1.r t r r -.=.*.=.0 q eXeXeXzXzXzXzXzXzXzXzXzXzXzXzXzXzXzXzXzXzXzXzXzXzXzXzXzXzXzXzXzXzXeXeXeX; > 0 0 w 0 y u u y 8XqXwXwX",
"3.3.3.3.@ O @ @ J I J G , < eXeXeXzXzXzXzXzXzXzXzXzXzXzXzXzXzXzXzXzXzXzXzXzXzXzXzXzXzXzXzXzXzXtXeXeXr t w 0 0 0 t r r r :X:X<X:X",
"3.1.,.3.@ + @ O H L L G , < eXeXeXzXzXzXzXzXzXzXzXzXzXzXzXzXzXzXzXzXzXzXzXzXzXzXzXzXzXzXzXzXzXuXeXeXr r e w 0 w y y 0 r :X:X:X:X",
":.2.2.3.O # @ @ J L L G < , eXeXtXzXzXzXzXzXzXzXzXzXzXzXzXzXzXzXzXzXzXzXzXzXzXzXzXzXzXzXzXzXzXeXeXeX0 r 0 0 0 0 r r r r :X:X1X:X",
"3.3.1.,.@ @ @ @ G L G G < 1 eXeXeXzXzXzXzXzXzXzXzXzXzXzXzXzXzXzXzXzXzXzXzXzXzXzXzXzXzXzXzXzXzXeXeXeXu r 0 0 0 0 r y r r :X<X1X:X",
"L.L.E.I.P.L.L.P.L.L.I.P.A.G.eXeXeXzXzXzXzXzXzXzXzXzXzXzXzXzXzXzXzXzXzXzXzXzXzXzXzXzXzXzXzXzXzXrXeXeXE.Y.L.Y.L.L.L.L.L.L.8XqXwXwX",
"L.L.L.Y.L.L.L.Y.Y.L.L.I.S.S.eXeXeXzXzXzXzXzXzXzXzXzXzXzXzXzXzXzXzXzXzXzXzXzXzXzXzXzXzXzXzXzXzXtXeXeXT.R.L.L.I.I.L.L.L.Y.qXwXwXqX",
"L.L.L.I.P.L.Y.L.L.L.P.L.G.A.eXeXpXzXzXzXzXzXzXzXzXzXzXzXzXzXzXzXzXzXzXzXzXzXzXzXzXzXzXzXzXzXzXeXeXeXY.T.L.L.Y.L.L.I.Y.L.wXwXwXwX",
"P.P.Y.R.L.L.Y.L.L.Y.P.U.D.A.eXeXeXzXzXzXzXzXzXzXzXzXzXzXzXzXzXzXzXzXzXzXzXzXzXzXzXzXzXzXzXzXzXeXeXeXY.Y.L.I.L.L.L.L.I.L.0XqX0XwX",
"e.e.q.e.>.;.;.>.<.<.<.<.2X2XeXeXeXzXzXzXzXzXzXzXzXzXzXzXzXzXzXzXzXzXzXzXzXzXzXzXzXzXzXzXzXzXzXeXtXeX<.,.1.3.2.1.j.k.j.j.f a s f ",
"e.r.e.e.3.<.2.>.<.<.<.;.2X1XeXeXeXzXzXzXzXzXzXzXzXzXzXzXzXzXzXzXzXzXzXzXzXzXzXzXzXzXzXzXzXzXzXeXeXeX3.3.3.2.3.3.j.j.j.j.d d d d ",
"e.w.e.e.2.,.>.>.<.<.<.<.2X:XeXeXeXzXzXzXzXzXzXzXzXzXzXzXzXzXzXzXzXzXzXzXzXzXzXzXzXzXzXzXzXzXzXeXeXeX2.2.3.;.3.3.j.k.h.j.f f f i ",
"e.e.w.e.>.>.>.>.1.<.1.>.:X2XeXeXeXzXzXzXzXzXzXzXzXzXzXzXzXzXzXzXzXzXzXzXzXzXzXzXzXzXzXzXzXzXzXeXeXeX3.2.3.3.3.3.l.k.k.j.d p f d ",
"t r t t r r r 0 r w w w %X@XtXeXeXzXzXzXzXzXzXzXzXzXzXzXzXzXzXzXzXzXzXzXzXzXzXzXzXzXzXzXzXzXzXeXeXeX3.3.U U U P 0 y r 0 0 w 0 0 ",
"r r r 0 y r y w w w w w %X#XeXeXeXzXzXzXzXzXzXzXzXzXzXzXzXzXzXzXzXzXzXzXzXzXzXzXzXzXzXzXzXzXzXeXuXeX3.3.U P U U r r r r q 0 0 0 ",
"r t r r u r r r 0 y e w #X%XeXeXeXzXzXzXzXzXzXzXzXzXzXzXzXzXzXzXzXzXzXzXzXzXzXzXzXzXzXzXzXzXzXeXeXtX3.,.K U U K r r r r 0 0 0 0 ",
"r r 0 r t r y 0 w e w w $X%XeXeXeXzXzXzXzXzXzXzXzXzXzXzXzXzXzXzXzXzXzXzXzXzXzXzXzXzXzXzXzXzXzXeXeXeX3.3.I U U U r 0 r r 0 0 r 0 ",
"W W W R r r r r P P P H aXaXeXeXeXzXzXzXzXzXzXzXzXzXzXzXzXzXzXzXzXzXzXzXzXzXzXzXzXzXzXzXzXzXzXeXeXeX3.,.u t u u B A D C 0 w 0 w ",
"W ! W Y r r r 0 H U P P sXaXeXeXeXzXzXzXzXzXzXzXzXzXzXzXzXzXzXzXzXzXzXzXzXzXzXzXzXzXzXzXzXzXzXeXeXeX1.3.q u u u D A F D e w w w ",
"Q W W ! w q r r P P K P sXaXeXeXeXzXzXzXzXzXzXzXzXzXzXzXzXzXzXzXzXzXzXzXzXzXzXzXzXzXzXzXzXzXzXeXeXrX3.3.y e u u D F V D w 0 w w ",
"W Y W W r r t r U P U P dXdXeXeXeXzXzXzXzXzXzXzXzXzXzXzXzXzXzXzXzXzXzXzXzXzXzXzXzXzXzXzXzXzXzXeXeXeX,.3.u e y u Z A D C w w w w ",
"T.Y.Y.Y.L.P.U.L.b.v.b.m.9X5XeXeXeXzXzXzXzXzXzXzXzXzXzXzXzXzXzXzXzXzXzXzXzXzXzXzXzXzXzXzXzXzXzXeXuXeXH.K.|.{.{.{.Z.Z.Z.Z.P.P.T.T.",
"L.Y.Y.Y.T.P.P.T.v.v.v.v.5X5XtXeXeXzXzXzXzXzXzXzXzXzXzXzXzXzXzXzXzXzXzXzXzXzXzXzXzXzXzXzXzXzXzXeXeXeXK.K.}.{.|. XZ.N.Z.Z.T.T.R.T.",
"L.T.Y.Y.P.E.P.T.v.v.v.v.5X5XtXeXeXzXzXzXzXzXzXzXzXzXzXzXzXzXzXzXzXzXzXzXzXzXzXzXzXzXzXzXzXzXzXeXeXeXK.H.{.{.{.}.Z.Z.Z.M.Y.E.T.R.",
"Y.T.Y.L.P.P.P.P.n.b.b.v.6X5XeXeXuXzXzXzXzXzXzXzXzXzXzXzXzXzXzXzXzXzXzXzXzXzXzXzXzXzXzXzXzXzXzXeXeXeXK.H.|.{. X`.C.Z.N.Z.T.T.T.T.",
"7.7.4.7.e.e.e.e.g.f.g.s.1.1.eXeXeXzXzXzXzXzXzXzXzXzXzXzXzXzXzXzXzXzXzXzXzXzXzXzXzXzXzXzXzXzXzXeXeXeX#.&.3.<.2.3.8.5.5.5.lXlXlXlX",
"7.7.7.7.e.e.e.t.f.s.s.s.1.1.eXtXeXzXzXzXzXzXzXzXzXzXzXzXzXzXzXzXzXzXzXzXzXzXzXzXzXzXzXzXzXzXzXeXeXtX%.%.3.3.3.3.5.4.5.5.gXlXlXkX",
"7.7.7.9.e.q.w.t.f.s.s.d.:.1.rXrXrXzXzXzXzXzXzXzXzXzXzXzXzXzXzXzXzXzXzXzXzXzXzXzXzXzXzXzXzXzXzXeXeXeX&.$.,.3.,.3.5.5.8.5.lXhXhXlX",
"9.8.7.7.e.e.e.e.s.s.a.s.1.1.eXeXeXzXzXzXzXzXzXzXzXzXzXzXzXzXzXzXzXzXzXzXzXzXzXzXzXzXzXzXzXzXzXeXeXeX&.$.,.1.3.3.8.0.6.8.lXlXlXlX",
"2.3.2.2.r 0 0 0 9 4 6 5 0 r eXeXeXzXzXzXzXzXzXzXzXzXzXzXzXzXzXzXzXzXzXzXzXzXzXzXzXzXzXzXzXzXzXeXeXeXr y f f p f l l z z 3X1X3X,X",
"2.2.3.2.0 q 0 w 2 8 4 2 0 0 eXeXeXzXzXzXzXzXzXzXzXzXzXzXzXzXzXzXzXzXzXzXzXzXzXzXzXzXzXzXzXzXzXeXeXeXy y f a d d z l l l 3X3X2X3X",
",.2.2.2.w 0 w r 2 2 2 8 q 0 eXeXeXzXzXzXzXzXzXzXzXzXzXzXzXzXzXzXzXzXzXzXzXzXzXzXzXzXzXzXzXzXzXeXeXeXy r d p i i l l z l 4X3X3X3X",
">.2.2.>.r 0 0 r 7 3 6 4 0 r eXeXeXzXzXzXzXzXzXzXzXzXzXzXzXzXzXzXzXzXzXzXzXzXzXzXzXzXzXzXzXzXzXeXeXeXu y f d d a l l k k 4X3X3X4X",
":.:.:.:.X .   . S V S A y y eXeXeXzXzXzXzXzXzXzXzXzXzXzXzXzXzXzXzXzXzXzXzXzXzXzXzXzXzXzXzXzXzXtXeXeXm N y r r y x c c x 2X4X4X4X",
",.1.:.:.o     X F S F A y u eXeXeXzXzXzXzXzXzXzXzXzXzXzXzXzXzXzXzXzXzXzXzXzXzXzXzXzXzXzXzXzXzXeXeXeXM m r 0 r r x x v x <X4X4X4X",
":.:.;.:.      . S S V A y y eXtXeXzXzXzXzXzXzXzXzXzXzXzXzXzXzXzXzXzXzXzXzXzXzXzXzXzXzXzXzXzXzXeXtXeXM b t r r t x x k k <X4X2X3X",
":.:.;.:.o   .   S S S S e r eXrXiXzXzXzXzXzXzXzXzXzXzXzXzXzXzXzXzXzXzXzXzXzXzXzXzXzXzXzXzXzXzXeXeXeXm N r r y r x k k c 4X2X4X2X",
"L.Y.R.Y.F.D.D.D.z.z.x.c.Q.!.tXeXeXzXzXzXzXzXzXzXzXzXzXzXzXzXzXzXzXzXzXzXzXzXzXzXzXzXzXzXzXzXzXeXeXeX^.^.R.R.Y.Y.E.I.E.E.@X$X&X#X",
"Y.Y.Y.Y.D.D.D.D.c.z.c.x.Q.!.eXeXeXzXzXzXzXzXzXzXzXzXzXzXzXzXzXzXzXzXzXzXzXzXzXzXzXzXzXzXzXzXzXeXtXeX^.(.T.T.Y.Y.E.E.E.E.@X@X&X@X",
"Y.L.Y.T.F.A.A.J.c.c.c.c.Q.W.eXeXtXzXzXzXzXzXzXzXzXzXzXzXzXzXzXzXzXzXzXzXzXzXzXzXzXzXzXzXzXzXzXeXeXeX/._.L.Y.Y.Y.E.E.R.E.@X@X#X@X",
"Y.Y.R.P.D.D.S.D.c.c.z.c.Q.!.eXeXtXzXzXzXzXzXzXzXzXzXzXzXzXzXzXzXzXzXzXzXzXzXzXzXzXzXzXzXzXzXzXeXeXeX(.~.R.Y.Y.Y.E.I.E.E.@X@X@X@X"
};
