/* XPM */
static char *result[] = {
/* columns rows colors chars-per-pixel */
"64 64 26 1 ",
"  c #53281C",
". c #5F2F20",
"X c #653123",
"o c #6B3525",
"O c #713727",
"+ c #753828",
"@ c #7A3C2B",
"# c #803F2D",
"$ c #85412E",
"% c #89422F",
"& c #8C4531",
"* c #914733",
"= c #934833",
"- c #9C4C37",
"; c #9F4E38",
": c #A14F38",
"> c #AC553B",
", c #B65A41",
"< c #ABACAB",
"1 c #B4B4B4",
"2 c #BABABA",
"3 c #CECECE",
"4 c #D3D3D3",
"5 c #DCDCDC",
"6 c #E1E1E1",
"7 c None",
/* pixels */
"-;--====----3333----;;;;5557777777777555&**&4444---->:>>;;;;----",
"----====----3333----;;;;5557777777777555**&&4443---->>>:;==;----",
":---====----3333--;;;;;;5557777777777555*&&&4444---->:>>;-------",
"----====----3333---;;;;;5557777777777555&*&&4444---->>:>----;---",
"@@@@@@@@%$$%6666,,,,@@@@5557777777777555$$$$4444----###@@@@@@@@@",
"@@@@@@@@$$%%6666,,,,@@@@5557777777777556$$$$3444-;--##@#@@@@@@@@",
"@@#@@@@@$%%%6666,,,,@@@@5557777777777555$$$$4444---;@#@#@@@@@@@#",
"@@@@@@@@$$%%6666,,,,@@@@5557777777777555$#$$4443-;--####@@@@@@@@",
"@@@@&&&&oooo4444----@@#@5557777777777555@@@@3444@$$$=&=&@@@@&*&*",
"#@@@&%&&ooXo4444----@#@#5557777777777555@@@@4444$$##==*=@@@@&**&",
"@@@@&&&%Xooo4443----####5557777777777555@@@@4444$$$$&===@@@@*&&*",
"@@@@&&&&oXXo4444----###@5557777777777555@@@@4444$@##**==@@@@&&*&",
"222221221111444511211112555777777777755511116555111111111<<12222",
"222222211<114544111111115657777777777555111155551111111111112323",
"22222112111154541111111155577777777775551211555511111211<11<2222",
"222221221<11445412111111555777777777755511115555111111111<1<3232",
"&&%&:----:----------====5557777777777555:;;:---;------------3334",
"&%&%--------:-:-----====5557777777777555:;;:-----:----------3433",
"%&%&----------------====5557777777777555::;;--;-------------3443",
"%&&%----------------&===5557777777777555;:;;-;;;:-:---------3344",
"----#@@@---=@@@@oXXX@+#+5557777777777555+OOO@@@@oooo@@@@@@@@5545",
"----@@@@=---@@+@XoXo@@+#5557777777777555OOOO@@@@oooo@@@@@@@@4444",
"----@@@@----@@@@XoXX@@@@5557777777777655OOOO@@@@oooo@@@@@@@@4554",
"----@@@@--=-@@@@ooXX@@@@5557777777777555OOOO@@@@oooo@@@@@@@@5445",
"--:-....%%%%oooO+@@@X.XX5557777777777555$$$$OO++@@@@@@@@@@@@4344",
"----....%%%%oOOo#@#+X..X5567777777777555$$$$++++@@@+@@@@@@@@4434",
"----...X$%%%Oooo+@@@.XX.5557777777777555$$$$++++@@@@@@@@@@@@4444",
"----...X%%%%ooOO##+#XX..5557777777777555$$$@++++@@@@@@@@@@@@4344",
"112111111111111<<111212255577777777775551<1111111111111111114454",
"111111111111111111<122225557777777777555<1<111211111112111114545",
"11111111111111111<11222155577777777775551<<111111112111111115445",
"111111111111<1<11111122255577777777775551<1111111111111121114544",
"::::--------3444-=-=----5557777777777555----4444--------,,,,@@#@",
"::::--------4444=-=-;;--5557777777777555----4444------;-,,,,@@#@",
":::-------:-4444---=;;--5557777777777555---;4444----;---,,,,@#@@",
"::::------::3444-=-==;--5557777777777555;--;3443--------,,,,@@#@",
"@@#@@+@@#+#+3333====@@@@5557777777777555@+++3333----&$%%@@@@@@@@",
"@@@@@@@@#++#3343====@@@@5557777777777555+@@@3333;-;-&$&$@@@@@@@@",
"@@@@@@@+#+#+3333===-@@@@5557777777777555+@+@3333----%&%&@@@+@@@@",
"@@@@@@##+#+#4333====@@@@5557777777777555@@@+3233--;-$&%$@@@@@@@@",
"%%&&@@@@##=-6555;;--@@@@5557777777777555@@@@3434-;-;@#@@#&$&@@@@",
"%%%&@@@@=###5665-;--@@@@5557777777777555@@@@3443----@@@@&#$$@@@@",
"&&%&@@@@*#*#6556;---@@@@5557777777777555@@@@4334----@@@@$&$%@@@@",
"%&&%@@@@#*#&5665---;@+@@5557777777777555@@@@3343;-;;@#@@%$$$@@@@",
"21121111<<1<4554111111115557777777777555111<554511112222<11<1111",
"11111111<<<<444411211111555777777777756511115454111122221<111121",
"11111111<<<<5445121111115657777777777555<1115455111122221<111111",
"11111111<<<14444112111215557777777777555111<4545111<222111111111",
":;;;:>::>>,>:---;=;;----5557777777777555-----;=;==------::-:6666",
";;;;::::,>>>----;=;-;-;-5557777777777555------;-=--=----:-;;6666",
";;;;;;;;>,>,----;;;;--;-5557777777777655;----;;--=-=-:--:;;;6666",
";-;;;;;;>>>>----;;=;----5567777777777555-------;--=----:;;;:6666",
"----@+@@@++@@@@@@@@@@@@@5557777777777655@@@@@@@@@@@@@@#@####4444",
"-;--@@@@+@@+@@@@@@@@@@@@5557777777777555@@@@@O@@@@@@@@@@####4444",
"-;=;@@@@@@+@@@@@@@@+@@@@5557777777777655@@@@@@@@@@@@@@@#####4444",
";;;;@@@@@+@+@@@@@@@@@@@@5557777777777556@@@@@@@@@@@@@#@@##@@4444",
"----    $$&$@@@@@@@@@@@@5557777777777555@@@@@@@@$$$$@@@@####4444",
"----    %%$%@@@@@@@@@@@@5557777777777655@@@@@@@@@$@$@@@@####4444",
"----    $%%$@@@@@@@@@@@@5557777777777555@@@@@@@@$$$@@@@@####3444",
"----    %$$%@@@@@@@@@@+@5557777777777555@@@@@@@@@$$@@@@@####4444",
"11111111<<<<2112121121215557777777777555<11<21122222211111213333",
"11111<1<<<<<12121111121255577777777775551<<111112221111111113333",
"11111111<<<<1121111121215557777777777555<11111111222112121113333",
"111111<<<<<<221211211212555777777777755511<<21112221111111113333"
};
