/* XPM */
static char *result[] = {
/* columns rows colors chars-per-pixel */
"64 64 86 1 ",
"  c #7A3C2A",
". c #7B3C2A",
"X c #7A3D2A",
"o c #7B3D2A",
"O c #7A3C2B",
"+ c #7B3C2B",
"@ c #7A3D2B",
"# c #7B3D2B",
"$ c #7C3C2A",
"% c #7D3D2A",
"& c #7C3C2B",
"* c #7D3C2B",
"= c #7C3D2B",
"- c #7D3D2B",
"; c #8A4430",
": c #8B4430",
"> c #8A4431",
", c #8B4431",
"< c #8A4531",
"1 c #8E4632",
"2 c #8F4632",
"3 c #8E4732",
"4 c #8E4633",
"5 c #8E4733",
"6 c #9C4C36",
"7 c #9D4C36",
"8 c #9C4D36",
"9 c #9D4D36",
"0 c #9D4C37",
"q c #9C4D37",
"w c #9D4D37",
"e c #9E4E38",
"r c #9E4E39",
"t c #9E4F39",
"y c #A04F38",
"u c #A14F38",
"i c #A14E39",
"p c #B4B4B4",
"a c #B5B4B4",
"s c #B4B4B5",
"d c #B5B4B5",
"f c #B4B5B5",
"g c gray71",
"h c gray73",
"j c #BBBABA",
"k c #BABBBA",
"l c #BBBBBA",
"z c #BBBABB",
"x c #BFBEBE",
"c c #BEBFBE",
"v c #BFBFBE",
"b c #BEBFBF",
"n c gray75",
"m c #CECECE",
"M c #CFCECE",
"N c #CECFCE",
"B c #CECECF",
"V c #D0D1D0",
"C c #D0D0D1",
"Z c #D1D0D1",
"A c #D0D1D1",
"S c gray82",
"D c #D2D2D2",
"F c #D3D2D2",
"G c #D2D3D2",
"H c #D3D3D2",
"J c #D2D2D3",
"K c #D3D2D3",
"L c #D2D3D3",
"P c LightGray",
"I c #D7D7D6",
"U c #D6D6D7",
"Y c #D7D6D7",
"T c #D6D7D7",
"R c #D7D7D7",
"E c gainsboro",
"W c #DDDCDC",
"Q c #DCDDDC",
"! c #DCDCDD",
"~ c #DDDCDD",
"^ c #E1E0E0",
"/ c #E1E1E0",
"( c #E1E0E1",
") c #E0E1E1",
"_ c #E1E1E1",
"` c None",
/* pixels */
"wqwEEE```````````````````````````````````````````````````EEE0007",
"wwwEEE```````````````````````````````````````````````````EEE9677",
"w99!WE```````````````````````````````````````````````````EEE000q",
"w90EEE```````````````````````````````````````````````````EEE0000",
"#@@EEE```````````````````````````````````````````````````EEE=&&=",
"##@QWE```````````````````````````````````````````````````EEE&&&=",
"+##EQQ```````````````````````````````````````````````````EEE&&$&",
"#@#!EE```````````````````````````````````````````````````EEE=&&&",
"+++EEE```````````````````````````````````````````````````EEE1451",
"+#+EQE```````````````````````````````````````````````````WEE1221",
"++#EEE```````````````````````````````````````````````````QEE3144",
"+OoEEE```````````````````````````````````````````````````EEE4124",
"ljzEWE```````````````````````````````````````````````````EEEbvvx",
"jjjEEQ```````````````````````````````````````````````````EEEcvnv",
"jkjEEE```````````````````````````````````````````````````EEEvvbv",
"jhzWEE```````````````````````````````````````````````````EEEvxvv",
";:;EE!```````````````````````````````````````````````````EEEVAAA",
">;:EE~```````````````````````````````````````````````````EEEZAAA",
";:,EEE```````````````````````````````````````````````````EEEAAAA",
";;:EEE```````````````````````````````````````````````````EEECASA",
"0q0EEE```````````````````````````````````````````````````EEERRRR",
"70qEEE```````````````````````````````````````````````````EEEUTYY",
"000EEE```````````````````````````````````````````````````EEWRRRT",
"00wEEE```````````````````````````````````````````````````EEEITRI",
"wwwEEE```````````````````````````````````````````````````EEEDDHD",
"ww9EEE```````````````````````````````````````````````````EEEDDDD",
"9qqEEE```````````````````````````````````````````````````EEEDDJD",
"ww0EEE```````````````````````````````````````````````````EEEDHJD",
"ppfEE!```````````````````````````````````````````````````EEEIURR",
"pppEEE```````````````````````````````````````````````````EEETRTT",
"pppEEE```````````````````````````````````````````````````EEERIRI",
"aasEEE```````````````````````````````````````````````````EEERTYR",
"uuuEEE```````````````````````````````````````````````````EEE=&*-",
"uiuEEE```````````````````````````````````````````````````~EE====",
"uyuEEE```````````````````````````````````````````````````EEE-%=$",
"uuyEEE```````````````````````````````````````````````````EEE=%==",
"OO+EEE```````````````````````````````````````````````````EEE  . ",
"OO+EEE```````````````````````````````````````````````````EEE.  O",
"O+OEEE```````````````````````````````````````````````````EEE    ",
"OO EEE```````````````````````````````````````````````````QEE .O ",
">><WEE```````````````````````````````````````````````````EQE   X",
"><>EEE```````````````````````````````````````````````````EEEoX@X",
">>>EEE```````````````````````````````````````````````````EEEo X ",
">;>EEE```````````````````````````````````````````````````EEEoXXX",
"sssEEE```````````````````````````````````````````````````EQEaadd",
"pssWEE```````````````````````````````````````````````````EEEddfd",
"sdsEEE```````````````````````````````````````````````````EEEsgdg",
"sdsEEE```````````````````````````````````````````````````EEEdddd",
"errEEE```````````````````````````````````````````````````EEE(___",
"rrrEEE```````````````````````````````````````````````````EEE^)_)",
"rrrEEE```````````````````````````````````````````````````EEE_//_",
"trrEEE```````````````````````````````````````````````````EEE__(_",
"qqq!E!```````````````````````````````````````````````````EEELJLG",
"qqwEEE```````````````````````````````````````````````````EEELPKL",
"8qqEEE```````````````````````````````````````````````````EEELLPL",
"qqqEQE```````````````````````````````````````````````````EEEPLLH",
"777EEW```````````````````````````````````````````````````E!EJPLP",
"777EEE```````````````````````````````````````````````````EEEHPPP",
"798EEE```````````````````````````````````````````````````EEEHLJL",
"776EWE```````````````````````````````````````````````````QEEPPPF",
"psgEEE```````````````````````````````````````````````````EEEmNNm",
"sfsEEE```````````````````````````````````````````````````EEENmMB",
"spsEEE```````````````````````````````````````````````````EEEmMMM",
"psfEEE```````````````````````````````````````````````````EEEmmmB"
};
