/* XPM */
static char *result[] = {
/* columns rows colors chars-per-pixel */
"64 64 25 1 ",
"  c #52281C",
". c #5F2F20",
"X c #673224",
"o c #6B3525",
"O c #753828",
"+ c #7A3C2B",
"@ c #803F2C",
"# c #85412E",
"$ c #89422F",
"% c #8C4531",
"& c #914733",
"* c #944834",
"= c #9C4C37",
"- c #9E4E39",
"; c #A14F38",
": c #AC553B",
"> c #B65A41",
", c #ABACAB",
"< c #B4B4B4",
"1 c #BBBABA",
"2 c #CECECE",
"3 c #D3D3D3",
"4 c #DCDCDC",
"5 c #E1E1E0",
"6 c None",
/* pixels */
"=-==*&&*===;2222====4446666666666666666664443323;===::::==-=====",
"====**&&====2222====4446666666666666666664443333;=;=;:;:========",
"=;==****====2222====4446666666666666666664443333====;:;:========",
"====****====2222-==-4446666666666666666664442333====::::========",
"++++++++#$#$5555>>>>4446666666666666666664443333=;=;+@@@++++++++",
"++++++++###$5555>>>>4446666666666666666664442333====@++@++++++++",
"+@+++++@$#$$5555>>>>4446666666666666666664443333====@@++++++++++",
"++++++++$#$$5555>>>>4446666666666666666664443323====@@@@+++++@++",
"++++%%%%oooX3333=-==4446666666666666666664443333@###&&&&++++&&%&",
"++++%%%%oXXo3333====4446666666666666666664443233#@@#&&&&++++&%&%",
"++++%&%%Xooo3323====4446666666666666666664443333@#@@&&*&++++%&%&",
"@+++%%%&oXoX3333===-4446666666666666666664443333#@@@&*&*++++%%&%",
"1111<11<<<<,3433<1<<4446666666666666666664444444<<<<<<<<<<<,1111",
"111111<1<<<<3343<<<<4446666666666666666664444444<<<<<<<<,,<<1212",
"11111<1<<<<<3334<<<<4446666666666666666664444444<<<<<<<<<<,<1111",
"11111<1<<,<<4433<<<<4446666666666666666664444444<<<<<<<<<,<,2121",
"%%%$================444666666666666666666444===--===========2223",
"%$%$=======;===;====444666666666666666666444=-=---=========;2322",
"$%$%============;===444666666666666666666444==--============2332",
"%%%%================444666666666666666666444=---===-========3233",
"====++++====++++XXXX444666666666666666666444++++oooo++O+++++3343",
"====+@++=*=*++++XXXX444666666666666666666444++++oooo++++++++4334",
"====++++====++++XXXX444666666666666666666444++++oooo++++++++4334",
"====++++==*=+++@XXXo444666666666666666666444++++oooo++++++@+3343",
"====....$$$$oooo++++444666666666666666666444OOOO++++++++++++3233",
"====....$$$$ooOo++++444666666666666666666444OOOO++++++++++++3323",
"=;==....$$$$oooo++++444666666666666666666444OOOO++++++++++++3333",
"====....$$$$oOoo++++444666666666666666666444OOOO++++++++++++3233",
"<<<<<<<<<<<<<<<<<<<<444666666666666666666444<<<<<<<<<<<<<<<<3334",
"<<1<<<<<<<<<,<,<<<<,444666666666666666666445<<1<<<<<<<<<<<<<3433",
"<<<<<<<<<<<<<<,<<<<<444666666666666666666444<<<<<<<1<<<<<<<<3443",
"<<<<<1<<<<<<<<<<,<<<444666666666666666666444<<<<<<<<<<<<<<<<4334",
";;;;========2333**==4446666666666666666665443333========>>>>@+@+",
";;;;========3333==**4446666666666666666664443323==-=-=;=>>>>@+@+",
";;;;======;=3333=**=4446666666666666666664443333=-======>>>>#+++",
";;;;=*=;==;;3233*===4446666666666666666664443233=====-==>>>:++++",
"++++++O+@O@O2222****4446666666666666666664442222=-==#%$$+++O++++",
"++++++++O@O@2223***=4446666666666666666664442222==-=##$%++++++++",
"++++++++++@O2222=***4446666666666666666664442222====%%#%++++++++",
"++++++++++++2222****4446666666666666666664441222==-=#%%#++++++++",
"@%%$++++@&@@5545====4446666666666666666664443232=-==++++###%++++",
"%%&$++++&@@*4554====4446666666666666666664442323===-++++####++++",
"%%$$++++@&$%5445=;==4446666666666666666664443223-===++++#%#%++++",
"%$$&++++$$$&4554====4446666666666666666664442323-==-++++$###++++",
"<<<<<<<<,,,,3443<1<<4446666666666666666664444343<<<<1111<<<,<<<<",
"<<<<<<<<,,,,3333<<<<4446666666666666666664444434<<<<1111,,<<<<<<",
"<<<<<<<<,,,,4343<<<<4446666666666666666664443343<<<,1111<<,<<1<<",
"<11<<<<<,,,,4334<<<<4446666666666666666664444434<<<<1111<,<<<<<<",
";---;;;;>>:::==-=-=-444666666666666666666444====**=*====;;=-5555",
";----;;;::::-====-==444666666666666666666444====*=====;==;;;5555",
"----;;;;::>:=;====-=444666666666666666666444====*=*=;===;;--5555",
"----;;;-::::====-===444666666666666666666444======*====;;==-5555",
"====+O+++++O++O+++++444666666666666666666544++++++++++++@@@@3333",
"====++++OO++++++++++444666666666666666666544++++++++++@++@@#3333",
"====+++++O+O++++++++444666666666666666666444++++++++++++#@#+3333",
"====+O++++OO++++++++444666666666666666666444++++++++++@+@@++2333",
"====    @@&@@+++++++444666666666666666666444++++#@@#++++@@+@3333",
"====    &@@@@+++++++444666666666666666666444++++@@##++++@@#@3333",
"====    @@@&++++++++444666666666666666666444++++@##+++++@@@@3333",
"==**    @**@++++++++444666666666666666666444++++@@#+++++@@+#3333",
"<<<<<<<<,,,,1<1<<<<<4446666666666666666665541<<<1111<<<<<1<<2222",
"<<<<<<<<,,,,<1<1<<<<444666666666666666666544<<<<111<<<1<<<<<2222",
"1<<<<,<,,,,,<11<<1<<444666666666666666666544<<<<111<<<<<<<<<2222",
"<<<<<<<,,,,,1<<1<<<1444666666666666666666444<<<<1<11<<<<1<<<2222"
};
