/* XPM */
static char *result[] = {
/* columns rows colors chars-per-pixel */
"64 64 26 1 ",
"  c #52281C",
". c #5F2F20",
"X c #663224",
"o c #6B3525",
"O c #713727",
"+ c #753828",
"@ c #7A3C2B",
"# c #803E2C",
"$ c #85412E",
"% c #89422F",
"& c #8C4531",
"* c #914733",
"= c #934833",
"- c #9C4C37",
"; c #9F4E39",
": c #A14F38",
"> c #AC553C",
", c #B65A41",
"< c #ABACAB",
"1 c #B4B4B4",
"2 c #BABABA",
"3 c #CECECE",
"4 c #D3D3D3",
"5 c #DCDCDC",
"6 c #E1E0E0",
"7 c None",
/* pixels */
"-;--====::--3333----;;55577777777777777555**4444---->:>:;-------",
"--;-=**=----3333;---;;55577777777777777555&&4444---->>>>-;------",
"----*==*----3333-----;55577777777777777555&&4444---->:>>--------",
"----*=*=----3333----;:55577777777777777555**4443---->>:>--------",
"#@@@@#@#$$$%6666,,,,@@55577777777777777555$#4444----@##@@@@@@@@@",
"@@@@@@@@%%$$6666,,,,@@55677777777777777555$$3444--;-@#@#@@@@@@@@",
"@@@@@@@@$%$%6666,,,,@@55577777777777777555$$4444:---$@$#@@@@@@#@",
"@@@@@@@@%$%%6666,,,,@@55577777777777777555$$4434----@##@@@@@@#@@",
"@@@@&&&%oooo4434----@#55577777777777777555@@4344#%#&****@@@@#**&",
"@@@@&&%&oXXo4444----#@55577777777777777555@@4444####****@@@@=*&*",
"@@@@&&&&Xooo4444----@@65577777777777777555@@4444%###*==*@@@@*&**",
"@#@@&&&$oXoo4443---:#$55577777777777777555@@4444#$##**==@@@@&&*&",
"222212221<1144441121115557777777777777755511655511111111111<2222",
"22222212111145451111115557777777777777755511555511111111<<112323",
"22221222111154451112115557777777777777755511555511111111111<2222",
"222221221<11454411111155577777777777777555115555111111111<1<3232",
"&&&%----------------=*55577777777777777555::----:;;---------3434",
"&%&%---:----:-------==55577777777777777555:;;;-;;;----------3343",
"&%&&---------:------=*55577777777777777555;;--;;---;---:----3443",
"%&&%-----------:----==55577777777777777555;;--;;------------3343",
"----@@@@----@@@@XooX#+55577777777777777555OO@@@@oooo@@@@@@@@5454",
"----@@@@-==-@@@@XXXX+#55577777777777777555OO@@@@oooo@@@+@@@@4554",
"----@@@@--=-@@@@XXXX+#55577777777777777555OO@@@@oooo@@@@@@@@5445",
"----@@@@----@@@@XoXX@@55577777777777777555OO@@@@oooo@@@@@@@@4544",
":---....%%%%oooo#@@#X.55577777777777777555$$OO++@@@@@@@@@@@@4434",
"----....%%%%oOOo#+@@.X55577777777777777555$$++++@@@@@@@@@@@@4444",
"---:....%%%%oooo+@@+X.55577777777777777555$#++++@@@@@@@@@@@@4434",
"----....%%%%Oooo##+#XX55577777777777777555$#++++@@@@@@@@@@@@4434",
"1111111111111111<11112555777777777777775551111111111111111114445",
"111111111111111111112255577777777777777555<111111111112111114544",
"111111111111111<<11<22555777777777777775551111121111111111114454",
"1111112111111<1111112155577777777777777555<111111111111111115545",
"::::--------4344-=----56677777777777777555--4434----;---,,,,@@#@",
"::::--------4444--==--55577777777777777555--4444--------,,,,#@#@",
"::::--------4443=-----55577777777777777555-:4444-;;-----,,,,@@@@",
":::-------::4444-===--55577777777777777555--4344------;;,,,,@@#@",
"#@@@@@@+##+#3333*===@@55577777777777777555+@3333-;--&$%%@@@@@@@@",
"@@@@@@@@#+#+3343====@@55577777777777777555@+3333--;-&$%%@@@@@@@@",
"@@+@@@@@@@+#3333===-@@55577777777777777555@+2333--;-$&&%@@@@@@@@",
"@@@@@@@@@+#+3333====@@55577777777777777556++3333----&$$&@+@@@@@@",
"%%&%@@@@=#==6656;;--@@55577777777777777555@@3344----@@@@$$$$@@@@",
"%%&%@@@@####5656----@@55577777777777777555@@4334-;-;@@@@%%$$@@@@",
"*%%&@@@@#=*#6566----@@55577777777777777555@@3443--;-@@@@%%$&@@@@",
"%%*&@@@@#*#*5655---:@@55677777777777777555@@3433-;;:@@@@%$$$@@@@",
"111211111<<<45451112115557777777777777755511455511112222111<1111",
"11111111<<<<4444111111555777777777777775551<544511<12222<<111111",
"11111211<<<<5445111111555777777777777775551145441111222211<11221",
"11111111<<<<544511111155677777777777777565115455111122221<111111",
":;;;::::,>>>>-;-----;-55577777777777777555--=;;===----:-::-:6666",
";;;;::::>>>,----------55577777777777777655--;;;;=--=----:-:-6666",
";;;;:;;;,>>>---:---;;-55677777777777777655--;-;;===----::-::6666",
";;;;:;;;>>>>------;;--55577777777777777655---;;;--=---::-::-6666",
";;;-@@@++@@+@@@@@+@@@@55577777777777777655@@@@@@@@@@@@#@###@4444",
";--;@@@@@+@@@@@@@@@@@@55677777777777777655@@@@@@@@@@#@@@####4444",
"---;@@@@+@@+@@@@@@@@@@55577777777777777555@@@@O@@@@@@#@@####4444",
"---=@@@@@+@+@@@@@@@@@@55577777777777777555@@@@@@@@@@@@@#@$@@4444",
"----    #&%%+@@@@@@@@@55577777777777777655@@@@@@$#$#@@@@##@$4444",
"----    &#%%@@@@@@@@@@55577777777777777655@@@@O@#$##@@@@$#$#4444",
"----    &#&&@@@@@@@@@@65577777777777777655@@@@@@$$#$@@@@##@@4444",
"--=-    #&%#@@@@@@@@@@55577777777777777655@@@@@@$#$#@@@@###$4444",
"11111111<<<<121221112155577777777777777655<<11122221111111113333",
"111111<1<<<<2121111112555777777777777775551111112222111112113333",
"11111<11<<<<1212111121555777777777777775551<11112212121111113333",
"1211111<<<<<1121111112555777777777777776551121111212111112113333"
};
