/* XPM */
static char *result[] = {
/* columns rows colors chars-per-pixel */
"64 64 27 1 ",
"  c #52281C",
". c #5E2E20",
"X c #653123",
"o c #6B3426",
"O c #713727",
"+ c #753828",
"@ c #7A3C2B",
"# c #803F2C",
"$ c #84412E",
"% c #89422F",
"& c #8C4531",
"* c #914733",
"= c #934833",
"- c #9C4C37",
"; c #9F4E39",
": c #A14F38",
"> c #A5513A",
", c #AC553B",
"< c #B65A40",
"1 c #ABACAB",
"2 c #B4B4B4",
"3 c #BABABA",
"4 c #CECECE",
"5 c #D3D3D3",
"6 c #DCDCDC",
"7 c #E1E1E1",
"8 c None",
/* pixels */
"---;====----4444-----;;;=*666888888666,,&***5555----,,>,--------",
"----====----4444----;-;;**666888888666,<*&**5554---->,,>--------",
"----====----4444--;;;;;;**666888888667,,&**&5455---->,>,--------",
";;--====----5444---;;;;;**666888888667,,&**&5555---->,,,--------",
"@@#@@@@@%$$$7777<<<<@@@@oo666888888766++$$$$5554;---####@@@@@@@@",
"@@@@@@@@%$%%7777<<<<@@@@oo666888888666++$#$$5555----###@@@@@@@@@",
"@@@@@@@#$$%%7777<<<<@@@@Oo766888888666++$$$$5555-;--@@#$@@@@#@@@",
"@@@@@@@@$%#%7777<<<<@@@@oo666888888666++$$$#5555----@##@@@@@@@##",
"#@@@&&&&oXXo5555----@@$@@@666888888666@@#@@@5545#$$$****@@@+&&&*",
"@@@@&&&&oooX5555----##@$#@666888888666@@@@@@5555$#$#****@@@@*&*&",
"@@@@&&&&oooo5555----@##@@@666888888666@@@@@@5555#$$$****@@@@*&&&",
"@@@@&%&&XoXo5554----##@@@@666888888666@+@@@@4555$###*=**@@@@&&**",
"3333332222225556222222222276688888866623222266672222222221123334",
"3333233322125655222322222266688888866633222266662222232222224333",
"3333232322226565232222222266688888866633222266662222222212214333",
"3333333312225565222232222266788888866633222366662222222221223334",
"=%%&----=:--:---=:--==&=--666888888666,>::;:=;;-;--;--------4545",
"%%&%::------:--:-:--====--666888888666,>::;:;----;----------4454",
"&%&&--:--:--=-:-----====--666888888766>,::;;;--;------------5545",
"%&&&-----:--:-------&===--666888888666,>::;;;-;;--;---------4454",
"----+@@@----@@@@XoXX@@@@+@667888888766@@OOOO@@@@oooo@@@@@@@@5565",
"----+@@@=--=@@@@XXoo@@@@@+666888888666@@OOOO@@@@oooo@@@+@@@@5665",
"----@@@@--=-@@@+XoXX@@@@@@666888888666@@OOOO@@@@oooo@@@@@@@@6556",
"--:-@@@@----@@@@XXXX@@+@@@666888888666@@OOOO@@@@oooo@@@@@@@#5655",
"----....%%%%Oooo#@@@XX..@@666888888666oo$$$$++++@@@@@@@@@@@@5555",
"----X...%%%%oOOo@@@@.XXX@@666888888666oo$$$$++++@@@@@@@@@@@@5445",
"----...X%%%%ooOo@@@@.X.X@@666888888676oo$$$$++++@@@@@@@@@@@@5455",
"---:.X.X%%%%Oooo@#@@XXXX@@667888888766oo$$$#++++@@@@@@@@@@@@5555",
"2222322212222222112223332266688888866622221223222222222222225565",
"2222222222222212222133322266788888866622122122222222222222225665",
"2222222222222212222223232266788888866622212122222222322222226556",
"2222222222222222222233332266688888876622121222222322222222225655",
"::::--------5555---=---->>666888888666--:---4555-------:<<<<@@#@",
"::::--------5555===-;--;>>666888888666------5555--------<<<<@@@@",
"::::-------:4555-==----->>666888888666-----:5555--:--:::<<<<+##@",
"::--------:>4555=--=---;>>666888888666-----:4545------::<<<<#@#@",
"#@@@@@@@#+#+4544===-@@@@@@666888888666%&@@++4444--;-#&*#@@@++@@@",
"@@@@+@@@+##+4444====@@@@@@666888888666&&@@@+4444----*##&@@@@#@@@",
"@@@@#@+#+##+4444=-==@@@@@@666888888666&&@@+O4444--;;#*#*@@@@@@@+",
"@+@@@@@+#+#+4444====@@@@@@667888888666&&+++o4444-;--*#*#@@@@@@@@",
"&&%&@@@@=#==7767;;--@@@@. 666888888666#$@@@@5454----@@@@##$%@@@@",
"&%&%@@@@####6667-;;-@@@@..666888888666$#@@@@4545---;@@#@*#%%@@@@",
"&%%&@@@@#*#&7676----@@@@..666888888666#$@@@@5445----@#@##&&%@@@@",
"%&&%@@@@*#**6767----+@@@..666888888666$#@@@@4545---;@@@@*##%@@@@",
"2232222211116555222222222266688888866622222165652222333321222222",
"2222222221115566223222232266688888866622222266562222333322112222",
"2222232211115555222222222266688888866622122256552222333312222232",
"2322222211115665222322223266688888866632222165662221333312222222",
"-;;;::::,<,,:---;-------**766888888666<<----=;--==-----;;;:-7777",
";;;;::::,,,<:------;;-;-**666888888666<<-;--;---=--=-;--;;;;7777",
";-;;::;;<,,,------;;--;-**666888888766<<---;;----==----;;;;;7777",
";;;;:;;-,,<,------;;----=*666888888666<<-----;;=--=----;;:;;7777",
"---;@@@@+@@+#@@@++@@@@@@XX666888888766+@@@@@@@@@@@@@@@@#$$##5555",
"----@@@@@+@@@@@@@@@@@@@@XX666888888666@+@@@@@@@@@@@@@@#@@@$#5555",
"--;-@@@@++@+@@@@@@@@@@@@oX766888888666@@@@@@@@@@@@@@@@@@$@#@5555",
"----@@@@@@+@+@@@@@@@@@@@oX766888888666@@@@@@@@@@@@@@@##@@$#@5554",
"----    %$%$@@@@@@@@@@@@@@667888888666@@@@@@@@@@###$@@@@$$##5555",
"----    $%$%@@@#@@@@@@@@@@666888888666@@@@@@@@@@#$#$@@@@#@##5555",
"----    %%%$@@@@@@@@@@@@@@666888888666@@@@@@@@@@$$$#@@@@####5554",
"----    %$$%@@@@@@@@@@@@@@666888888766@@@@@+@+@@$@#@@@@@####5555",
"2222221211113232222232322266688888866622122222233333223222234444",
"2222222211112323222223232266688888866622221222223323222232224444",
"2222222111113232232232322266688888866622212232223333322222224444",
"2222212111112323222223232266788888866722121222222332222222224444"
};
