/* XPM */
static char *result[] = {
/* columns rows colors chars-per-pixel */
"64 64 144 2 ",
"   c #52281C",
".  c #53281C",
"X  c #53291C",
"o  c #52281D",
"O  c #5F2E20",
"+  c #5E2F20",
"@  c #5F2F20",
"#  c #5F2F21",
"$  c #7A3C2A",
"%  c #7B3C2A",
"&  c #7A3D2A",
"*  c #7B3D2A",
"=  c #7A3C2B",
"-  c #7B3C2B",
";  c #7A3D2B",
":  c #7B3D2B",
">  c #7C3C2A",
",  c #7C3D2A",
"<  c #7D3D2A",
"1  c #7C3C2B",
"2  c #7D3C2B",
"3  c #7C3D2B",
"4  c #7D3D2B",
"5  c #803E2C",
"6  c #803F2C",
"7  c #813F2C",
"8  c #803E2D",
"9  c #813E2D",
"0  c #813F2D",
"q  c #86422E",
"w  c #86432E",
"e  c #87432E",
"r  c #86422F",
"t  c #86432F",
"y  c #87432F",
"u  c #8A4430",
"i  c #8B4430",
"p  c #8A4530",
"a  c #8B4530",
"s  c #8A4431",
"d  c #8B4431",
"f  c #8A4531",
"g  c #8C4430",
"h  c #8D4430",
"j  c #8C4530",
"k  c #8D4530",
"l  c #8E4632",
"z  c #8F4632",
"x  c #8E4732",
"c  c #8F4732",
"v  c #8E4633",
"b  c #8E4733",
"n  c #934832",
"m  c #924833",
"M  c #934833",
"N  c #934933",
"B  c #9C4C36",
"V  c #9D4C36",
"C  c #9C4D36",
"Z  c #9D4D36",
"A  c #9C4C37",
"S  c #9D4C37",
"D  c #9C4D37",
"F  c #9D4D37",
"G  c #9E4E38",
"H  c #9F4E38",
"J  c #9F4F38",
"K  c #9E4E39",
"L  c #9F4E39",
"P  c #9E4F39",
"I  c #A14E38",
"U  c #A04F38",
"Y  c #A14F38",
"T  c #A14E39",
"R  c #B65A41",
"E  c #B75A41",
"W  c #B65B41",
"Q  c gray69",
"!  c #B1B0B0",
"~  c #B0B1B0",
"^  c #B1B1B0",
"/  c #B1B0B1",
"(  c #B0B1B1",
")  c #B1B1B1",
"_  c #B2B2B2",
"`  c #B3B2B2",
"'  c #B2B3B2",
"]  c #B3B3B2",
"[  c #B2B3B3",
"{  c #B4B4B4",
"}  c #B5B4B4",
"|  c #B4B5B4",
" . c #B5B5B4",
".. c #B4B4B5",
"X. c #B5B4B5",
"o. c #B4B5B5",
"O. c gray71",
"+. c gray72",
"@. c #B9B8B8",
"#. c #B8B9B8",
"$. c #B8B8B9",
"%. c gray73",
"&. c #BBBABA",
"*. c #BBBBBA",
"=. c #BBBABB",
"-. c #BBBBBB",
";. c #BFBEBE",
":. c #BEBFBE",
">. c #BFBFBE",
",. c #BEBFBF",
"<. c gray75",
"1. c #CECECE",
"2. c #CFCECE",
"3. c #CECFCE",
"4. c #CECECF",
"5. c #D0D0D1",
"6. c #D1D0D1",
"7. c #D0D1D1",
"8. c #D2D2D2",
"9. c #D3D2D2",
"0. c #D2D3D2",
"q. c #D3D3D2",
"w. c #D2D2D3",
"e. c #D3D2D3",
"r. c #D2D3D3",
"t. c LightGray",
"y. c #D7D6D6",
"u. c #D7D7D6",
"i. c #D6D6D7",
"p. c #D7D6D7",
"a. c #D6D7D7",
"s. c #D7D7D7",
"d. c gainsboro",
"f. c #DDDCDC",
"g. c #DCDDDC",
"h. c #DDDDDC",
"j. c #DCDCDD",
"k. c #DDDCDD",
"l. c #E1E0E0",
"z. c #E1E1E0",
"x. c #E1E0E1",
"c. c #E0E1E1",
"v. c #E1E1E1",
"b. c None",
/* pixels */
"F D F D M M M d.d.d.b.b.b.b.b.b.b.b.b.b.b.b.b.b.b.b.b.b.b.b.b.b.b.b.b.b.b.b.b.b.b.b.b.b.b.b.b.b.b.b.b.b.b.d.d.d.D D D D S S S V ",
"F S F F M N n d.d.d.b.b.b.b.b.b.b.b.b.b.b.b.b.b.b.b.b.b.b.b.b.b.b.b.b.b.b.b.b.b.b.b.b.b.b.b.b.b.b.b.b.b.b.d.d.g.C C D D V B V V ",
"F Z Z F m n M d.d.d.b.b.b.b.b.b.b.b.b.b.b.b.b.b.b.b.b.b.b.b.b.b.b.b.b.b.b.b.b.b.b.b.b.b.b.b.b.b.b.b.b.b.b.d.d.d.F A A F S S S D ",
"F Z F Z M m M d.d.d.b.b.b.b.b.b.b.b.b.b.b.b.b.b.b.b.b.b.b.b.b.b.b.b.b.b.b.b.b.b.b.b.b.b.b.b.b.b.b.b.b.b.b.d.d.d.D C D D S S S S ",
": ; ; : % * - d.d.d.b.b.b.b.b.b.b.b.b.b.b.b.b.b.b.b.b.b.b.b.b.b.b.b.b.b.b.b.b.b.b.b.b.b.b.b.b.b.b.b.b.b.b.d.d.d.- = - = 1 1 1 3 ",
": : ; : % * % d.d.d.b.b.b.b.b.b.b.b.b.b.b.b.b.b.b.b.b.b.b.b.b.b.b.b.b.b.b.b.b.b.b.b.b.b.b.b.b.b.b.b.b.b.b.d.d.d.: = ; = 1 1 > , ",
"- : : - * $ % d.d.d.b.b.b.b.b.b.b.b.b.b.b.b.b.b.b.b.b.b.b.b.b.b.b.b.b.b.b.b.b.b.b.b.b.b.b.b.b.b.b.b.b.b.b.d.d.d.- = = = 1 2 > 1 ",
": ; : ; % - - d.d.d.b.b.b.b.b.b.b.b.b.b.b.b.b.b.b.b.b.b.b.b.b.b.b.b.b.b.b.b.b.b.b.b.b.b.b.b.b.b.b.b.b.b.b.d.d.d.- = - = 3 1 1 1 ",
"- - - - j k j d.d.d.b.b.b.b.b.b.b.b.b.b.b.b.b.b.b.b.b.b.b.b.b.b.b.b.b.b.b.b.b.b.b.b.b.b.b.b.b.b.b.b.b.b.b.d.d.d.= = - = l v b l ",
"- : - : j j j d.d.d.b.b.b.b.b.b.b.b.b.b.b.b.b.b.b.b.b.b.b.b.b.b.b.b.b.b.b.b.b.b.b.b.b.b.b.b.b.b.b.b.b.b.b.d.d.d.= = = = l l z l ",
"- - : - j h j d.d.d.b.b.b.b.b.b.b.b.b.b.b.b.b.b.b.b.b.b.b.b.b.b.b.b.b.b.b.b.b.b.b.b.b.b.b.b.b.b.b.b.b.b.b.d.d.j.= & = = x l v v ",
": = * - j j g d.d.d.b.b.b.b.b.b.b.b.b.b.b.b.b.b.b.b.b.b.b.b.b.b.b.b.b.b.b.b.b.b.b.b.b.b.b.b.b.b.b.b.b.b.b.d.d.d.= = ; = l l c v ",
"*.&.=.&.+.+.+.d.d.d.b.b.b.b.b.b.b.b.b.b.b.b.b.b.b.b.b.b.b.b.b.b.b.b.b.b.b.b.b.b.b.b.b.b.b.b.b.b.b.b.b.b.b.d.d.d.) ) ! / <.>.>.>.",
"&.&.&.%.@.#.@.d.g.j.b.b.b.b.b.b.b.b.b.b.b.b.b.b.b.b.b.b.b.b.b.b.b.b.b.b.b.b.b.b.b.b.b.b.b.b.b.b.b.b.b.b.b.d.d.d.) ) ) ( :.>.<.>.",
"&.%.*.-.+.+.$.d.d.d.b.b.b.b.b.b.b.b.b.b.b.b.b.b.b.b.b.b.b.b.b.b.b.b.b.b.b.b.b.b.b.b.b.b.b.b.b.b.b.b.b.b.b.d.d.d.) Q ) ^ <.:.,.>.",
"&.%.=.-.+.+.@.d.d.d.b.b.b.b.b.b.b.b.b.b.b.b.b.b.b.b.b.b.b.b.b.b.b.b.b.b.b.b.b.b.b.b.b.b.b.b.b.b.b.b.b.b.b.d.d.d.^ ^ ) ) >.;.>.>.",
"u i u u S S A d.d.f.b.b.b.b.b.b.b.b.b.b.b.b.b.b.b.b.b.b.b.b.b.b.b.b.b.b.b.b.b.b.b.b.b.b.b.b.b.b.b.b.b.b.b.g.d.d.V S S S 7.7.7.7.",
"s u i u Z S F d.d.d.b.b.b.b.b.b.b.b.b.b.b.b.b.b.b.b.b.b.b.b.b.b.b.b.b.b.b.b.b.b.b.b.b.b.b.b.b.b.b.b.b.b.b.d.d.d.S S S Z 6.7.7.7.",
"u i d a V S S g.d.d.b.b.b.b.b.b.b.b.b.b.b.b.b.b.b.b.b.b.b.b.b.b.b.b.b.b.b.b.b.b.b.b.b.b.b.b.b.b.b.b.b.b.b.d.d.d.S V S A 7.7.7.7.",
"u u i u S S F d.d.d.b.b.b.b.b.b.b.b.b.b.b.b.b.b.b.b.b.b.b.b.b.b.b.b.b.b.b.b.b.b.b.b.b.b.b.b.b.b.b.b.b.b.b.d.d.d.A S S S 5.7.7.7.",
"S S S S = $ = d.d.d.b.b.b.b.b.b.b.b.b.b.b.b.b.b.b.b.b.b.b.b.b.b.b.b.b.b.b.b.b.b.b.b.b.b.b.b.b.b.b.b.b.b.b.d.d.d.; ; = ; s.s.s.s.",
"S S D S = : $ d.d.d.b.b.b.b.b.b.b.b.b.b.b.b.b.b.b.b.b.b.b.b.b.b.b.b.b.b.b.b.b.b.b.b.b.b.b.b.b.b.b.b.b.b.b.d.d.d.& ; ; ; i.a.p.p.",
"V S S Z = = = d.d.d.b.b.b.b.b.b.b.b.b.b.b.b.b.b.b.b.b.b.b.b.b.b.b.b.b.b.b.b.b.b.b.b.b.b.b.b.b.b.b.b.b.b.b.d.d.d.; ; ; = s.s.s.a.",
"S S F S = - = d.d.d.b.b.b.b.b.b.b.b.b.b.b.b.b.b.b.b.b.b.b.b.b.b.b.b.b.b.b.b.b.b.b.b.b.b.b.b.b.b.b.b.b.b.b.d.j.d.; : : ; y.a.s.u.",
"F F F S @ O @ d.d.f.b.b.b.b.b.b.b.b.b.b.b.b.b.b.b.b.b.b.b.b.b.b.b.b.b.b.b.b.b.b.b.b.b.b.b.b.b.b.b.b.b.b.b.d.d.d.- = = = w.8.q.8.",
"F F Z F @ + @ d.d.d.b.b.b.b.b.b.b.b.b.b.b.b.b.b.b.b.b.b.b.b.b.b.b.b.b.b.b.b.b.b.b.b.b.b.b.b.b.b.b.b.b.b.b.d.d.d.; ; $ = 8.8.8.8.",
"Z D D F O # @ d.d.d.b.b.b.b.b.b.b.b.b.b.b.b.b.b.b.b.b.b.b.b.b.b.b.b.b.b.b.b.b.b.b.b.b.b.b.b.b.b.b.b.b.b.b.d.d.d.= = = = 8.8.w.8.",
"F F S Z @ @ @ d.d.d.b.b.b.b.b.b.b.b.b.b.b.b.b.b.b.b.b.b.b.b.b.b.b.b.b.b.b.b.b.b.b.b.b.b.b.b.b.b.b.b.b.b.b.d.f.d.= ; = - 8.q.w.8.",
"{ { o.{ } ..{ d.d.d.b.b.b.b.b.b.b.b.b.b.b.b.b.b.b.b.b.b.b.b.b.b.b.b.b.b.b.b.b.b.b.b.b.b.b.b.b.b.b.b.b.b.b.d.d.d...{ { } u.i.s.s.",
"} { { { { { { d.d.d.b.b.b.b.b.b.b.b.b.b.b.b.b.b.b.b.b.b.b.b.b.b.b.b.b.b.b.b.b.b.b.b.b.b.b.b.b.b.b.b.b.b.b.d.g.d.{ { { ..a.s.a.a.",
"{ { { | } { ..d.d.d.b.b.b.b.b.b.b.b.b.b.b.b.b.b.b.b.b.b.b.b.b.b.b.b.b.b.b.b.b.b.b.b.b.b.b.b.b.b.b.b.b.b.b.d.d.d.{ o...{ s.u.s.u.",
"} } ..o...{ ..d.d.d.b.b.b.b.b.b.b.b.b.b.b.b.b.b.b.b.b.b.b.b.b.b.b.b.b.b.b.b.b.b.b.b.b.b.b.b.b.b.b.b.b.b.b.d.d.d.{ { | { s.a.p.s.",
"Y Y Y Y C B C d.d.d.b.b.b.b.b.b.b.b.b.b.b.b.b.b.b.b.b.b.b.b.b.b.b.b.b.b.b.b.b.b.b.b.b.b.b.b.b.b.b.b.b.b.b.d.d.d.R W R R 3 1 2 4 ",
"Y T Y Y Z A D d.d.d.b.b.b.b.b.b.b.b.b.b.b.b.b.b.b.b.b.b.b.b.b.b.b.b.b.b.b.b.b.b.b.b.b.b.b.b.b.b.b.b.b.b.b.d.d.d.R R R R 4 3 3 3 ",
"Y U Y Y D Z C d.d.d.b.b.b.b.b.b.b.b.b.b.b.b.b.b.b.b.b.b.b.b.b.b.b.b.b.b.b.b.b.b.b.b.b.b.b.b.b.b.b.b.b.b.b.d.d.d.R R R R 4 4 3 , ",
"Y Y U Y C C D d.d.d.b.b.b.b.b.b.b.b.b.b.b.b.b.b.b.b.b.b.b.b.b.b.b.b.b.b.b.b.b.b.b.b.b.b.b.b.b.b.b.b.b.b.b.d.d.d.W E R R 3 < 3 3 ",
"= = - ; = = - g.d.d.b.b.b.b.b.b.b.b.b.b.b.b.b.b.b.b.b.b.b.b.b.b.b.b.b.b.b.b.b.b.b.b.b.b.b.b.b.b.b.b.b.b.b.d.d.d.: ; = $ $ $ $ $ ",
"= = - $ = = & d.d.d.b.b.b.b.b.b.b.b.b.b.b.b.b.b.b.b.b.b.b.b.b.b.b.b.b.b.b.b.b.b.b.b.b.b.b.b.b.b.b.b.b.b.b.d.d.d.= = = $ % $ $ = ",
"= - = = : = = d.d.d.b.b.b.b.b.b.b.b.b.b.b.b.b.b.b.b.b.b.b.b.b.b.b.b.b.b.b.b.b.b.b.b.b.b.b.b.b.b.b.b.b.b.b.d.d.d.= $ = = $ $ $ $ ",
"= $ $ = - = $ d.d.d.b.b.b.b.b.b.b.b.b.b.b.b.b.b.b.b.b.b.b.b.b.b.b.b.b.b.b.b.b.b.b.b.b.b.b.b.b.b.b.b.b.b.b.d.d.d.= & = = $ $ = $ ",
"s s s p = = = d.d.d.b.b.b.b.b.b.b.b.b.b.b.b.b.b.b.b.b.b.b.b.b.b.b.b.b.b.b.b.b.b.b.b.b.b.b.b.b.b.b.b.b.b.b.d.d.g.q r t w $ $ $ & ",
"s f d a ; $ = d.g.d.b.b.b.b.b.b.b.b.b.b.b.b.b.b.b.b.b.b.b.b.b.b.b.b.b.b.b.b.b.b.b.b.b.b.b.b.b.b.b.b.b.b.b.d.d.d.t t y t * * & & ",
"d s s f & % = d.d.d.b.b.b.b.b.b.b.b.b.b.b.b.b.b.b.b.b.b.b.b.b.b.b.b.b.b.b.b.b.b.b.b.b.b.b.b.b.b.b.b.b.b.b.d.d.d.t y y t * $ & & ",
"s u s s = = - d.d.d.b.b.b.b.b.b.b.b.b.b.b.b.b.b.b.b.b.b.b.b.b.b.b.b.b.b.b.b.b.b.b.b.b.b.b.b.b.b.b.b.b.b.b.d.d.d.e r t w & & & & ",
"..{ .... .}  .d.d.d.b.b.b.b.b.b.b.b.b.b.b.b.b.b.b.b.b.b.b.b.b.b.b.b.b.b.b.b.b.b.b.b.b.b.b.b.b.b.b.b.b.b.b.d.g.d.( ) ) ) } } X.X.",
"{ ......X.} } d.h.d.b.b.b.b.b.b.b.b.b.b.b.b.b.b.b.b.b.b.b.b.b.b.b.b.b.b.b.b.b.b.b.b.b.b.b.b.b.b.b.b.b.b.b.d.j.d.) ! ) ) X.X.o.X.",
"..X.....} O.} d.d.d.b.b.b.b.b.b.b.b.b.b.b.b.b.b.b.b.b.b.b.b.b.b.b.b.b.b.b.b.b.b.b.b.b.b.b.b.b.b.b.b.b.b.b.d.d.d.) ) ) ~ ..O.X.O.",
"..X...{ } } } d.d.d.b.b.b.b.b.b.b.b.b.b.b.b.b.b.b.b.b.b.b.b.b.b.b.b.b.b.b.b.b.b.b.b.b.b.b.b.b.b.b.b.b.b.b.d.d.d.( ) ^ ) X.X.X.X.",
"G K K K Y Y Y d.d.d.b.b.b.b.b.b.b.b.b.b.b.b.b.b.b.b.b.b.b.b.b.b.b.b.b.b.b.b.b.b.b.b.b.b.b.b.b.b.b.b.b.b.b.d.d.d.L H H H x.v.v.v.",
"K K K K Y Y Y d.d.d.b.b.b.b.b.b.b.b.b.b.b.b.b.b.b.b.b.b.b.b.b.b.b.b.b.b.b.b.b.b.b.b.b.b.b.b.b.b.b.b.b.b.b.d.d.d.G G H H l.c.v.c.",
"K K K K Y I Y d.d.d.b.b.b.b.b.b.b.b.b.b.b.b.b.b.b.b.b.b.b.b.b.b.b.b.b.b.b.b.b.b.b.b.b.b.b.b.b.b.b.b.b.b.b.d.d.d.H H H H v.z.z.v.",
"P K K K Y Y Y d.d.d.b.b.b.b.b.b.b.b.b.b.b.b.b.b.b.b.b.b.b.b.b.b.b.b.b.b.b.b.b.b.b.b.b.b.b.b.b.b.b.b.b.b.b.d.d.d.L J H H v.v.v.v.",
"D D A D = $ $ d.d.d.b.b.b.b.b.b.b.b.b.b.b.b.b.b.b.b.b.b.b.b.b.b.b.b.b.b.b.b.b.b.b.b.b.b.b.b.b.b.b.b.b.b.b.d.d.d.6 6 6 6 r.w.r.0.",
"D D F D $ $ $ d.k.d.b.b.b.b.b.b.b.b.b.b.b.b.b.b.b.b.b.b.b.b.b.b.b.b.b.b.b.b.b.b.b.b.b.b.b.b.b.b.b.b.b.b.b.d.d.d.6 7 6 6 r.t.e.r.",
"C D D C * $ & d.d.d.b.b.b.b.b.b.b.b.b.b.b.b.b.b.b.b.b.b.b.b.b.b.b.b.b.b.b.b.b.b.b.b.b.b.b.b.b.b.b.b.b.b.b.d.d.d.6 6 7 6 r.r.t.r.",
"D D D C = $ $ d.d.d.b.b.b.b.b.b.b.b.b.b.b.b.b.b.b.b.b.b.b.b.b.b.b.b.b.b.b.b.b.b.b.b.b.b.b.b.b.b.b.b.b.b.b.d.d.d.6 6 5 6 t.r.r.q.",
"V V V V X     d.d.d.b.b.b.b.b.b.b.b.b.b.b.b.b.b.b.b.b.b.b.b.b.b.b.b.b.b.b.b.b.b.b.b.b.b.b.b.b.b.b.b.b.b.b.d.d.d.8 9 9 8 w.t.r.t.",
"V V V V o     d.d.d.b.b.b.b.b.b.b.b.b.b.b.b.b.b.b.b.b.b.b.b.b.b.b.b.b.b.b.b.b.b.b.b.b.b.b.b.b.b.b.b.b.b.b.d.d.d.8 8 0 5 q.t.t.t.",
"V Z B V       d.d.d.b.b.b.b.b.b.b.b.b.b.b.b.b.b.b.b.b.b.b.b.b.b.b.b.b.b.b.b.b.b.b.b.b.b.b.b.b.b.b.b.b.b.b.d.d.d.5 8 5 5 9.r.e.r.",
"V Z B B     . g.d.d.b.b.b.b.b.b.b.b.b.b.b.b.b.b.b.b.b.b.b.b.b.b.b.b.b.b.b.b.b.b.b.b.b.b.b.b.b.b.b.b.b.b.b.d.d.d.8 5 5 9 t.t.t.9.",
"{ ..o...] ' ' d.d.d.b.b.b.b.b.b.b.b.b.b.b.b.b.b.b.b.b.b.b.b.b.b.b.b.b.b.b.b.b.b.b.b.b.b.b.b.b.b.b.b.b.b.b.d.g.d.O.o.O.O.1.3.3.1.",
"........' ' ' d.d.d.b.b.b.b.b.b.b.b.b.b.b.b.b.b.b.b.b.b.b.b.b.b.b.b.b.b.b.b.b.b.b.b.b.b.b.b.b.b.b.b.b.b.b.d.d.d.O.O.O.X.3.1.1.4.",
"..{ ..X.] _ _ d.d.d.b.b.b.b.b.b.b.b.b.b.b.b.b.b.b.b.b.b.b.b.b.b.b.b.b.b.b.b.b.b.b.b.b.b.b.b.b.b.b.b.b.b.b.d.d.d.O.O.| O.1.2.2.1.",
"....o.} ' [ ` d.d.j.b.b.b.b.b.b.b.b.b.b.b.b.b.b.b.b.b.b.b.b.b.b.b.b.b.b.b.b.b.b.b.b.b.b.b.b.b.b.b.b.b.b.b.d.d.d.O. .O.X.1.1.1.4."
};
