/* XPM */
static char *result[] = {
/* columns rows colors chars-per-pixel */
"64 64 25 1 ",
"  c #52281C",
". c #5F2F20",
"X c #673224",
"o c #6B3525",
"O c #753828",
"+ c #7A3C2B",
"@ c #803F2C",
"# c #85412E",
"$ c #89422F",
"% c #8C4531",
"& c #914733",
"* c #934833",
"= c #9D4C37",
"- c #9F4E39",
"; c #A14F38",
": c #AC553C",
"> c #B65A41",
", c #ABACAB",
"< c #B4B4B4",
"1 c #BBBABA",
"2 c #CECECE",
"3 c #D4D4D4",
"4 c #DCDCDC",
"5 c #E1E1E1",
"6 c None",
/* pixels */
"=-==****====2222==444666666666666666666666644433====::::========",
"====****====2222==444666666666666666666666644433====;:;:========",
"=;==****====2222-=444666666666666666666666644433====;:;:========",
"====****====2222=;444666666666666666666666644433====::::========",
"++++++++###$5555:>444666666666666666666666644423====@++@++++++++",
"++++++++$$#$5555>>444666666666666666666666644433=;==@@@#++++++++",
"+++@++++##@$5555>>444666666666666666666666644433====+#+++++++@++",
"++++++++#$$$5555>>444666666666666666666666644433====@+#++++++++@",
"++++%%%%oooo3233==444666666666666666666666644433@###&&&&++++%&%&",
"++++%%%%ooXo3333==444666666666666666666666644432#@@#&&&&++++&%&%",
"++++%%%%XoXo3323==444666666666666666666666644433#@@@&&&&++++&%&%",
"+++@%%$$XoXo2333=-444666666666666666666666644433@#@@&&**++++&&%&",
"11111<1<,<<<3433<<544666666666666666666666644444<<<<<<<<<<<,1211",
"1111<111<<<<4334<<444666666666666666666666644444<<<<<<<<,,<<1121",
"1111<111<<<<3433<<444666666666666666666666644444<<<<<<<<<,<<1111",
"11111<11,<<<3334<<444666666666666666666666644444<<<<<<<<<<<<1211",
"%%$%;=============4446666666666666666666666444==--==========2232",
"$$%%==============4446666666666666666666666444==--=====;====2223",
"%%$%========;=;===4446666666666666666666666444===========;==3233",
"$%%$==============4446666666666666666666666444=====-========2323",
"====++++====+O++Xo4446666666666666666666666544++oooo+++O++++3343",
"====++++*===++++Xo4446666666666666666666666444++oooo++++++++3443",
"====++++====++++XX4446666666666666666666666444++oooo++++++++3333",
"====++++==*=++++XX4446666666666666666666666444++oooo++++++++4434",
";=;=....$$$$oooo+O4446666666666666666666666444OO+++O++++++O+3233",
"====....$$$$OooO++4446666666666666666666666544OO++++++++++++3323",
"=;==....$$$$oooo++4446666666666666666666666444OO++++++++++++2333",
"====....$$$$oooo++4446666666666666666666666444OO+++++++O++++3323",
"<<<<<<<<<<<<<<<<<<4446666666666666666666666444<<<<<<<<<<<<<<3334",
"<<<<<<<<<<<<<<<<<<4446666666666666666666666544<<<<<<<<<1<<1<3433",
"<<<<<<<<<<<<<<<<<<4446666666666666666666666444<<1<<1<<<<<<<<3443",
"<<<<<<1<<<<<<,<,,<4446666666666666666666666444<<<<<<<<<<<<<13334",
";;;;========3233=*444666666666666666666666644433======-=:>>>@+++",
";;;;========3333*=444666666666666666666666644432=====-==>>>>@+#+",
";;;;========3333=*444666666666666666666666644433====;=-->>>>++++",
";;========;;2333==444666666666666666666666644433=-==*--->>>>+#++",
"++++++++@@OO2232&*444666666666666666666666644422====$$$$++++++++",
"++++++++O@O@2222**444666666666666666666666644322=-;=$$$$++++++++",
"++++++++++@O2222*&444666666666666666666666644422====$$$$++++++++",
"++++O++++@O@2222*=444666666666666666666666644422==-=$$$%+++O++++",
"$$%$++++&@@*4544==444666666666666666666666654432====++++###$++++",
"$%%$++++@&*@5454==444666666666666666666666644423=-==++++##$#++++",
"%%$%++++&@%%4455==444666666666666666666666644423==-=++++$$$#++++",
"$%%%++++@%@@5544=;444666666666666666666666644422===-++++#$#$++++",
"<<<<<<<<,,,,4333<<444666666666666666666666644444<<<<1111<<,<<<<<",
"<<1<<<<<,,,<3344<<444666666666666666666666644434<<<<1111,,<<<<<<",
"<<<<<<<1<,,,3333<<444666666666666666666666644443<<<<1111<<<,<<1<",
"<<<<<<<<,,,,3443<<444666666666666666666666644434<<,<1111<,<<<<<<",
";---;;;;>::::=====4446666666666666666666666444==**=*====;;;=5555",
";---;;;;:>>:;=====4446666666666666666666666444==*=====;==;--5555",
"----;;--::::=====-4446666666666666666666666544===**=====-;-=5555",
"----;;-=::::=====-4446666666666666666666666444=*==*====;;--;5555",
"====+++OO++O++++++4446666666666666666666666544++++++++@+@@+#3333",
"-=-=++++++O+++++++4446666666666666666666666444++++++++++@+#+3333",
"====+++++++O++++++4446666666666666666666666444+++++++++@@@##3233",
"====+++++OO+O+++++4446666666666666666666666444++++++++++@@++3333",
"====    @%%@++++++4446666666666666666666666444+++###++++@@@@3333",
"====    ###%++++++4446666666666666666666666544++##+#++++#@#+3333",
"====    %#%@++++++4446666666666666666666666444++##+#+++++#+@3332",
"===*    @%@%++++++4546666666666666666666666444++#+##++++#+#+3333",
"<<<<<<,<,,,,1<1<<<44566666666666666666666664441<11<1<<<<1<<<2222",
"<<<<<,<<,,,,<1<1<<4446666666666666666666666544<<11<1<<<<<<<<2222",
"<<<<<<<,,,,,<11<<<4446666666666666666666666444<<<111<<<<<<<<2222",
"<<<<<<<,,,,,1<1<<<4446666666666666666666666444<<111<<<<<1<<<2222"
};
