/* XPM */
static char *result[] = {
/* columns rows colors chars-per-pixel */
"64 64 27 1 ",
"  c #52281C",
". c #5D2E20",
"X c #663224",
"o c #6B3426",
"O c #713727",
"+ c #753829",
"@ c #7A3C2B",
"# c #803E2D",
"$ c #84412E",
"% c #89422F",
"& c #8C4531",
"* c #914733",
"= c #934833",
"- c #9C4C37",
"; c #9F4E39",
": c #A14F38",
"> c #A5513A",
", c #AC553B",
"< c #B65A40",
"1 c #ABACAB",
"2 c #B4B4B4",
"3 c #BABABA",
"4 c #CECECE",
"5 c #D3D4D3",
"6 c #DCDCDC",
"7 c #E1E1E1",
"8 c None",
/* pixels */
"-;--====----4444----;;;;****66688666<<,,**&*5555----,>,,--------",
"----====----4444----;-;;****66688666,,,,&***5555---->,,>-;------",
"--;-====----4444----;;;;****66688666,,,,*&*&5455----,>>,--------",
"----====----4444;---;;;;****66688666,,<,&*&*5555----,>,>--;-----",
"@@@#@@@@$%$$7777<<<<@@@@ooOo66688666@+++#%#$5545---:@###@@@@@@@@",
"@@@@@@@@&$%%7777<<<<@@@@oooo66788666@@++#$%%5555----#@#@@@@@@@#@",
"@@@@@@@@$$%%7777<<<<@@@@oooo66688666++++$$%#5555----##@$@@@@#@@@",
"#@@@@@@@%%%%7777<<<<@@@@ooOo66688666+@++$$$#5555----@#$@@@@@@@#@",
"@@@@&&%&oooo5555----@@##@@@#66688666@@@@@@@@5555####****@@@@&*&&",
"@@@@&&&&XooX5555----#@@#@@@@66688666@@@@@@@@5445#&##****@@@@&&&*",
"@@@@&&&&oXoo4555----#@$#@@@@66688666@@@@@@@@5555%####-==@@@@&***",
"@@@@&&&&XXXo5555---;@$@#@@@@66688666@@@+@@@@5555%###====@@@@*&*&",
"3333332222225556222222222222666886663333222266662222222221123333",
"3333233321225655222222222223676886663332222266662232322222223434",
"3333333222225556232222222322666886663333222266662222222212214333",
"3333323222226565222322222222666886663333222366662222222212213334",
"==&%----------:-----====----66688666,>,>::::----:-----------4545",
"&&%&---:------------====--;-66688666>,>,::;:--;-::----------4554",
"%%%&---------:------====----66688766,>,>::;:-;;--------:----4544",
"&&&%:----------:----====----66688666>,>>:;;;--;;--:---------5445",
"----@@@@----@@@@XoXX+@@@+@+@66788666@@@@OOOO@@@@oooo@@@@@@@@6656",
"----@@@@=--=@@@@XXXX@@+@@+@@66688766@@@@OOOO@@@@oooo@@@@@@@@5555",
"----@@@@----@@@@XoXX#+#@@@@@66688666@@@@OOOO@@@@oooX@@@@@@@@5665",
"----@@@@---=@@@@XXXX@@@@+@+@66688666@@@@OOOO@@@@oooo@+@+@@@$5556",
"---:..X.&%%%oooo#@@@XX..#@@@66688766oooo$$$$++++@@@@@@@@@@@@5455",
"----.X..%%%%oooO@##+X.XX@@@@66688676oooo$$$$O+++@@@@@@@@@@@@5545",
"---:....%%%%oOoo@#+#XXX.@@@@66788666oOoO$$$$++++@@@@@@@@@@@@5555",
"----...X%%%%oOoX#+#+.X.X@@@@66688666oooo$$$@++++@@@@@@@#@@@@5455",
"2222222222222222111233332222667886662222221222222223222222225556",
"2222222222222222222233322222657886662222122122222222222222225665",
"2222222222222221212233332222656886662322211222222222222222226555",
"2222223222222122222232332222766886662222122132222322222222225656",
"::::--------5555-=------>>>>66688666;-------5555------:-<<<<@@@#",
"::::--------5455=-==---->>>>66688666--------5545--------<<<<@@@@",
"::::--------4555-==---;->>>>66688666--------5455--------<<<<@@@#",
"::--------:>5555=--=--;;>>>>66688666--------5555------:-<<<<##@@",
"#@@@@@@@##+#5444==;=@@@@@@@@66688666%&&&+@+@4444--;-&&%&@@@@@@@@",
"@@@@@@@@#+#+4444====@@@@@@@@66688666&%%&@+@@4444-:--&#&#@@@@@@@@",
"@@@@@@#+#++#4444**=-@@@@@@@@66688666&&&&+@@@4344----&&#&@@@@@@@@",
"@@@@+#+#+#++4444*-**@@@@@@@@66688766&%&%@+@+4444----#&&&@+@@@@@@",
"%%&&@@@@##--6667;;;-@@@@....66688666$#$$@@@@4545----#@@@##%%@@@@",
"&&&&@@@@=###6767;;--@@@@ .. 66688666$###@@@@5454--;;@@@@%&$%@@@@",
"&%%*@@@@=##=7766----@@@@....66688666#$#$@@@@5454--;;@@@@##&$@@@@",
"&%%%@@@@##=#6767-;--@@@+....66688666$$#$@@@@4545;-;;@@@@&&$$@@@@",
"2232222211115665222222222222666886662222222255652222333312222222",
"2222222211125555222322222222666886662322222256562222333322112223",
"2222222211116556222222222322666886662222122166552212333321122222",
"2222222211116556222223222222676886662222222265662222333322223222",
">;;;;::;,<,<---:-------;*===66688666<<<<--------=--=----::;-7777",
";;;;>;::,,,,----;--;----*===66688666<<<<-;------===-:---:-;;7777",
";;;;;>;;,,<<------=;;;;-*===66688766<<<<-;--;--;---------:;;7777",
";;;;;;;-<,,,-----;;;-=;-*===66688766<<<<------;===-=---::;;;7777",
";---@@@@@@@+@@@@@@@@@@@@XooX66688666+@@@@@@@@@@@@@@@@@#@####5555",
"----@@@@++@@@@@@@@@@@@@@XXXX66788766@+++@@@@@@@@@@@@#@@@####5555",
"----@@@@@@+@@@@@@@@@@@@@XoXo66688666@@@@@@@@@@@@@@@@@#@@$@##5555",
"----@@@@@++@@+@@@@@@@@@@XXXX66688666+@@@@@@@@@@@@@@@@@@#@$@@5555",
"----    $%%$@@@@@@@@@@@@@@@@66688766@@@@@@@@@@@@$#$$@@@@####5555",
"----    %$%%@@@@@@@@@@@@@@@@66688666@@@@@@@@@@@@$$##@@@@####5555",
"--;-    $%%%@@@@@@@@@@@@@@@@66788666@@@@@@@@@@@@#$$$@@@@####5555",
"--=-    %$$%@@@@@@@@@@@@@@@@66688766@@@@@@++@@@@$##$@@@#####5555",
"2222222211112323222222322222666886662222122232223323222223224444",
"2222221211113232223233232222666886662222222122223333222222224444",
"2222212211112323222232232222666887662222212222223223222222224444",
"2322222111112232222232233222666886662222121222223333222223224444"
};
